/* XPM */
static char *result[] = {
/* columns rows colors chars-per-pixel */
"16 16 199 2 ",
"   c #171E27",
".  c #161D28",
"X  c #161F2A",
"o  c #181F28",
"O  c #181F29",
"+  c #1A202A",
"@  c #1F242B",
"#  c #19202C",
"$  c #1C242F",
"%  c #1A2431",
"&  c #1F2733",
"*  c #182435",
"=  c #1A2535",
"-  c #1B2634",
";  c #22272D",
":  c #2A2C2E",
">  c #202730",
",  c #212732",
"<  c #202831",
"1  c #212831",
"2  c #222933",
"3  c #272D35",
"4  c #212C3C",
"5  c #212D3D",
"6  c #222C3C",
"7  c #232E3C",
"8  c #242E3D",
"9  c #2B3138",
"0  c #2B3139",
"q  c #2B323B",
"w  c #2C3239",
"e  c #2E3338",
"r  c #2F3338",
"t  c #2E3239",
"y  c #2D343B",
"u  c #2D333C",
"i  c #2F353D",
"p  c #2D343E",
"a  c #2E353F",
"s  c #30353A",
"d  c #31353A",
"f  c #31353B",
"g  c #33363A",
"h  c #34373A",
"j  c #30353D",
"k  c #31363C",
"l  c #32363C",
"z  c #32373D",
"x  c #35393E",
"c  c #36393E",
"v  c #373A3F",
"b  c #1F3245",
"n  c #273241",
"m  c #2E3743",
"M  c #2F3743",
"N  c #303740",
"B  c #313946",
"V  c #303A47",
"C  c #3B3E41",
"Z  c #313B48",
"A  c #323B48",
"S  c #333D4A",
"D  c #353E4B",
"F  c #193C78",
"G  c #38414D",
"H  c #3C4451",
"J  c #394454",
"K  c #3A4555",
"L  c #3F4A59",
"P  c #444950",
"I  c #4D4E50",
"U  c #4D5662",
"Y  c #4E5763",
"T  c #44596C",
"R  c #515A66",
"E  c #525B67",
"W  c #5A5D60",
"Q  c #5E646C",
"!  c #5C6A7F",
"~  c #62666B",
"^  c #646668",
"/  c #696C6F",
"(  c #737578",
")  c #747579",
"_  c #75777C",
"`  c #76797F",
"'  c #144AA4",
"]  c #1854A7",
"[  c #1D54A9",
"{  c #1F65AF",
"}  c #2367A4",
"|  c #616F85",
" . c #687484",
".. c #687487",
"X. c #6A7586",
"o. c #687589",
"O. c #6A7688",
"+. c #68768A",
"@. c #6F7B8E",
"#. c #757A80",
"$. c #787D82",
"%. c #6E7C91",
"&. c #737E90",
"*. c #717F93",
"=. c #557FAF",
"-. c #0F52C6",
";. c #145CC6",
":. c #145DC6",
">. c #0B53D4",
",. c #1C79D7",
"<. c #1A7CE7",
"1. c #7E8083",
"2. c #7B838F",
"3. c #7F858C",
"4. c #788391",
"5. c #788392",
"6. c #7A8491",
"7. c #7A8493",
"8. c #7D8692",
"9. c #7D8693",
"0. c #7A8799",
"q. c #7E8898",
"w. c #2285D9",
"e. c #2289DF",
"r. c #838587",
"t. c #888A8E",
"y. c #808B99",
"u. c #878F98",
"i. c #858F9C",
"p. c #848F9D",
"a. c #8A9097",
"s. c #8A929B",
"d. c #8B929C",
"f. c #8D949D",
"g. c #8B96A5",
"h. c #8D98A7",
"j. c #939AA5",
"k. c #929AA6",
"l. c #949BA6",
"z. c #999EA5",
"x. c #939CA8",
"c. c #939DAA",
"v. c #949DA8",
"b. c #959DA9",
"n. c #939DAC",
"m. c #989FAA",
"M. c #9DA1A4",
"N. c #98A1AD",
"B. c #99A1AD",
"V. c #99A3AF",
"C. c #9CA4AD",
"Z. c #9CA4AE",
"A. c #9AA4B2",
"S. c #9BA4B3",
"D. c #A0A7B1",
"F. c #A0A7B2",
"G. c #A2A9B1",
"H. c #A0A8B2",
"J. c #A1A8B2",
"K. c #A1A9B3",
"L. c #A2A9B2",
"P. c #A2A8B3",
"I. c #A0A9B5",
"U. c #A2A9B4",
"Y. c #A0A9B6",
"T. c #A5ACB6",
"R. c #A6ACB6",
"E. c #ACB3BC",
"W. c #ACB4BC",
"Q. c #B6B7BA",
"!. c #BDC1C6",
"~. c #C1C7CF",
"^. c #C4C9D0",
"/. c #C6CAD1",
"(. c #C8CBD0",
"). c #C8CDD4",
"_. c #CACED6",
"`. c #CBD0D8",
"'. c #DBDCDE",
"]. c #E2E3E5",
"[. c #E6E8EB",
"{. c #EAECF0",
"}. c #E8EDF5",
"|. c #EFF0F2",
" X c #EFF4FA",
".X c #F2F4F8",
"XX c #F1F4FA",
"oX c #F1F5FA",
"OX c #F0F5FB",
"+X c #F2F6FA",
"@X c #F3F6FA",
"#X c #F2F6FB",
"$X c #F4F5F8",
"%X c #F4F6F9",
"&X c #F5F7FA",
"*X c #F4F7FB",
"=X c #F6F7FA",
"-X c #F6F8FA",
";X c None",
/* pixels */
";X;X;X;X;X7.F.W.E.H.4.;X;X;X;X;X",
";X;X;Xy.T.f.E S A U u.K.q.;X;X;X",
";X;Xi.L.H N Q a.3.i p D C.p.;X;X",
";X5.G.M j l !.#X(.z k i m m.@.;X",
";XJ.G y s c {.*XM.v x k > 7 B.;X",
" .s.q t d W &X&X( C g ; @ $ 8...",
"k.Y 9 e g t.=X$XI T w.} e.b L c.",
"P.B 0 r h Q.-X|.].=.<.{ ,.< 4 Y.",
"U.Z w f / [.=X'.r.[ :.;.] 1 5 I.",
"v.R u ~ .X%X%X^ : -.' >.F , L n.",
"X.d.a P $.+X@X1.) _ ` #.3 & 9.+.",
";XD.V + z.OXoXoXoXXX X}.2 n V.;X",
";XO.l.% R.`._.)./.^.~.Z.- b.*.;X",
";X;X&.j.8 # O o   . X 6 b.0.;X;X",
";X;X;Xo.x.2.K = * J 6.N.%.;X;X;X",
";X;X;X;X;X! g.A.S.h.| ;X;X;X;X;X"
};
