/* XPM */
static char *result[] = {
/* columns rows colors chars-per-pixel */
"128 128 220 2 ",
"   c #171D27",
".  c #191F27",
"X  c #151E2A",
"o  c #191F29",
"O  c #121F31",
"+  c #1B2027",
"@  c #16202D",
"#  c #1B222C",
"$  c #152234",
"%  c #1B2533",
"&  c #1F2835",
"*  c #15243A",
"=  c #192639",
"-  c #1D293C",
";  c #17283F",
":  c #22262D",
">  c #25292D",
",  c #2A2C2E",
"<  c #212731",
"1  c #222831",
"2  c #2A2D31",
"3  c #222D3D",
"4  c #292F3A",
"5  c #2D3136",
"6  c #2D333B",
"7  c #27313E",
"8  c #32363C",
"9  c #35393D",
"0  c #383B3F",
"q  c #333436",
"w  c #1C2C42",
"e  c #1F3047",
"r  c #1E375C",
"t  c #212E43",
"y  c #253243",
"u  c #2C3543",
"i  c #2E3846",
"p  c #22334A",
"a  c #2A3748",
"s  c #2D394B",
"d  c #263A4B",
"f  c #303741",
"g  c #323943",
"h  c #3B3D41",
"j  c #323C4B",
"k  c #253B52",
"l  c #2B3B53",
"z  c #233757",
"x  c #313E51",
"c  c #1C3A6B",
"v  c #213B67",
"b  c #3E4043",
"n  c #3A414C",
"m  c #354254",
"M  c #34445C",
"N  c #394659",
"B  c #3C4A5D",
"V  c #3B4655",
"C  c #2A4159",
"Z  c #1E457B",
"A  c #224769",
"S  c #3C4C64",
"D  c #3B4C65",
"F  c #3F5068",
"G  c #224B74",
"H  c #24527D",
"J  c #414244",
"K  c #45484C",
"L  c #464D58",
"P  c #4D5156",
"I  c #54575B",
"U  c #414E61",
"Y  c #445265",
"T  c #45546A",
"R  c #4C596C",
"E  c #4A5668",
"W  c #535C6A",
"Q  c #575C63",
"!  c #4C5C72",
"~  c #465870",
"^  c #515F73",
"/  c #5C626B",
"(  c #546275",
")  c #5B6573",
"_  c #54647C",
"`  c #5C697C",
"'  c #58667A",
"]  c #4F6078",
"[  c #65686B",
"{  c #646C76",
"}  c #73767A",
"|  c #6C727B",
" . c #193F80",
".. c #19448B",
"X. c #1B4F98",
"o. c #225689",
"O. c #22619C",
"+. c #124AAD",
"@. c #1145A4",
"#. c #1955A7",
"$. c #1250B7",
"%. c #1A62B9",
"&. c #2268A8",
"*. c #2172BA",
"=. c #5C6C83",
"-. c #5F7089",
";. c #626E82",
":. c #647285",
">. c #65758B",
",. c #6C7A8C",
"<. c #697687",
"1. c #767C86",
"2. c #6B7B92",
"3. c #697790",
"4. c #717F92",
"5. c #0955DD",
"6. c #0B5ADE",
"7. c #0B53D0",
"8. c #1156C6",
"9. c #1469D8",
"0. c #1C74CF",
"q. c #0A57E0",
"w. c #0C5DE0",
"e. c #0E62E1",
"r. c #1066E2",
"t. c #126CE3",
"y. c #1673E6",
"u. c #187AE7",
"i. c #197CE8",
"p. c #1878E7",
"a. c #237DC9",
"s. c #7D8289",
"d. c #738195",
"f. c #74849A",
"g. c #7B899D",
"h. c #7A8698",
"j. c #7C8CA2",
"k. c #7E8EAA",
"l. c #2184DB",
"z. c #1C84EA",
"x. c #1F8AEC",
"c. c #218EED",
"v. c #2189E4",
"b. c #2292EE",
"n. c #2394F0",
"m. c #83868A",
"M. c #868C96",
"N. c #8C9198",
"B. c #96989C",
"V. c #818FA1",
"C. c #8592A5",
"Z. c #8C9AAC",
"A. c #8895A8",
"S. c #949DA9",
"D. c #8D9CB4",
"F. c #8798B3",
"G. c #919EB1",
"H. c #9BA1AA",
"J. c #9DAABC",
"K. c #98A4B6",
"L. c #A3A6AA",
"P. c #A1ADBC",
"I. c #A7ACB4",
"U. c #A9B2BC",
"Y. c #B5B8BC",
"T. c #9AABC5",
"R. c #9EB0CD",
"E. c #A1AEC3",
"W. c #A5B2C4",
"Q. c #ABB6C5",
"!. c #A9B7CE",
"~. c #ACB9CC",
"^. c #A7B5CA",
"/. c #B3BDCB",
"(. c #B5BBC4",
"). c #ADBBD3",
"_. c #ABBDDB",
"`. c #A6B8D5",
"'. c #B1BED3",
"]. c #B7C1CD",
"[. c #AFC0DD",
"{. c #B5C1D3",
"}. c #BBC5D4",
"|. c #B2C2DD",
" X c #BDC8D9",
".X c #B5C5E1",
"XX c #BACBE6",
"oX c #BBCCE8",
"OX c #B8C7E1",
"+X c #C4C7CA",
"@X c #C2CDDB",
"#X c #C6CCD4",
"$X c #C9D2DD",
"%X c #CAD2DB",
"&X c #D4D7DA",
"*X c #C1CEE3",
"=X c #CBD5E2",
"-X c #CED8E5",
";X c #C8D5EB",
":X c #D4DBE4",
">X c #D4DEEB",
",X c #D8DBE0",
"<X c #D2DEF1",
"1X c #DAE2EC",
"2X c #D9E0E9",
"3X c #DBE5F4",
"4X c #DBE6F5",
"5X c #E4E8EC",
"6X c #E3EAF2",
"7X c #EAEEF3",
"8X c #E3EDFB",
"9X c #E8EFF8",
"0X c #EDF1F5",
"qX c #E6F1FF",
"wX c #EEF3FA",
"eX c #F1F3F6",
"rX c #F3F6FA",
"tX c #F6F8FA",
"yX c #FBFCFC",
"uX c None",
/* pixels */
"uXuXuXuXuXuXuXuXuXuXuXuXuXuXuXuXuXuXuXuXuXuXuXuXuXuXuXuXuXuXuXuXuXuXuXuXuXuXuXuXuXuXuXuXuXuXuXuXuXuXuXuXuXuXuXuXuXqXqXqXqXqXqXqXqXqXqXqXqXqXqXuXuXuXuXuXuXuXuXuXuXuXuXuXuXuXuXuXuXuXuXuXuXuXuXuXuXuXuXuXuXuXuXuXuXuXuXuXuXuXuXuXuXuXuXuXuXuXuXuXuXuXuXuXuXuXuXuX",
"uXuXuXuXuXuXuXuXuXuXuXuXuXuXuXuXuXuXuXuXuXuXuXuXuXuXuXuXuXuXuXuXuXuXuXuXuXuXuXuXuXuXuXuXuXuXuXuXuXuXuX8XqXqX8X@XQ.H.M.d.| ) / W R W ) { <.h.A.I.].>X8XqXqX8XuXuXuXuXuXuXuXuXuXuXuXuXuXuXuXuXuXuXuXuXuXuXuXuXuXuXuXuXuXuXuXuXuXuXuXuXuXuXuXuXuXuXuXuXuXuXuXuXuXuX",
"uXuXuXuXuXuXuXuXuXuXuXuXuXuXuXuXuXuXuXuXuXuXuXuXuXuXuXuXuXuXuXuXuXuXuXuXuXuXuXuXuXuXuXuXuXuXuX8X8X6X].Z.<.L g i i i i i i s s u i a i a u u u u u u j W s.J.=X8X8X8XuXuXuXuXuXuXuXuXuXuXuXuXuXuXuXuXuXuXuXuXuXuXuXuXuXuXuXuXuXuXuXuXuXuXuXuXuXuXuXuXuXuXuXuXuXuX",
"uXuXuXuXuXuXuXuXuXuXuXuXuXuXuXuXuXuXuXuXuXuXuXuXuXuXuXuXuXuXuXuXuXuXuXuXuXuXuXuXuXuXuXuX8X8X@XA.) j i i i s s s s s s s s s m m m m s a s s s s a a i u u u u V <.P.>X8X8XuXuXuXuXuXuXuXuXuXuXuXuXuXuXuXuXuXuXuXuXuXuXuXuXuXuXuXuXuXuXuXuXuXuXuXuXuXuXuXuXuXuXuX",
"uXuXuXuXuXuXuXuXuXuXuXuXuXuXuXuXuXuXuXuXuXuXuXuXuXuXuXuXuXuXuXuXuXuXuXuXuXuXuXuXuX8X6X}.M.L i i s i s s j B ` d.G.Q. X:X3XwXrXrXrXrXwXqX1X$X].J.C.<.R l a u a u u u u ( G.<X8X4XuXuXuXuXuXuXuXuXuXuXuXuXuXuXuXuXuXuXuXuXuXuXuXuXuXuXuXuXuXuXuXuXuXuXuXuXuXuXuXuX",
"uXuXuXuXuXuXuXuXuXuXuXuXuXuXuXuXuXuXuXuXuXuXuXuXuXuXuXuXuXuXuXuXuXuXuXuXuXuXuX4X>XZ.E i s i j s m ( C./.2XrXyXyXyXyXyXyXyXyXyXyXyXyXyXyXyXyXyXyXyXyXtXwX@XK.>.B i a a u i i { ~.8X4XuXuXuXuXuXuXuXuXuXuXuXuXuXuXuXuXuXuXuXuXuXuXuXuXuXuXuXuXuXuXuXuXuXuXuXuXuXuX",
"uXuXuXuXuXuXuXuXuXuXuXuXuXuXuXuXuXuXuXuXuXuXuXuXuXuXuXuXuXuXuXuXuXuXuXuX4X4X X1.j g s s s B 4.Q.6XrXyXyXyXyXyXyXyXyXyXyXyXyXyXyXyXyXyXyXyXyXyXyXyXyXyXyXyXyXyXrX$XA.^ s a u u u L Z.1X4XuXuXuXuXuXuXuXuXuXuXuXuXuXuXuXuXuXuXuXuXuXuXuXuXuXuXuXuXuXuXuXuXuXuXuXuX",
"uXuXuXuXuXuXuXuXuXuXuXuXuXuXuXuXuXuXuXuXuXuXuXuXuXuXuXuXuXuXuXuXuXuX4X4X{.| i i s s m 4.].wXyXyXyXyXyXyXyXyXyXyXyXyXyXtXyXrXrXwXrXrXrXrXyXtXyXyXyXyXyXyXyXyXyXyXyXyXtX:XZ.T a u y u m M.<X4XuXuXuXuXuXuXuXuXuXuXuXuXuXuXuXuXuXuXuXuXuXuXuXuXuXuXuXuXuXuXuXuXuXuX",
"uXuXuXuXuXuXuXuXuXuXuXuXuXuXuXuXuXuXuXuXuXuXuXuXuXuXuXuXuXuXuXuXuX3X X` i i i s R J.6XyXyXyXyXyXyXyXyXyXyXwX2X].K.g.<.( E B m m m C M L R ` d.C.P.@X9XrXyXyXyXyXyXyXyXyXyXtX X,.s a y u j C.3X4XuXuXuXuXuXuXuXuXuXuXuXuXuXuXuXuXuXuXuXuXuXuXuXuXuXuXuXuXuXuXuXuX",
"uXuXuXuXuXuXuXuXuXuXuXuXuXuXuXuXuXuXuXuXuXuXuXuXuXuXuXuXuXuXuX3X=X,.i i i j :.{.rXyXyXyXyXyXyXyXyXwX}.Z.;.B s l s s s s s i s s u n s a i a a a s s s R d.J.2XtXyXtXyXyXyXyXyXyX1XV.x d i y N K.4X4XuXuXuXuXuXuXuXuXuXuXuXuXuXuXuXuXuXuXuXuXuXuXuXuXuXuXuXuXuXuX",
"uXuXuXuXuXuXuXuXuXuXuXuXuXuXuXuXuXuXuXuXuXuXuXuXuXuXuXuXuX1X<XZ.n i s s :. XtXyXyXyXyXyXyXyX3XP.<.N s j s s i i i i i i i i s i u u i i a i u i i a i a a s s T j. XrXyXyXyXyXyXyXyX6XC.m u u y W  X4XuXuXuXuXuXuXuXuXuXuXuXuXuXuXuXuXuXuXuXuXuXuXuXuXuXuXuXuXuX",
"uXuXuXuXuXuXuXuXuXuXuXuXuXuXuXuXuXuXuXuXuXuXuXuXuXuXuXuX<X{.Q u i s ( }.rXyXyXyXyXyXtXwX(.:.m x s s s i s g i i i i i i u i i f i u u i 6 i i u a i u u i a a a s s U j.:XtXyXyXyXyXyXyX1Xf.s u u i V.<X3XuXuXuXuXuXuXuXuXuXuXuXuXuXuXuXuXuXuXuXuXuXuXuXuXuXuXuX",
"uXuXuXuXuXuXuXuXuXuXuXuXuXuXuXuXuXuXuXuXuXuXuXuXuXuXuX>XC.j i s B J.rXyXyXyXyXyXyX1XA.B s j s s i i i g i i f i i i i 8 u i i 6 8 8 u u u u i i u u 6 u 6 u u u u u a s s ` ~.rXyXyXyXyXyXyX$X_ a y u E  X<XuXuXuXuXuXuXuXuXuXuXuXuXuXuXuXuXuXuXuXuXuXuXuXuXuXuX",
"uXuXuXuXuXuXuXuXuXuXuXuXuXuXuXuXuXuXuXuXuXuXuXuXuX>X@X) i i j 4.3XyXyXyXyXyXyX:Xd.m s j s g s g g i i i f u i i i 8 u i i 6 6 i u i u 8 8 u 6 u i 6 u u u u 6 u u i u u a a a Y J.wXyXyXyXyXyXrXK.N u u j G.<XuXuXuXuXuXuXuXuXuXuXuXuXuXuXuXuXuXuXuXuXuXuXuXuXuX",
"uXuXuXuXuXuXuXuXuXuXuXuXuXuXuXuXuXuXuXuXuXuXuXuX<XW.V i s U ~.tXyXyXyXyXyX2Xd.m s j s g i s f i i f i 8 f f i i 8 i 8 8 8 6 6 i 8 i 8 u i 6 u u 7 8 8 u u 6 u u u 6 u u u u d a s Y W.tXyXyXyXyXyX>X=.a u u <.;X<XuXuXuXuXuXuXuXuXuXuXuXuXuXuXuXuXuXuXuXuXuXuXuX",
"uXuXuXuXuXuXuXuXuXuXuXuXuXuXuXuXuXuXuXuXuXuXuX-XA.j g s :.3XyXyXyXyXyXqXA.m j s s i s i i g f f i f f i f f f 8 u 8 i 6 8 i f 8 u 6 6 8 6 8 6 8 6 8 u 6 6 u 6 6 7 u 4 u u u u u u u s !  XtXyXyXyXyXrXG.l i u R *X<XuXuXuXuXuXuXuXuXuXuXuXuXuXuXuXuXuXuXuXuXuXuX",
"uXuXuXuXuXuXuXuXuXuXuXuXuXuXuXuXuXuXuXuXuXuX-X4.u i x G.wXyXyXyXyXtX/.Y s j i g i i f f i 8 f i f f f f f f 8 f 8 f f 6 f 8 6 f 8 8 8 u 6 u 8 6 u 6 6 6 6 6 6 u 6 6 u u 6 u 6 u u u u d s 2.6XyXyXyXyXyX XS d u V '.<XuXuXuXuXuXuXuXuXuXuXuXuXuXuXuXuXuXuXuXuXuX",
"uXuXuXuXuXuXuXuXuXuXuXuXuXuXuXuXuXuXuXuXuX*X` i i N {.yXyXyXyXyX6X,.s s s i i i i i f i i i f f f f 8 f 8 8 f f f 8 f f 6 f 8 f i 6 6 8 8 8 8 u 6 8 6 i u 8 u 6 6 u 6 6 u 7 6 u u u u u i a B ~.yXyXyXyXtX1X( d i j ^.>XuXuXuXuXuXuXuXuXuXuXuXuXuXuXuXuXuXuXuXuX",
"uXuXuXuXuXuXuXuXuXuXuXuXuXuXuXuXuXuXuXuX@XW i j E -XyXyXyXyXyX{.Y s i i i f i i i 8 i 8 i 8 8 f 8 f 8 f u 8 8 f f 8 f 8 8 f 8 8 6 8 6 u 8 6 8 6 6 8 i 6 6 6 6 6 6 u 6 u 7 6 6 u 6 u u u u a a s d.7XtXyXyXyXwX,.s i j T.<XuXuXuXuXuXuXuXuXuXuXuXuXuXuXuXuXuXuXuX",
"uXuXuXuXuXuXuXuXuXuXuXuXuXuXuXuXuXuXuX XR u i ( 3XyXyXyXyXrXC.x s i i i i i i 8 f i f f 8 8 i f f 8 f f f 8 f f f 8 8 8 f 8 f f 9 8 8 8 8 8 u 8 8 6 6 8 6 6 f 6 8 6 6 6 6 6 u 6 u 6 7 u u u u a s T :XyXyXyXyXrXj.a i s J.;XuXuXuXuXuXuXuXuXuXuXuXuXuXuXuXuXuXuX",
"uXuXuXuXuXuXuXuXuXuXuXuXuXuXuXuXuXuXXXW u s =.6XyXyXyXyX6X` j s g i i i f i f f i 8 i 8 i 6 i 8 8 f 8 f K S.#X:X,X$X&X#X#X+X/.(.Y.Y.U.U.U.I.N.n 6 6 8 6 8 6 8 6 u 6 6 6 6 8 6 6 u 6 u 6 u u u u u s m ~.yXyXyXyXtXD.s u s J.<XuXuXuXuXuXuXuXuXuXuXuXuXuXuXuXuXuX",
"uXuXuXuXuXuXuXuXuXuXuXuXuXuXuXuXuX*XW u i ;.0XyXyXyXyX:XY s s s i i i u i f f 6 i 8 8 8 8 8 8 f f 8 f h :XwXrXrXwXwXwXrXwXrXtXwXwXwXrXwXwXwXwXN.8 8 8 6 6 8 6 6 8 6 8 6 6 u 6 u 6 6 6 u 6 6 u u u s s s D.yXyXyXyXtXD.s u j W.;XuXuXuXuXuXuXuXuXuXuXuXuXuXuXuXuX",
"uXuXuXuXuXuXuXuXuXuXuXuXuXuXuXuX*X{ u u ` qXyXyXyXyX XN s i i u i 6 f f 6 f i 8 6 i 8 i f 8 8 8 f 8 f M.wXrXwXrXrXwXwXrXrXwXwXwXwXwXwXrXrXwXwXM.8 8 6 6 8 8 6 8 6 8 6 6 8 6 8 6 6 u u 6 u 6 u u u u a a s f.tXyXyXyXtXZ.s s n ).;XuXuXuXuXuXuXuXuXuXuXuXuXuXuXuX",
"uXuXuXuXuXuXuXuXuXuXuXuXuXuXuX*X,.u a ( 6XyXyXyXyX].m s i i i f i 6 i 6 i 8 f 8 8 8 8 8 8 f f 8 8 8 8 +XwXrXwXwXwXwXrXrXwXrXwXtXwXwXwXrXwXrXwX[ 8 8 8 i 8 6 8 6 8 6 8 u 6 6 6 6 6 6 6 6 6 u 6 i u u u u s s 2.rXyXyXyXrXj.s s j  X;XuXuXuXuXuXuXuXuXuXuXuXuXuXuX",
"uXuXuXuXuXuXuXuXuXuXuXuXuXuX*XC.u a E 1XyXyXyXtX~.m s i u u f u i 6 8 8 i 6 6 f 8 f 8 8 8 8 8 8 f 8 g 7XrXwXwXrXwXwXrXtXwXwXrXwXrXrXwXrXwXrXwXb 8 8 6 8 8 8 8 8 8 8 6 8 8 6 6 6 8 8 6 u 6 6 i 6 u u u u i a s >.rXyXyXyXrX2.s = B ;XuXuXuXuXuXuXuXuXuXuXuXuXuXuX",
"uXuXuXuXuXuXuXuXuXuXuXuXuX XJ.i u N -XyXyXyXyX].m s i u u f u 8 u 8 i 6 8 8 8 f 8 8 f f f f 8 8 8 9 Q rXrXrXwXrXwXtXrXwXwXrXrXwXrXwXwXrXrXrX%Xq 8 8 8 8 8 8 6 8 8 6 8 6 6 8 8 6 u 6 6 8 6 u 6 u u 6 f u i i s s ,.rXyXyXyXwX( * O ;.;XuXuXuXuXuXuXuXuXuXuXuXuXuX",
"uXuXuXuXuXuXuXuXuXuXuXuXuX'.V u s {.yXyXyXyX Xm u i i u i 6 f 6 i 6 i 8 i 8 6 8 f 8 8 8 8 8 f 9 8 9 M.rXrXwXrXrXrXwXrXwXrXrXrXrXwXrXrXwXrXwXL.8 8 8 8 8 8 8 8 8 8 6 8 6 8 6 8 6 8 6 8 6 8 8 6 i u u u u u i i s l g.tXyXyXyX2Xk * $ Z.;XuXuXuXuXuXuXuXuXuXuXuXuX",
"uXuXuXuXuXuXuXuXuXuXuXuXXX) 6 s Z.tXyXyXyX:XN s u a u u 6 u 8 u 8 6 6 8 8 6 8 f 8 8 8 f 8 8 8 8 8 f Y.tXrXrXrXwXrXwXrXtXrXrXwXrXrXrXrXrXrXwXs.8 9 8 9 8 9 8 8 8 8 8 8 8 8 8 6 i 6 8 u 8 6 u 8 6 6 8 6 i u u u i s s G.yXyXyXyX{.- $ 3 ).;XuXuXuXuXuXuXuXuXuXuXuX",
"uXuXuXuXuXuXuXuXuXuXuX Xg.6 a ;.wXyXyXyX6XY s s u i u 8 u u 6 8 8 i 6 8 8 8 8 8 8 8 8 8 8 8 8 8 8 8 6XrXwXwXrXrXrXwXtXwXtXrXrXrXrXrXrXrXrXwXL 8 8 8 8 g 8 9 8 9 8 8 8 8 8 8 8 8 8 8 6 f 6 8 u 6 6 i 6 u u i i i s s s W.yXyXyXtXC.= $ L *XuXuXuXuXuXuXuXuXuXuXuX",
"uXuXuXuXuXuXuXuXuXuX X^.j a N 1XyXyXyXrX` s u u u u 6 u 6 8 i 8 6 8 6 6 u 8 6 8 8 8 8 8 8 8 9 8 8 I wXrXrXrXrXrXrXwXrXrXtXrXrXrXrXrXrXrXwX1X9 9 8 9 9 8 8 8 8 8 9 8 8 8 8 8 8 8 6 8 8 8 f 6 8 8 8 8 f 8 6 f u i i y = p =XyXyXyXwX~ * $ f.;XuXuXuXuXuXuXuXuXuXuX",
"uXuXuXuXuXuXuXuXuXuX XR u a ~.yXyXyXyXC.s i u i u 6 6 6 u 6 6 6 8 8 8 8 6 6 8 8 8 8 i 8 8 9 8 9 9 s.wXrXrXrXrXrXtXrXwXtXrXwXrXrXrXwXrXtXrXY.8 9 0 8 9 8 0 8 0 9 8 8 8 8 8 8 8 8 8 8 f f 8 8 6 f u 8 f u f f f i 4 $ $ * D 6XyXyXyX:Xp * - '.uXuXuXuXuXuXuXuXuXuX",
"uXuXuXuXuXuXuXuXuX|.M.y u ,.tXyXyXyX{.s a u u 6 i 6 i 6 6 8 6 6 6 8 6 6 8 8 8 8 8 8 8 8 8 8 9 9 9 I.rXrXrXrXwXrXrXwXtXwXtXtXrXrXrXrXrXtXrXm.9 9 8 0 8 0 8 9 8 8 f 0 8 0 8 8 f 8 f 8 8 8 8 f f 8 i 8 8 u f f 6 % $ # $ = * >.tXyXyXtXD.= * T ;XuXuXuXuXuXuXuXuXuX",
"uXuXuXuXuXuXuXuXuX).j u m 3XtXyXyX3XB u u u u u 6 6 6 u 6 6 6 8 6 8 6 8 8 8 q 8 8 8 8 8 8 9 8 9 f ,XrXrXrXrXrXrXrXtXwXtXrXtXrXrXrXrXrXrXrXQ 9 g 9 9 9 9 9 9 9 9 9 8 0 8 8 8 9 8 8 8 8 8 f 8 8 f 8 6 f f 8 7 # # % % $ * * = W.yXyXyXrXT = % Z.*XuXuXuXuXuXuXuXuX",
"uXuXuXuXuXuXuXuX{.<.u a K.yXyXyXtX,.s i u u 6 u 7 6 6 8 6 6 8 6 8 6 6 8 6 8 6 8 8 8 8 8 9 8 9 8 K rXrXrXrXrXrXrXrXrXrXrXrXrXrXrXrXrXrXrX5X0 0 0 9 9 9 9 9 9 9 9 9 9 8 8 0 8 f f 9 f 9 f 8 8 f 8 f 8 f 8 1 # # @ @ # @ % % = s 3XyXyXyX X; * m XXuXuXuXuXuXuXuXuX",
"uXuXuXuXuXuXuXuXW.u u R rXyXyXyX/.s u u u 6 u 6 u 6 6 6 6 8 8 6 6 8 q 6 8 8 8 8 8 8 9 8 8 9 8 9 } rXrXrXrXrXrXtXtXtXrXtXrXrXrXrXrXrXtXrX(.h 9 9 9 9 9 0 9 9 g 9 9 9 9 i 9 9 9 9 8 9 f 9 9 f 9 f 8 8 6 # # @ # @ # @ @ % % * = >.yXyXyXtX>.= = g.;XuXuXuXuXuXuXuX",
"uXuXuXuXuXuXuX{.' u u ~.yXyXyX0XU a u u 6 y 7 6 6 6 6 6 6 6 6 8 8 6 8 8 8 q 8 8 8 8 8 9 8 8 9 9 L.rXrXeXrXrXtXrXrXwXtXrXtXrXrXtXrXtXeXtXN.0 0 9 0 9 0 9 0 9 9 0 9 9 9 9 9 9 9 9 f 9 9 8 9 8 f 9 f 6 # # # # # # @ @ % % % $ = ; }.yXyXyX2Xy = y OXuXuXuXuXuXuXuX",
"uXuXuXuXuXuXuXP.u u ' rXyXyXyXA.s u u 7 6 6 6 6 6 6 6 6 6 6 6 6 6 q 8 q 8 8 8 8 8 8 8 8 9 9 8 9 %XtXtXtXrXrXrXrXtXwXrXrXrXrXrXrXrXtXrXrX/ 0 0 0 9 0 0 9 0 g g 9 0 9 9 g 9 0 9 9 9 f 9 9 9 f 9 8 > + # + # . # # # # % @ # = % = F wXyXyXtXf.; = d.;XuXuXuXuXuXuX",
"uXuXuXuXuXuX'.) y s {.yXyXyX2Xm y u u 7 6 7 6 6 6 6 6 q 6 q q 6 8 6 6 q 6 8 8 q 9 q 9 9 q 9 9 b rXrXtXrXrXrXrXrXtXtXyXrXrXrXtXrXtXrXtX0Xb 0 0 0 0 0 0 0 0 0 9 0 0 9 0 0 9 9 9 g 9 9 g 9 9 9 6 # # : + # # # # # # @ @ % % # = = ; J.yXyXyX1Xe = a XXuXuXuXuXuXuX",
"uXuXuXuXuXuXW.u u ( rXyXyXtXd.a u u u 6 6 6 6 7 6 6 6 5 6 6 q 6 6 8 q 8 q 8 8 8 8 q 8 9 9 8 9 [ rXrXrXrXrXrXrXrXrXrXrXrXtXrXrXtXtXtXrX].h 0 0 0 0 0 0 0 0 0 0 0 0 0 0 9 0 0 0 0 9 g 9 9 0 2 : + # + + + # # # # # % % # % % = = ; N wXyXyXtXd.= = V.;XuXuXuXuXuX",
"uXuXuXuXuX'.<.y y Q.yXyXyX>Xs u y 6 7 u 7 6 7 4 6 6 6 4 6 5 6 q q 6 6 8 8 8 8 8 8 9 9 8 9 9 9 B.tXrXrXtXrXtXrXtXrXrXrXrXrXtXtXrXtXtXtXB.0 0 0 0 h 0 0 0 h 0 0 h 0 0 g 0 g 9 0 g 9 9 9 9 , + + : # : : # # # # # # # # # @ % # = = ; K.tXyXyX2Xw = N oXuXuXuXuXuX",
"uXuXuXuXuX~.i u Y wXyXyXyXd.s u u 6 7 6 7 6 6 5 6 6 6 5 8 6 6 5 6 q 8 8 q 8 8 8 8 9 9 9 q 9 9 +XtXtXtXrXrXtXtXrXtXeXtXeXeXyXeXyXeXtXtX[ h h 0 h 0 h h h 0 0 0 0 0 0 0 0 0 0 0 g 0 0 q : + : : + : + : + : # # # # # # # % # & = = - M rXyXyXyX=.= = T.uXuXuXuXuX",
"uXuXuXuX'.V.y p Z.yXyXyX1Xs y u y 6 6 7 6 7 6 6 5 6 5 6 5 5 8 8 8 q 6 q 8 8 8 q q 9 8 9 9 9 0 5XrXrXrXrXrXtXtXwXtXtXtXtXtXeXyXeXtXtX0XJ h h h 0 h h 0 h 0 0 h 0 0 0 0 0 0 0 0 0 0 , : : : + + : + : : # + # # : # # # < # % % % = = ; W.yXyXtX'.; & ' oXuXuXuXuX",
"uXuXuXuX'.E u s 1XyXyXyXC.d u u 6 7 4 6 5 6 6 5 6 6 5 6 5 6 6 5 6 q 6 8 8 q q 9 9 q 9 q 9 9 Q tXtXtXrXtXrXtXtXtXtXtXeXtXtXtXtXtXtXtX+Xh h h h h h h h h 0 h 0 0 h 0 0 0 0 0 0 9 , : + > : : + + : . + : # : : # : # % # # % % % & = - ~ tXyXyXrXM = 3 OXuXuXuXuX",
"uXuXuXuXE.4 y { tXyXyXrXB u y 6 6 7 4 4 7 5 5 6 6 5 6 5 6 q 8 5 6 8 8 q 8 8 8 8 8 9 9 9 9 9 M.tXrXtXtXrXrXtXtXtXtXtXtXtXtXtXtXtXeXtXB.b h h h h h h h h h h h h h h n 0 h 0 6 1 + > > + + : : : : : : # # : # # # # < # % % # % = & = w =XyXyXyXV.w = A.oXuXuXuX",
"uXuXuX).4.6 u W.yXyXtX/.a u y 7 6 5 7 6 4 6 6 6 5 6 5 6 5 6 8 6 q 6 8 q 8 8 q 8 q 9 q 9 9 9 Y.tXrXtXrXtXtXtXtXeXtXtXtXtXtXtXtXtXtXyX[ b 0 h h h h b h h h h h h h 0 h 0 0 5 : : > > + : : : + : : : + : : . # : : # # < % # % % % = = - f.yXyXyX=Xw = R oXuXuXuX",
"uXuXuX).U y s 9XyXyXyX;.u y u 7 7 7 5 6 5 4 5 5 5 6 5 5 5 8 5 q 6 q 8 8 q 9 9 9 9 9 9 9 9 9 5XtXtXrXtXrXeXtXtXtXtXtXtXtXtXtXtXeXtXeXJ h h h J h h b h h h h b h b h h 9 2 : > > + > > > : > : : : . : : : : : # : % < # # % < % % & = - l wXyXyXtXF - 3 OXuXuXuX",
"uXuXuXW.7 u { yXyXyX6Xx u 7 6 7 7 5 4 4 4 4 6 5 5 6 6 5 5 5 8 5 q 8 8 q 9 q q 9 q 9 9 9 9 P eXtXtXtXrXtXtXtXtXtXtXtXtXeXtXtXtXeXtX+Xh h h h b b h h h b b h h h h h q > > > > + > > > : : : : : : : : + # # : : : % : < 1 # < % % % & = w /.yXyXyXj.- = Z.oXuXuX",
"uXuX).h.y a K.yXyXyXW.y u u 7 6 7 5 7 6 4 5 6 5 6 5 6 5 5 8 5 8 6 6 q 8 q q 9 q 9 9 9 9 q s.tXtXrXtXtXtXtXtXtXtXeXtXtXtXtXtXtXtXyXB.h h b b h b b b h b h b b h 0 5 > > > > > , > > + : > : : : : : : : : : : # # : # # < % % % & = & - - 2.yXyXyX@Xw - ` oXuXuX",
"uXuX~.) y a :XyXyXyX>.a u y 6 7 6 4 4 5 4 5 6 4 7 8 5 5 8 5 8 5 q 8 8 q 8 q 9 8 9 9 9 q 0 I.tXtXtXtXtXtXtXtXtXtXtXtXtXeXtXtXtXtXtX[ J J b b 0 b b 0 b b b 0 b b C C C C e C 6 7 7 7 1 > : 1 H G G G A G A G A G A k 1 # 1 # % : % & = - ; M rXyXyXwXl = x XXuXuX",
"uXuX).n u B rXyXyXrXm u 7 7 7 7 4 6 4 5 5 4 5 5 5 5 5 5 5 8 5 5 6 q 8 q 8 8 q 9 q 9 9 9 0 ,XtXtXtXtXeXtXtXtXtXtXyXeXtXtXtXtXtXtXeXJ b J b b b b b b b J b b q l.b.b.n.b.b.b.b.b.n.n.l.> : o.n.n.n.n.n.n.n.n.n.n.n.&.% : % # & % % 1 & & - w $XyXyXyX=.w - ).uXuX",
"uXuXJ.7 u <.yXyXyX@Xa y 7 7 6 4 6 4 6 4 6 5 4 5 5 6 5 5 5 8 8 8 q q 8 8 q 9 8 9 q 0 q 9 K eXtXtXtXtXtXtXtXtXtXrXyXyXtXtXtXtXtXyX+Xb b b b b b b b J b J h 5 m b.b.b.b.b.b.b.b.b.b.b.&.> : l.b.b.n.n.n.n.n.n.n.n.n.o.: % : # % & % & & = - w D.yXyXyXZ.- - A.oXuX",
"uXuXj.7 u K.yXyXyXZ.u u 6 7 7 6 4 5 4 4 4 5 7 5 5 6 5 5 5 6 5 8 8 8 8 q 8 q 9 8 q 0 0 9 } eXtXeXrXtXtXtXtXtXeXtXeXtXtXtXtXtXtXeXB.b b b b b b b b b b q , , H c.b.b.v.b.b.b.b.b.b.b.H > & c.b.b.b.b.n.n.n.n.n.n.n.e : # & 1 : % % % & - = w =.yXyXyX Xw - :.oXuX",
"uX!.:.4 p @XtXyXyX:.u y 7 7 7 7 4 4 4 4 5 5 4 5 5 5 5 8 5 5 8 8 q 8 q 9 8 8 9 9 9 9 9 0 L.tXeXtXtXtXtXtXtXtXtXtXtXtXtXtXtXtXtXeX[ J J J b b J J J J q , , , &.b.c.b.b.b.c.b.c.b.b.b.k 1 A b.b.b.b.n.b.n.b.b.n.n.b.: : % % < < < 1 & & - - - M rXyXyX7Xp ; U oXuX",
"uX!.W 7 a 7XyXyXrXB y u 7 7 5 4 4 5 4 5 4 5 7 5 4 5 5 6 8 8 5 q 8 q 8 8 q 9 q 9 9 q 9 9 +XtXtXtXtXtXtXeXtXtXeXtXtXtXeXyXtXtXtXeXJ J J J b J J J h , [ [ , , l.c.x.v.x.b.c.b.c.b.b.l.2 1 o.b.c.c.b.b.b.b.b.b.b.b.*.% % > : < % % < % = < - - w >XyXyXtXS - a oXuX",
"uX~.x u U yXyXyX6Xa y u 7 6 4 4 4 4 6 4 5 5 5 5 5 5 5 8 5 5 8 5 8 q q 8 9 q 9 9 9 9 h J eXtXtXtXtXtXtXtXtXtXtXtXtXtXtXtXtXtXtX+XJ J J J J J J q [ &XtXQ , d x.x.x.x.x.c.v.c.x.c.b.*.> > *.c.c.c.c.c.c.c.b.b.b.b.o.: : : % < : % & < - = - 3 w /.yXyXyX=.w - _.uX",
"uX^.u y ` yXyXyX Xy u 6 6 7 4 4 5 4 4 6 5 5 7 5 5 8 5 5 5 8 5 8 q 8 8 8 q 9 q 9 9 9 8 [ tXtXtXtXtXtXtXtXtXtXtXtXtXtXeXtXtXtXtXB.J J J J b J m.&XtXeXtX9 , A z.x.x.x.x.x.x.c.x.x.v.o.> 2 v.b.c.c.c.c.c.c.x.b.x.b.A : : % < : % < % < & & 3 = w Z.yXyXyXg.w - K.uX",
"uXK.u y d.yXyXyXP.u y u 7 7 6 4 4 5 4 5 7 5 5 5 4 5 6 8 8 5 8 8 8 q 8 8 q 9 9 9 9 9 9 B.tXtXtXtXtXtXtXtXtXtXtXtXtXtXtXtXeXyXtX[ J J J K B.5XeXtXtXtX&X, , O.v.z.z.z.z.x.x.z.x.x.x.A : k x.x.x.x.x.x.x.x.x.x.c.x.3 : : : % : < & # 3 & & 3 ; w 2.yXyXyXK.w ; A.uX",
"uXA.y u S.yXyXyXC.u u 7 4 6 4 6 4 4 5 4 5 5 5 5 5 5 5 8 5 5 5 q q 8 q 8 9 9 9 q 9 9 q +XtXtXtXeXeXtXtXtXtXeXtXtXtXtXeXtXtXtXeXJ J Q L.eXeXtXtXtXeXtXL., , *.i.i.z.z.z.z.z.z.z.z.z.7 2 H z.z.z.z.x.x.x.x.x.x.x.0.: 1 < < < < 1 % 1 % & - & - w _ yXyXyX/.w - 2.oX",
"uXg.y u P.yXyXyX2.u y 7 7 6 4 4 4 7 4 5 7 5 5 5 5 5 5 5 8 8 8 q q 8 8 8 9 q 9 q 0 q 0 7XtXtXtXtXeXtXtXtXtXtXtXtXtXtXtXtXtXyX+X[ +XeXyXeXeXeXtXtXyXyX} , 6 i.i.z.z.z.z.z.z.z.i.z.0., 2 &.z.z.z.z.x.x.z.z.z.z.x.O.< : < < < 1 1 < < < & & - - w S rXyXyX=Xw ; ;.oX",
"!.4.u y /.yXyXyX=.u u 7 7 4 4 4 4 5 5 4 5 5 6 6 5 5 5 8 8 q 6 6 8 8 q 8 q 9 9 9 0 0 Q eXeXtXtXtXtXtXtXtXtXtXtXtXtXtXtXtXtXyXeXtXyXeXeXtXtXtXtXtXtXeXJ , A u.u.u.i.u.u.i.z.l.z.i.&.> & 0.z.z.z.z.z.z.z.z.z.z.z.A : 1 : < < % < < < & & & & - - l rXyXyX1Xw w ( oX",
"!.<.y u #XtXyXtX^ u u 4 4 7 4 6 5 5 5 7 5 5 6 5 5 6 5 8 5 8 8 q q 8 9 8 q 9 9 9 q 0 m.tXtXtXtXtXtXtXtXtXtXtXtXtXtXtXtXtXtXtXtXtXtXeXyXeXtXtXtXeXyX,X, 5 o.p.p.p.u.u.u.u.u.i.i.u.G 2 7 i.z.i.i.z.z.z.i.z.z.z.i.w < : 1 1 1 < < < & & & 1 & - - p wXyXyXwXt - R oX",
"!.:.u y $XyXyXtXE u u 7 6 7 4 6 5 7 5 5 5 7 5 5 5 8 8 5 5 8 q 6 q 8 8 q q 9 q 9 q 0 Y.tXtXtXtXtXtXtXtXtXtXtXtXtXtXtXtXtXtXtXeXtXtXtXtXyXtXtXtXtXtXL.2 , %.y.y.p.y.u.u.u.u.u.u.u.k > A u.i.i.u.i.u.u.u.z.z.z.0.= 1 : 1 : 1 < 1 < < & 3 = 3 - w e 4XyXyXwXp w U oX",
"!.=.u a -XyXyXtXS p u 7 7 7 4 6 5 7 4 7 5 5 5 5 5 8 5 5 8 8 8 q 8 8 8 9 9 q 9 9 0 q 5XtXtXtXeXtXtXtXtXeXtXtXtXtXtXtXtXtXtXtXtXtXyXtXeXyXtXtXtXtXtX} 2 5 9.y.y.y.y.y.y.y.y.u.p.y.2 , X.u.p.p.p.p.p.i.u.u.p.z.#.& 1 1 1 1 & : : % 1 % & < - - w e 1XyXyXrXk - B oX",
"!.{ 7 a ,XyXyXtXU u u 7 6 6 6 4 7 5 5 5 5 6 7 5 5 6 5 8 5 5 5 q 8 q 9 q 9 9 9 9 0 P eXeXtXtXtXtXtXtXtXtXtXtXtXtXtXtXtXtXtXtXtXtXeXeXtXtXtXtXtXtXtXJ 4 l t.y.t.t.y.t.t.y.y.y.y.%.> , %.y.y.y.p.p.y.p.p.p.p.u.G : > 1 : 1 : % 3 < < < 3 = & - w e 2XyXyXtXl - N oX",
"!.=.y u >XyXyXrXS u u 7 7 4 4 6 6 4 2 6 5 6 5 5 6 6 q 6 8 q q 6 8 q q 9 q 9 q 9 9 s.tXtXtXeXtXtXtXtXtXtXtXtXtXtXtXtXtXtXtXeXeXtXyXtXtXtXeXeXeXeX&X, , H r.t.t.t.t.t.t.t.y.t.y.X., 2 9.y.y.y.y.y.y.y.y.y.p.p.e 1 2 # 1 < < < < % < 1 < 3 & - w e 2XyXyXrXl w B oX",
"!.{ u d :XyXyXtXY u u 7 7 6 6 4 4 6 6 5 6 5 6 6 5 6 6 q 6 6 8 q 8 8 9 q 9 9 9 9 9 L.tXeXtXtXtXtXtXtXtXtXtXtXeXtXeXtXeXtXtXtXtXtXeXyXeXtXeXeXtX5X} , , #.r.r.t.t.r.t.t.t.t.t.t.v , k t.t.t.t.t.t.t.y.t.y.y.9.: 1 1 > 1 < 1 1 3 < 3 % & & 3 - 3 w 2XyXyXrXk - B oX",
"!.<.u u %XyXyXtXR u u 7 6 7 7 6 6 4 6 4 5 6 5 6 6 5 q 6 q q 8 8 q 9 9 9 q 9 9 9 9 &XtXtXtXtXtXtXtXtXtXtXtXtXtXtXtXtXtXtXtXtXeXtXtXtXtXtXeX&X} q q q , 0.r.r.r.r.r.r.r.r.t.t.r.u > Z r.t.t.t.t.t.t.t.y.y.y.#.: 2 1 1 1 1 1 1 < < 3 & & & & - w w 4XyXyXwXp - Y oX",
"!.,.y y #XyXyXyX( u u u 7 6 6 4 4 4 4 6 5 5 6 5 q 5 6 6 q 6 q 8 q 8 q 9 q 9 0 q K eXtXrXtXtXtXtXtXeXeXtXtXtXtXtXtXtXtXeXtXtXtXtXtXtXeXY.[ , q , , , q 9.r.r.r.r.r.r.r.r.r.r.8.5 , #.r.r.r.r.r.r.r.t.r.t.y.Z : 1 1 : 1 : 1 < 1 < % < & & 3 - w e wXyXyXwXe ; E XX",
"!.h.u u (.yXyXyX-.a y u 4 6 7 6 6 6 5 6 5 6 5 6 q 6 6 q 6 q 8 8 8 8 9 8 q q Q L.5XtXtXtXtXrXtXtXtXtXtXtXtXeXtXeXtXtXtXtXeXeXtXtX5XB.J , q , , q 2 2 c e.w.r.e.w.r.r.e.r.e.e.#.> 2 8.e.e.e.e.e.e.r.r.r.r.t.z > : : 1 1 1 1 1 & 1 < < % 3 & - - l rXyXyX1Xw - ( oX",
"uXC.u p P.yXyXyXd.u u u u 6 6 6 4 5 6 6 6 5 6 5 6 q 6 6 8 6 q 8 9 q 8 J m.#XtXtXtXtXtXtXtXrXrXtXtXtXtXtXtXeXtXtXtXeXtXeXeXeX+X} q , q , , , , , 2 5 X.e.w.e.e.w.w.r.w.e.e.e.Z 2 y r.w.9.e.e.e.e.r.e.r.r.e.1 1 : 1 1 1 1 < % 1 1 & & 3 - 3 - w D rXyXyX$Xe - =.oX",
"uXG.u y A.yXyXyXA.d u y 7 6 6 6 6 6 6 4 6 6 5 6 6 q q q 8 q q 8 q / I.7XrXtXrXtXtXtXtXtXtXtXtXrXtXeXtXeXtXtXtXtXtXtXtX5XB.P , , , , , , q , q , 2 2 8.e.w.6.w.e.r.w.9.w.6.e.z > v w.6.e.w.w.w.e.e.e.e.e.$.: : 1 2 # < < < 1 1 1 & & & & & - t ] yXyXyX/.w - d.oX",
"uXT.u u d.yXyXyXU.u u u u 6 7 6 6 6 6 5 6 q 6 6 6 6 6 6 q 8 9 m.&XrXtXtXrXrXtXrXrXtXeXtXrXtXtXtXtXtXtXtXtXtXeXtXeXtXeXm., , , , , , , , , , , , , 8 6.w.6.e.q.q.q.w.q.w.6.6.2 1 ..6.6.6.w.w.6.6.w.6.e.9...: 1 2 1 : 1 < 1 1 # 3 1 & & 3 - - w >.yXyXyXK.w w C.uX",
"uX!.s u _ yXyXyX@Xs a u u 7 6 7 6 4 6 5 6 5 6 6 6 6 8 8 6 q { rXrXrXrXrXrXrXrXrXrXtXrXtXtXtXtXtXtXtXyXtXeXtXeXtXtXtXeXP , , , , , , 2 2 , , , 2 2 v w.w.q.6.w.6.w.q.e.6.6.$.2 2 $.5.5.5.5.5.5.5.6.6.w.r.z : : # 2 : 1 1 < 1 & 1 3 & 3 1 - - w A.yXyXyXg.w - J.uX",
"uX~.L u B tXyXyX6Xs u u u 6 7 u 6 6 6 6 6 6 6 5 q 6 q 6 8 8 B.rXrXrXrXrXrXrXrXtXtXtXtXrXtXrXtXrXtXeXeXtXtXtXtXtXtXtX5X, , , , , , , , 2 , 2 , 2 2 ..w.5.q.6.5.w.q.q.6.6.w...2 1 5.5.5.5.5.5.5.5.6.6.6.6.3 1 1 2 % < < 1 1 & 1 % % & & - - w e W.yXyXyX=.w - _.uX",
"uX!.( u a 6XyXyXtXY a u u 6 6 6 6 6 6 6 6 6 q 6 6 q 8 8 q 8 +XrXrXrXrXrXrXrXrXtXrXrXtXtXrXrXtXtXtXtXeXyXtXeXeXtXtXtXY., , , , , , , , , , , , , 2 $.q.q.6.q.q.w.6.6.w.w.6.v 2 z 5.5.5.5.5.5.5.5.5.6.6.$.< : 1 : : 1 1 1 < 1 < : 1 3 & - - t e >XyXyXyXD - a XXuX",
"uX!.4.u a #XyXyXyX>.a a u 7 u 6 6 6 6 6 6 q 6 6 q 6 6 6 6 8 6XrXrXrXrXrXrXrXtXrXtXrXrXrXrXrXeXtXeXtXtXeXtXtXtXtXtXeX} , , , , , , , , , 2 , , , 2 5.w.q.q.6.q.q.q.6.6.5.6.4 2  .5.5.5.5.5.5.5.5.5.5.6...2 : 1 < 1 < < 1 1 1 & 3 1 % & 3 - w l wXyXyX8Xe w E XXuX",
"uXuXA.u a Z.yXyXyXK.a u u 6 u 6 6 6 u 6 6 8 6 6 6 6 8 q 9 P rXrXrXrXrXrXrXtXrXtXrXtXrXrXrXtXtXtXtXeXtXtXtXeXtXtXeXeXP , , + , , , , , , , , , , z q.q.q.q.6.q.q.q.q.w.q.8.2 2 @.5.5.5.5.5.5.5.5.5.6.6.r 1 : : < 1 < : 1 1 1 & % % - 3 & - w =.tXyXyX}.w - >.oXuX",
"uXuX^.u u >.yXyXyX$Xs u u u u 6 6 6 8 6 6 6 6 q q 6 8 8 q 1.wXwXrXrXrXrXrXrXrXrXrXeXrXrXrXeXtXeXtXtXtXeXtXtXtXeXeX5X, , , , , , , , , , , > , , ..q.q.q.q.q.q.5.q.q.q.6.@.> > 7.5.5.5.7.5.5.5.5.5.5.6.3 1 1 2 1 : < 1 < 1 % < & 1 & & - t w A.yXyXyXZ.w - D.uXuX",
"uXuX!.U u B tXyXyXrXB a u u u 6 u 6 6 6 6 6 6 8 6 q 8 8 8 H.rXrXrXtXrXrXrXrXrXrXrXrXtXrXeXtXtXtXeXtXtXtXeXyXtXtXeXY., , , , , , , , , , , , , , +.q.q.q.q.q.q.6.q.q.q.q.c , p 5.5.5.5.5.5.5.5.5.5.6.$.% : 1 : : < < : 1 1 % 3 1 & & - 3 3 w @XyXyXyX=.w - _.uXuX",
"uXuX~.;.u a :XyXyXtX3.a i u u 6 u 6 6 6 8 8 6 6 8 6 8 q 8 #XrXrXwXrXrXrX7XH.5XrXrXrXrXrXrXeXtXeXtXeXeXyXeXeXyXeXeXm.+ , + , , , , , , , , , > > ..+.+.+.+.+.+.+.+.+.+.@.t > 1 @.@.@.@.@.@.@.@.@.@.@.c = : 1 1 1 < < 1 % & 1 % 1 & & 3 - w C rXyXtXrXl - N XXuXuX",
"uXuX~.A.u a G.yXyXyXQ.s i u u 6 u 8 6 6 8 6 8 6 6 6 8 8 g 7XtXrXrXrX#X1.2 8 rXeXrXrXeXrXrXrXrXrXrXtXrXeXtXrXrXeXtXP , > > > > , , , , > , , > , , > > , > , , > > , , > > 2 > > > < > > > > > > 1 : # 2 : 1 : < : 1 < 1 1 & & & & - - 3 w 3.yXyXyX Xe - :.oXuXuX",
"uXuXuX^.s a ` yXyXyX6Xx a i u u 6 u u 6 u 8 6 6 8 8 8 6 Q rXrX9XI.Q q : + [ rXrXwXrXrXrXrXrXrXrXrXrXrXtXtXeXrXrX7X, > > > > , + > > > > , > > > , , , > , > , , > > > > > > > > > > > < > < < > : > < # < : < < 1 : % < % < % & & - - - w ~.yXyXyXj.e - D.uXuXuX",
"uXuXuX).R i s 6XyXyXyX>.s i u u u 8 6 u 6 8 6 8 6 6 8 8 m.:XM.J q , + + + S.rXwXrXrXrXrXrXrXrXtXrXrXtXeXtXrXeXtXY., : : > > > > > > > > , , , , > > , > > > > > > , > > > > > > > > > > > > : > > : : 2 : < % : % 1 % < 1 & & & 3 - - w l wXyXyXtXF - y OXuXuXuX",
"uXuXuX~.g.u i J.yXyXyXQ.s i u u u 6 f 6 6 8 f 6 f 8 8 6 K 9 8 5 : + + + + +XrXrXrXrXrXrXeXrXrXrXrXrXrXtXrXtXtXrXm.+ > > > > > > > , > > , , + , > > > > , > > > > > > > > > > < < > > > < : < : : < : : 1 : : < : 1 < & 1 % & & & - 3 w 2.yXyXyX=Xe - ( oXuXuXuX",
"uXuXuXuX^.i i ` yXyXyXwXB s i u f u 8 8 6 f 6 8 8 8 8 8 8 8 2 : . + + + , eXrXrXrXwXrXrXrXrXwXrXrXrXrXrXrXeXrXtX[ , : > > > > > > > > > + , , , , 5 5 q q 9 h h b J J K L K P P P I Q Q Q / P 4 : : < : : < : : % 1 % 1 1 & & = & - - e @XyXyXyXj.w - F.oXuXuXuX",
"uXuXuXuX).^ a s >XyXyXyXV.s i a u u u u f 6 f 6 6 6 8 8 8 : . + + + + + Q tXwXrXrXrXeXrXrXrXrXrXwXrXrXrXrXrXrXrXeX5X7X7X7X5X7X7X7X7XeXeXeXeXeXeXrXrXrXrXtXrXwXwXrXrXrXrXrXrXrXrXrXwXrXwXwXwXwX7X} < : & 1 # % < : % < % % & & & - - w ~ tXyXyXrXM w s .XuXuXuXuX",
"uXuXuXuX~.C.u a A.yXyXyX>Xx s i u f u f u 8 8 f f 8 8 6 o . + + + + + + m.rXeXwXwXrXwXrXeXrXrXrXrXrXrXrXrXrXrXrXtXtXeXtXtXeXtXtXtXeXtXtXeXtXeXtXrXrXrXwXwXtXrXrXwXrXwXrXwXrXwXwXrXwXwXrXrXwXwXwX+X# : # < : < < < < < & & & & & - - w E.yXyXyX~.w - :.oXuXuXuXuX",
"uXuXuXuXuX).V i B rXyXyXyX3.s i f u f u 8 u f 6 8 u 1 X o . o + + + + + (.rXwXrXwXrXrXrXwXrXrXrXrXrXrXeXrXrXrXtXtXeXeXtXtXeXeXtXtXeXeXtXeXeXtXtXrXrXrXtXrXwXrXwXrXrXrXwXrXwXwXrXwXrXwXwXwXwXwXwX].: : : : < # : % < % % % & = - - w M wXyXyXyX=.w - ^.uXuXuXuXuX",
"uXuXuXuXuX).,.s i E.yXyXyX=Xl i i f u u u f f 6 f < + o o o + + + + + : 5XwXwXrXwXrXrXrXwXrXwXrXrXwXrXrXwXrXwXeXrXrXrXrXeXrXwXrXtXeXtXeXrXrXrXrXeXeXtXwXrXwXrXeXwXwXrXwXeXwXrXrXwXwXwXwXwXwXwXwXH.: : : # : < % & % % & & & & - ; w K.yXyXyX:Xt - E oXuXuXuXuXuX",
"uXuXuXuXuXuXW.j i R tXyXyXyX3.s s i i f f f f u o o o o + o + + + + + K wXrXwXrXrXwXwXrXrXrXwXrXrXrXrXrXrXrXrXrXrXrXrXrXrXrXrXrXeXtXrXrXrXrXrXrXwXtXrXrXrXwXrXrXrXwXwXrXrXrXwXwXrXwXwXwXwXwXwXwXs.# : % < % < # # & : & & = - - w M wXyXyXyX2.w - D.oXuXuXuXuXuX",
"uXuXuXuXuXuX).{ i s /.yXyXyX=Xx s i i f u f 1 o + o o o o o + o + + + 1.wXrXwXwXwXeXrXwXwXrXrXrXwXeXrXrXrXeXrXrXeXrXrXrXrXrXrXrXeXrXrXrXrXwXwXtXrXrXwXtXrXrXwXeXrXrXrXwXrXwXwXrXwXwXrXeXwXwXwXwXQ : : # # : : % & # & % % & - - w J.yXyXyX3Xp ; B oXuXuXuXuXuXuX",
"uXuXuXuXuXuXuXT.s s ! tXyXyXyXh.s s i g u # o o o o o o + o + + + + + I.wXwXrXwXwXrXwXrXrXwXrXeXrXrXwXwXrXwXrXrXrXrXrXeXrXrXrXrXrXrXrXrXrXrXrXwXrXrXwXwXwXtXwXtXwXwXwXrXwXeXwXwXwXwXeXwXwX9XwXwX6 # % : % % : % & # & & & - = w F wXyXyXtXd.w - A.oXuXuXuXuXuXuX",
"uXuXuXuXuXuXuX).;.u s Q.yXyXyX6XD a i y O o O o o # # + o # + # + + + >XrXwXeXwXrXwXrXwXwXwXwXrXwXrXrXrXrXwXrXwXwXrXrXrXrXrXrXrXrXeXwXrXwXtXrXrXeXwXrXwXwXrXwXwXwXrXrXwXwXrXwXrXwXwXwXwXwX9XwX,X# < # : : % # 1 & % & & = ; - e  XyXyXyX>Xe w N oXuXuXuXuXuXuXuX",
"uXuXuXuXuXuXuXuXT.j i Y wXyXyXyXP.s 3 O % o % o O # o o o # o o + + g eXwXwXwXwXwXwXwXrXwXrXwXrXwXrXwXrXrXrXrXrXrXwXwXrXrXrXwXeXtXwXtXwXrXwXwXtXwXrXwXrXrXrXrXwXrXwXwXwXwXwXwXwXwXwXwXwXwXwXwXE.: # < # # % % % % % % = - - w ,.tXyXyXtX:.w = D.OXuXuXuXuXuXuXuX",
"uXuXuXuXuXuXuXuX'.,.i s S.yXyXyXrX! O O O % # # o # o o # o o o + + { eXwXwXwXrXwXrXwXwXwXwXwXrXeXrXwXrXwXrXrXwXwXeXrXrXrXwXwXrXwXrXwXrXwXwXrXwXtXrXwXwXeXrXwXwXwXrXwXrXwXwXrXwXwXwXeXwXwXwXwXs.# % # % # % % % % % & & ; - C 3XyXyXyX Xw - Y OXuXuXuXuXuXuXuXuX",
"uXuXuXuXuXuXuXuXuX!.V s m >XyXyXyX-Xp 3 % O O % O # # O o o o o + o S.wXwXwXwXwXwXwXwXwXrXrXwXwXwXwXrXrXwXwXrXwXrXrXwXwXrXwXrXrXrXeXtXwXeXrXwXrXwXwXwXtXwXwXwXrXwXwXwXwXwXwXwXwXwXwXwXwXwX9X9XQ : # # : % < # % % & = ; - w !.yXyXyXrXF w w E.oXuXuXuXuXuXuXuXuX",
"uXuXuXuXuXuXuXuXuX).V.y i ` rXyXyXyXG.* = $ $ # # # # # @ X # # # # #XwXwXwXwXwXwXwXwXwXwXrXwXrXwXrXwXeXwXrXwXrXrXwXrXwXrXwXwXwXrXwXwXeXwXrXwXtXrXwXwXwXrXwXwXwXrXwXwXwXwXwXwXwXwXwXwXwXqXwX6X4 # # % # & % % % & % = - w d.tXyXyXyXF.- - :.oXuXuXuXuXuXuXuXuXuX",
"uXuXuXuXuXuXuXuXuXuX).U $ * K.yXyXyXrX=.= * % $ # $ @ # @ # # . X 4 9XwXwXwXwXwXwXwXwXwXwXwXwXwXwXwXrXwXwXrXrXwXwXrXwXrXrXwXrXwXwXtXwXrXwXwXwXwXwXwXrXwXwXwXwXwXwXwXwXwXwXwXwXwXwX9XwXwXwXwX#X# # % # # # % % % = - = - D qXyXyXyX-Xp ; s |.uXuXuXuXuXuXuXuXuXuX",
"uXuXuXuXuXuXuXuXuXuX'.T.- $ y >XyXyXyX6XB * = $ $ # # # # X # X o Q 9XwXqX9XwXwXwXwXwXwXwXrXwXwXwXrXwXrXwXeXwXwXwXwXrXwXwXwXrXrXwXrXwXwXrXwXrXwXwXwXwXwXwXwXwXwXwXwXwXwXwXwXwX9XwX9XwXqX9XwXS.# # % # $ % # & = = = ; d -XyXyXyXwX~ - ; D.oXuXuXuXuXuXuXuXuXuXuX",
"uXuXuXuXuXuXuXuXuXuXuX'.d.$ = Y wXyXyXyX@Xy = * $ $ $ # # # # # X M.wX9XwXwXwXwXwXwXwXwXwXwXwXwXwXwXwXwXrXwXwXwXrXwXwXwXwXrXwXwXwXwXwXtXwXwXwXwXrXwXwXeXtXwXwXwXwXwXqXwXwXwXwXwXqXwX9XwXqXqX| # % # # % % % % = = ; w {.yXyXyXtXj.- = =.oXuXuXuXuXuXuXuXuXuXuXuX",
"uXuXuXuXuXuXuXuXuXuXuXuX).Y $ * d.yXyXyXyX(.w * % $ % # # @ # # # Q.wXwXqXwXwXqX9XwXrXwXwXwXwXwXwXwXwXrXwXwXrXwXwXwXwXrXrXwXrXwXwXwXwXwXeXwXwXrXeXwXwXwXeXwXwXwXwXwXwXwXwXwXqXwXwXqXwX9XwX9Xn # @ @ % % % % * = ; w D.tXyXyXyX).e = m |.uXuXuXuXuXuXuXuXuXuXuXuX",
"uXuXuXuXuXuXuXuXuXuXuXuXuX^.u = ; J.yXyXyXtXD.w * = % $ $ # # @ X (.qXwXwX9XwXwXwXwX7XrXwXwXrXwXwXwXeXrXwXwXwXwXrXwXwXwXwXwXwXrXrXwXwXwXeXtXwXwXwXwXwXwXwXeXwXwXwXwXwXqXwXqXwX9X9XwXwXqX8X(.# $ # % @ % % * = = w g.rXyXyXyX-Xl = y T.oXuXuXuXuXuXuXuXuXuXuXuXuX",
"uXuXuXuXuXuXuXuXuXuXuXuXuX_.G.= * t @XyXyXyXtXC.- $ % $ $ # $ # # Q (./.(.(.(.(.U.U.U.U.I.I.I.I.L.L.L.S.H.S.S.B.B.N.N.N.N.M.M.m.m.m.s.s.1.1.1.} 1.} | | | | { { { { [ { [ [ ) [ ) { W Q V # # # % @ @ % * * = ; 2.rXyXyXyX6XY ; = k.XXuXuXuXuXuXuXuXuXuXuXuXuXuX",
"uXuXuXuXuXuXuXuXuXuXuXuXuXuX'.f.% * k :XyXyXyXtXj.- = $ = $ # $ $ # X # o X # o o # # # X # o o X X + + + . X o . + # + + X . . o o + o . . . . . o + o . . + . . o     X X o X o o o o @ # $ # % % % % = = w ,.rXyXyXyXqX=.; = :.OXuXuXuXuXuXuXuXuXuXuXuXuXuXuX",
"uXuXuXuXuXuXuXuXuXuXuXuXuXuXuX_.` % = M 6XyXyXyXtXj.; * * $ # % % $ o o % X # o # X # . X . . # o o o o . + + + + . + . + . . . o o . . . . . .       . . . o o   .   o o o X o # X @ # @ # # $ $ % $ * * w 2.rXyXyXyXrX>.; = R OXuXuXuXuXuXuXuXuXuXuXuXuXuXuXuX",
"uXuXuXuXuXuXuXuXuXuXuXuXuXuXuXuX).E * = F 6XyXyXyXtXZ.w = = % % X % % o % # X % o # . # # # . . o # : o o + X + . X . . . . . . o o . . .   . .       . .   .       o o o X X o @ X # X @ X $ @ % $ * = w j.rXyXyXyXrXf.= = B |.uXuXuXuXuXuXuXuXuXuXuXuXuXuXuXuX",
"uXuXuXuXuXuXuXuXuXuXuXuXuXuXuXuXuX).V = * Y 6XyXyXyXyXW.p = $ * % $ % o X # o o # X # X . #   # o o . X X . o o . X + o . . . . . . . . . .   .               o o   o   o X X X X @ @ X $ $ # = * * = w K.yXyXyXyXwXj.w * m _.OXuXuXuXuXuXuXuXuXuXuXuXuXuXuXuXuX",
"uXuXuXuXuXuXuXuXuXuXuXuXuXuXuXuXuX).).m % = Y 5XyXyXyXyX Xl = * $ % $ % % X $ # X # X # # X #   o o o o . # . . . . . . . .     . .       .                       o o X X X X X @ @ @ $ @ $ $ $ * ; k {.yXyXyXyXwXf.* * m `.OXuXuXuXuXuXuXuXuXuXuXuXuXuXuXuXuXuX",
"uXuXuXuXuXuXuXuXuXuXuXuXuXuXuXuXuXuX[.^.M % = M 2XyXyXyXyX1X! * * $ % $ $ # $ # # X # # # @ . # o o # o X o o o # . X . . X .                     X       X X   X X X X X X $ X @ $ @ X * $ $ * = ~ 2XyXyXyXyXwX3.w = m `.|.uXuXuXuXuXuXuXuXuXuXuXuXuXuXuXuXuXuX",
"uXuXuXuXuXuXuXuXuXuXuXuXuXuXuXuXuXuXuX[.!.N * = s @XyXyXyXyXrXj.w = * % $ % $ # $ # $ # @ # # X # o X X o o X o . . . +   . . X                                 X X X o X X X $ @ @ $ $ $ * * w g.wXyXyXyXyX4X( * * m ).OXuXuXuXuXuXuXuXuXuXuXuXuXuXuXuXuXuXuXuX",
"uXuXuXuXuXuXuXuXuXuXuXuXuXuXuXuXuXuXuXuX[.).Y $ * e W.tXyXyXyXyX XM - * & $ % $ $ # X # @ @ @ @ X # X # # o X o X   X X X X                     X   X X X X   X X X X O X X X $ @ O $ $ * * M }.tXyXyXyXyX;XD = * S [.|.uXuXuXuXuXuXuXuXuXuXuXuXuXuXuXuXuXuXuXuX",
"uXuXuXuXuXuXuXuXuXuXuXuXuXuXuXuXuXuXuXuXuXuX[._ % = - d.rXyXyXyXyX9Xg.w - $ $ % $ $ # $ @ @ @ @ # X X X X X o X X . X   X .       X           X   X   X X   X X X X X X O X $ X $ * $ * w g.0XyXyXyXyXtX^.d * * ^ [.|.uXuXuXuXuXuXuXuXuXuXuXuXuXuXuXuXuXuXuXuXuX",
"uXuXuXuXuXuXuXuXuXuXuXuXuXuXuXuXuXuXuXuXuXuXuX[.4.= $ = E :XyXyXyXyXtX=X( * * = % $ % @ @ @ @ @ O # X X X @ X X X X X X X X X X X   X   X X   X X X X X X X X X O X X O X $ $ $ * * * ] $XyXyXyXyXyXwXf.* * * 3..XuXuXuXuXuXuXuXuXuXuXuXuXuXuXuXuXuXuXuXuXuXuXuX",
"uXuXuXuXuXuXuXuXuXuXuXuXuXuXuXuXuXuXuXuXuXuXuXuX).D.y = * p K.yXyXyXyXyXtX~.F ; * * % * $ $ % @ # X $ # @ X # O X X # X X X X X X X X X X X X X X X X O X X X X X O O $ O $ $ * * F {.rXyXyXtXyXtX*XF * * t D..XuXuXuXuXuXuXuXuXuXuXuXuXuXuXuXuXuXuXuXuXuXuXuXuX",
"uXuXuXuXuXuXuXuXuXuXuXuXuXuXuXuXuXuXuXuXuXuXuXuXuX[.^.U = * ; ( :XyXyXyXyXyXrXW.F ; * * * % $ % $ $ $ X $ @ # X $ X X X X X X X O X X X X X O O X X O X X X O O O O $ O * O * F ^.rXyXyXyXyXtXqXk.w * $ V ^..XuXuXuXuXuXuXuXuXuXuXuXuXuXuXuXuXuXuXuXuXuXuXuXuXuX",
"uXuXuXuXuXuXuXuXuXuXuXuXuXuXuXuXuXuXuXuXuXuXuXuXuXuXuX_.,.& * = p C.eXtXyXyXyXyXrX].' ; ; $ $ * $ $ @ $ $ @ X $ X $ O X X O X X X X O X X O X O O X O X O O O O O O * * w =.|.wXyXyXyXyXyXwX{.D * $ * 2.[..XuXuXuXuXuXuXuXuXuXuXuXuXuXuXuXuXuXuXuXuXuXuXuXuXuXuX",
"uXuXuXuXuXuXuXuXuXuXuXuXuXuXuXuXuXuXuXuXuXuXuXuXuXuXuXuX[.T.N $ $ - M W.tXyXyXyXyXyXyX2Xj.D ; = = $ $ $ O $ O $ $ X $ O O O O O O O O O O O O O O O O O O O O O * * D C.1XyXyXyXyXyXyXyX=X_ * $ $ M T.|.uXuXuXuXuXuXuXuXuXuXuXuXuXuXuXuXuXuXuXuXuXuXuXuXuXuXuXuX",
"uXuXuXuXuXuXuXuXuXuXuXuXuXuXuXuXuXuXuXuXuXuXuXuXuXuXuXuXuX_._.d.t $ $ * U Q.tXyXyXyXyXyXyXwX Xf.S - * * * * $ $ $ $ $ $ $ O $ O X O O O O O O O O * O O O O ; G j.=XwXyXyXyXyXyXyXtX;X-.* * $ 3 d.[.|.uXuXuXuXuXuXuXuXuXuXuXuXuXuXuXuXuXuXuXuXuXuXuXuXuXuXuXuXuX",
"uXuXuXuXuXuXuXuXuXuXuXuXuXuXuXuXuXuXuXuXuXuXuXuXuXuXuXuXuXuXuX_.^._ = $ * - D P.eXyXyXyXyXyXyXyXrX2XJ.3.D w * * * * * $ * O O $ O * * O O O * O * * w S 2.E.<XtXyXyXyXyXyXyXyXtX X-.w * * $ _ `.|.uXuXuXuXuXuXuXuXuXuXuXuXuXuXuXuXuXuXuXuXuXuXuXuXuXuXuXuXuXuXuX",
"uXuXuXuXuXuXuXuXuXuXuXuXuXuXuXuXuXuXuXuXuXuXuXuXuXuXuXuXuXuXuXuXuX_.T.R $ * - * l M.2XyXyXyXyXyXyXyXyXyXtX8X@XK.j.=.~ D k e w w * ; w z D ! -.k.J.*XqXtXyXyXyXyXyXyXyXyXyX9XT.T * * O O ~ T.|.uXuXuXuXuXuXuXuXuXuXuXuXuXuXuXuXuXuXuXuXuXuXuXuXuXuXuXuXuXuXuXuXuX",
"uXuXuXuXuXuXuXuXuXuXuXuXuXuXuXuXuXuXuXuXuXuXuXuXuXuXuXuXuXuXuXuXuXuXuX_.K.~ $ $ % * ; ! J.6XyXyXyXyXyXyXyXyXyXyXyXyXtXtXrXwXwXwXrXwXwXrXrXtXyXyXyXyXyXyXtXyXyXyXtXyXwX{.3.p * O O $ ~ T.[.[.uXuXuXuXuXuXuXuXuXuXuXuXuXuXuXuXuXuXuXuXuXuXuXuXuXuXuXuXuXuXuXuXuXuX",
"uXuXuXuXuXuXuXuXuXuXuXuXuXuXuXuXuXuXuXuXuXuXuXuXuXuXuXuXuXuXuXuXuXuXuXuXuX[.T.=.- $ = * * w ] Z.:XtXyXtXyXyXyXyXyXyXyXyXyXyXyXyXyXyXyXyXyXyXyXyXyXyXyXyXyXyXtX6X^.>.k * * O O w =.R.|.[.uXuXuXuXuXuXuXuXuXuXuXuXuXuXuXuXuXuXuXuXuXuXuXuXuXuXuXuXuXuXuXuXuXuXuXuX",
"uXuXuXuXuXuXuXuXuXuXuXuXuXuXuXuXuXuXuXuXuXuXuXuXuXuXuXuXuXuXuXuXuXuXuXuXuXuXuX_.`.f.V = @ * * * w l =.H.@X6XyXyXyXyXyXtXyXyXyXtXyXyXyXyXyXyXtXyXyXyXwX:XT.2.F w * O O O O S j._._.uXuXuXuXuXuXuXuXuXuXuXuXuXuXuXuXuXuXuXuXuXuXuXuXuXuXuXuXuXuXuXuXuXuXuXuXuXuXuX",
"uXuXuXuXuXuXuXuXuXuXuXuXuXuXuXuXuXuXuXuXuXuXuXuXuXuXuXuXuXuXuXuXuXuXuXuXuXuXuXuXuX_._.T.3.N $ O O * * * * w M ] 4.A.E.`.$X:X2X6X3X1X2X$X XQ.D.f.=.D e * * * O O O O D 2.R._._.uXuXuXuXuXuXuXuXuXuXuXuXuXuXuXuXuXuXuXuXuXuXuXuXuXuXuXuXuXuXuXuXuXuXuXuXuXuXuXuXuX",
"uXuXuXuXuXuXuXuXuXuXuXuXuXuXuXuXuXuXuXuXuXuXuXuXuXuXuXuXuXuXuXuXuXuXuXuXuXuXuXuXuXuXuXuX_._.R.j.! d O $ $ $ $ * * * * * * * * O * * * * O * O * * O O O O O y ! j.R.[.[.uXuXuXuXuXuXuXuXuXuXuXuXuXuXuXuXuXuXuXuXuXuXuXuXuXuXuXuXuXuXuXuXuXuXuXuXuXuXuXuXuXuXuXuX",
"uXuXuXuXuXuXuXuXuXuXuXuXuXuXuXuXuXuXuXuXuXuXuXuXuXuXuXuXuXuXuXuXuXuXuXuXuXuXuXuXuXuXuXuXuXuXuX_._._.T.k.=.Y d $ O * O * O O O O $ O O O * O O O O s T -.k.R._.[._.uXuXuXuXuXuXuXuXuXuXuXuXuXuXuXuXuXuXuXuXuXuXuXuXuXuXuXuXuXuXuXuXuXuXuXuXuXuXuXuXuXuXuXuXuXuXuX",
"uXuXuXuXuXuXuXuXuXuXuXuXuXuXuXuXuXuXuXuXuXuXuXuXuXuXuXuXuXuXuXuXuXuXuXuXuXuXuXuXuXuXuXuXuXuXuXuXuXuXuXuX_._._._.R.F.k.3.-.=.=.=.=.=.=.-.2.k.F.T._._._._._.uXuXuXuXuXuXuXuXuXuXuXuXuXuXuXuXuXuXuXuXuXuXuXuXuXuXuXuXuXuXuXuXuXuXuXuXuXuXuXuXuXuXuXuXuXuXuXuXuXuXuX",
"uXuXuXuXuXuXuXuXuXuXuXuXuXuXuXuXuXuXuXuXuXuXuXuXuXuXuXuXuXuXuXuXuXuXuXuXuXuXuXuXuXuXuXuXuXuXuXuXuXuXuXuXuXuXuXuXuXuX`._._.`.`.`.`.`._._._._.uXuXuXuXuXuXuXuXuXuXuXuXuXuXuXuXuXuXuXuXuXuXuXuXuXuXuXuXuXuXuXuXuXuXuXuXuXuXuXuXuXuXuXuXuXuXuXuXuXuXuXuXuXuXuXuXuXuX"
};
