/* XPM */
static char *result[] = {
/* columns rows colors chars-per-pixel */
"64 64 187 2 ",
"   c #0F0F0F",
".  c #0F100F",
"X  c #10100F",
"o  c #100F10",
"O  c #151414",
"+  c #181717",
"@  c #171817",
"#  c #181817",
"$  c #171718",
"%  c #181718",
"&  c #171818",
"*  c #1B1B1B",
"=  c #201F1F",
"-  c #1F201F",
";  c #20201F",
":  c #1F1F20",
">  c #201F20",
",  c #1F2020",
"<  c #232323",
"1  c #282727",
"2  c #272827",
"3  c #282827",
"4  c #262729",
"5  c #282728",
"6  c #2A2A2B",
"7  c #272828",
"8  c #302F2F",
"9  c #2F302F",
"0  c #252A31",
"q  c #2C2E31",
"w  c #242D3D",
"e  c #2F3032",
"r  c #2A3138",
"t  c #333334",
"y  c #35363A",
"u  c #3B3B3B",
"i  c #38383A",
"p  c #40403F",
"a  c #1D345C",
"s  c #243445",
"d  c #273A49",
"f  c #3F3F40",
"g  c #23395A",
"h  c #233852",
"j  c #1A3D7C",
"k  c #1B3A71",
"l  c #1D3A6B",
"z  c #243E60",
"x  c #3F4041",
"c  c #25435B",
"v  c #24496F",
"b  c #244A70",
"n  c #215077",
"m  c #444444",
"M  c #464648",
"N  c #4B4B4C",
"B  c #484747",
"V  c #4C4D51",
"C  c #504F50",
"Z  c #4E5156",
"A  c #525353",
"S  c #525559",
"D  c #5B5B5B",
"F  c #585758",
"G  c #565960",
"H  c #5C5E62",
"J  c #5F6166",
"K  c #636363",
"L  c #62656B",
"P  c #66696D",
"I  c #6B6B6B",
"U  c #686867",
"Y  c #6C6D73",
"T  c #706F70",
"R  c #6D727A",
"E  c #737373",
"W  c #7C7C7C",
"Q  c #74767C",
"!  c #1B498A",
"~  c #1C4683",
"^  c #154493",
"/  c #1F5A9A",
"(  c #225482",
")  c #215E8E",
"_  c #205B9A",
"`  c #23639A",
"'  c #246497",
"]  c #134CAC",
"[  c #1349A5",
"{  c #0D4BBD",
"}  c #1455B8",
"|  c #195AAD",
" . c #1F6AB2",
".. c #236EAB",
"X. c #236BA5",
"o. c #2370AE",
"O. c #777A81",
"+. c #7A7E85",
"@. c #797E8A",
"#. c #0D4FC5",
"$. c #0E50C4",
"%. c #0955DC",
"&. c #0B5BDE",
"*. c #0B55D6",
"=. c #1A68C4",
"-. c #0E61DF",
";. c #176ED6",
":. c #2179C6",
">. c #0E61E0",
",. c #1066E1",
"<. c #136CE2",
"1. c #1673E4",
"2. c #197BE6",
"3. c #197CE7",
"4. c #7E838C",
"5. c #2183D9",
"6. c #1C84E9",
"7. c #1F89EA",
"8. c #218DEB",
"9. c #2084E0",
"0. c #2292ED",
"q. c #838383",
"w. c #83868D",
"e. c #8C8C8C",
"r. c #878887",
"t. c #858A94",
"y. c #8E8E91",
"u. c #888F9B",
"i. c #8E929A",
"p. c #8F9090",
"a. c #949494",
"s. c #92949B",
"d. c #9B9C9C",
"f. c #989898",
"g. c #A09F9F",
"h. c #9499A6",
"j. c #999DA5",
"k. c #959CA8",
"l. c #9A9FA9",
"z. c #9DA2AD",
"x. c #A3A4A4",
"c. c #A1A5AE",
"v. c #A8A7A8",
"b. c #ACACAC",
"n. c #A4A8AF",
"m. c #A4AAB4",
"M. c #A5ACBC",
"N. c #A6ABB5",
"B. c #B4B4B4",
"V. c #B5B7BA",
"C. c #BBBCBB",
"Z. c #B8B8B7",
"A. c #AAB1C0",
"S. c #B6BCC6",
"D. c #B9BECA",
"F. c #B7BDC8",
"G. c #C0BFC0",
"H. c #BAC0CD",
"J. c #BEC0C3",
"K. c #B9C1D4",
"L. c #C4C4C4",
"P. c #CDCDCD",
"I. c #C5C6CB",
"U. c #C2C9D7",
"Y. c #CACFDB",
"T. c #C6CBD8",
"R. c #CDD1DD",
"E. c #D2D2D2",
"W. c #DBDCDC",
"Q. c #D4D7DB",
"!. c #DBDDE2",
"~. c #D2D6E1",
"^. c #E3E3E3",
"/. c #E8E7E7",
"(. c #E7E8E8",
"). c #EBEBEB",
"_. c #E7E8E7",
"`. c #F0EFEF",
"'. c #F0F0EF",
"]. c #EFEFF0",
"[. c #EEF0F1",
"{. c #F4F3F4",
"}. c #F8F8F7",
"|. c #F7F7F8",
" X c #F9F9F9",
".X c #F8F7F7",
"XX c None",
/* pixels */
"XXXXXXXXXXXXXXXXXXXXXXXXXXXXXXXXXXXXXXXXXXXXXXXXXXXXXX).L.b.x.d.d.d.v.Z.W.XXXXXXXXXXXXXXXXXXXXXXXXXXXXXXXXXXXXXXXXXXXXXXXXXXXXXX",
"XXXXXXXXXXXXXXXXXXXXXXXXXXXXXXXXXXXXXXXXXXXXXXI.a.H t O O O O O * O O O O < N q.B.[.XXXXXXXXXXXXXXXXXXXXXXXXXXXXXXXXXXXXXXXXXXXX",
"XXXXXXXXXXXXXXXXXXXXXXXXXXXXXXXXXXXXXXXXP.q.y O < F r.b.P.^.{. X X|.).E.B.p.K 6 O ; I B.XXXXXXXXXXXXXXXXXXXXXXXXXXXXXXXXXXXXXXXX",
"XXXXXXXXXXXXXXXXXXXXXXXXXXXXXXXXXXXXV.F * e W L.|. X X}. X X X X X X|. X X X X XE.e.u X i d.).XXXXXXXXXXXXXXXXXXXXXXXXXXXXXXXXXX",
"XXXXXXXXXXXXXXXXXXXXXXXXXXXXXXXXL.A O A B.|. X X}.E.d.E N t < * * < 6 B U e.L.{. X X XI.K X 9 z.XXXXXXXXXXXXXXXXXXXXXXXXXXXXXXXX",
"XXXXXXXXXXXXXXXXXXXXXXXXXXXX!.E * N L. X X XC.E 6 O * O O * O * O O & O O O O * F v.'. X}.W.K O C U.XXXXXXXXXXXXXXXXXXXXXXXXXXXX",
"XXXXXXXXXXXXXXXXXXXXXXXXXXV.t 6 b.}. X{.d.i O + * O * % * # + O O O O O O O O O O   ; W ^.}. XL.i * f.XXXXXXXXXXXXXXXXXXXXXXXXXX",
"XXXXXXXXXXXXXXXXXXXXXXXXy.* K ). X.Xx.6 O + * O + * % + @ O & # + * O O O O O O O O O O * W ).|.'.W O U !.XXXXXXXXXXXXXXXXXXXXXX",
"XXXXXXXXXXXXXXXXXXXX!.Y $ d. X XE.B O O & * $ * * O # * * O # # # @ % O O O O O O O O O O   3 b. X|.B.: M E.XXXXXXXXXXXXXXXXXXXX",
"XXXXXXXXXXXXXXXXXXQ.D < C. X Xa.* O # * @ + * O * * * # * * * # * @ O * * O % O + O O O O O O O I {. XE.6 u Y.XXXXXXXXXXXXXXXXXX",
"XXXXXXXXXXXXXXXXQ.D 4 P. X{.K O O * % * * * * * * * v././.^.^.W.E.E.E.r.O * $ # O O O O O O O O O u ^. X^.t u R.XXXXXXXXXXXXXXXX",
"XXXXXXXXXXXXXXXXP < P.|.).B + O O O * O O * & * * D  X X X X X X X X XB.# * * O * % O O O O O O O O 6 E. XW.6 N ~.XXXXXXXXXXXXXX",
"XXXXXXXXXXXXXXw.& C.|.).u O * O O * + * # * * * * a. X X X X X X X X}.q.* * * * % * O * O O O O O O O 1 E. XE.< P XXXXXXXXXXXXXX",
"XXXXXXXXXXXXn.% f. X'.B O O O O O * * O * * * * * I. X X X X X X X X}.C * * * * * * * O O * # O O O O O 6 W. XB.O s.XXXXXXXXXXXX",
"XXXXXXXXXXI.t D  X XK O O O % * # # * # * * * * 4 |. X X X X X X X X{.4 * * * * * * * * * O * O $ O + O + m '. XW < D.XXXXXXXXXX",
"XXXXXXXXXXP 4 (. Xa.O O O O O O + # # * * * * * A  X X X X X X X X XL.- * < * < * * * * * * # * * * O * + # I  X{.u S XXXXXXXXXX",
"XXXXXXXXn.O v.|.P.* O O O O @ % % * * * * * * * e. X X X X X X X X}.a.; ; * * ; * * * * * * * * * * O * O * O B. XL.@ j.XXXXXXXX",
"XXXXXXXXN B |.|.m   O O O O O & & # # * * * > * C. X X X X X X X X.XK < < < < ; < < ; * * * * - * + * # * O * 6 )..XU i ~.XXXXXX",
"XXXXXXj.O C. Xd.  O o O O O O O * * * * * * * < ). X X X X X X X X.X8 < < ; ; < < - * < ; - * * * * * * * * * * q.|.E.* s.XXXXXX",
"XXXXXXV B  X{.6 O   O O O O O * O * * * * * < B  X X X X X X X X XP.< < < < < < < < < < < * - - * * * * * * * * < ^. XU f XXXXXX",
"XXXXN.O b.}.f.O   O o O O @ O * * * * * < - - W  X X X X X X X X Xd.4 < 4 < < < < < < < < - - - < * * ; * * * * * W  XI.* c.XXXX",
"XXXXY < {.|.t   O   O O O O O O * * * * * ; < b. X X X X X X X X XU < 1 3 < 4 < < < < < < < ; ; , < * > , * * * * 1 {.|.f P XXXX",
"XXXXt I }.L.  O O O O O O @ + * % * * > ; * = ^. X X X X X X X X|.t 3 3 < 1 1 4 < 4 < 4 < < < , , < * * : * = : * * b. Xe.6 R.XX",
"XXc.  Z. XI       O O O O O $ & * * * * ; > u  X X X X X X X X XE.1 6 3 1 3 1 1 1 < 4 < < < < < < , < - , * * * * * D  XE.* z.XX",
"XXQ O {.|.4 X O X O O O O $ + O % * * * = ; T  X X X X X X X X Xd.6 5 6 5 5 6 c ` ` ' ' ' c s ....o.....) > : : * * 4 '. Xt O.XX",
"XXS B  XE.  X X X O   O O $ * * * * * : ; ; x. X X X X X X X X XI 6 6 6 6 6 5 ..0.0.0.0.0.c ( 0.0.0.0.0.X.< * * = > * C. XU V XX",
"XXe E  Xd.O     O O O O O & O * * : * < = ; E. X X X X X X X}.|.t 6 6 6 6 M 6 :.8.0.0.0.8.0 o.0.0.0.0.0.n < < * * * ; e. Xa.6 XX",
"S.O d. XE   o O   X O O O O * * * * * * ; t  X X X X X X X X XE.6 6 6 I P.x.d 8.7.7.7.7.o.0 5.0.0.0.0.7.s : > ; < * * U  XZ.* D.",
"z.  C.|.A       O X O O O O * & * * = * < K  X X X X X X X X Xd.t W W. X|.E b 6.6.7.6.6.` r 7.6.7.7.7.6.< , , < < * * m  XE., z.",
"i.  E. Xi   O X O O O O O * O * * * * < < a. X X X X X X X X XL.).|..X X|.m _ 2.3.3.6.6.b v 6.6.6.6.7. .< > < * < ; ; 6  X).* s.",
"w.  ^. X4   O X   X O O O # * # * * < * < L.}. X X X X X X X X X}. X X XW.8 =.2.3.3.3.3.s / 2.2.6.2.6.( < < < = * < ; ; |.|., t.",
"q.  (.|.* O   O O O O O * O * * * = * < 4 {. X X X X X X X X X X X X X Xb.r <.<.1.1.1.;.6 =.2.1.1.2.2.a < < ; < < * ; * ).}.4 t.",
"4.  /. X*   O X O O O # @ O O * * * * = A  X X X X X X X X X X X X X X{.I z <.<.<.<.<.| q <.<.<.1.1.<.< < < , : < * * < ). X< w.",
"w.  ^. X6 O   O O O O O # * * * : * - < r. X X X X X X X X X X}.|.).f.m 6 ! ,.,.,.,.,.! g ,.<.<.<.<. .< < < < - * < ; * |.|.< t.",
"s.O E. Xu O X O O O O + + * * * * < D Z.|.}. X X X X X X X X.XP.W t 6 6 8 } >.&.>.>.>.g ~ -.-.-.-.>.^ < < < < * < < * 6  X).* s.",
"m.o Z..XF X O X O O O O O * * t e.^. X X X X X X X X X X.XW.A 6 6 6 6 6 6 &.&.&.&.&.&.q ] &.&.&.-.-.a < < < < < < * , m  XE.- z.",
"F.* d. XE O O O O O O O * # * B. X X X X X X X X X X X X Xf.6 6 6 6 6 6 h &.%.&.%.&.{ 0 *.%.%.%.&.&.0 < < < < < > * = K  XZ.* D.",
"XXi E  Xg.O O O O O O @ O + * /. X X X X X X X X X X X X}.K 6 6 6 6 6 6 j %.&.%.%.%.^ s *.%.*.%.&.{ < < < - < * < = = r. Xa.6 XX",
"XXD B |.Q.O O O O O O * + * y  X X X X X X X X X X X X X{.t 6 3 6 6 6 6 ] %.&.%.%.%.l k *.%.%.%.*.^ ; < < < - < = = = Z.}.U S XX",
"XX4.@ [. X6 O O O O @ O * # U  X X X^.|. X X X X X X X XP.4 3 3 6 5 6 6 ] #.#.#.#.#.w j { { { { { a < < , - , ; ; * 4 ).}.t +.XX",
"XXN.O B. XT O O O O * O * & a.|.B.D i  X X X X X X X X Xf.4 1 1 6 6 1 1 1 1 1 1 1 1 < 1 4 < < < < < < < , < * < = * D  XE.- z.XX",
"XXXXu P  XL.O O O $ O * $ * I t * * I  X X X X X X X X XK 4 4 1 1 1 1 1 1 1 1 1 1 4 1 < < < < < < < < < - : < : * ; v. Xe.e R.XX",
"XXXXQ < {. Xt O O O O O * * & * - - d. X X X X X X X X Xd.e.e.e.y.y.y.y.a.a.f.d.d.g.g.x.v.b.b.d.t < < * : * < * ; 6 '. Xm Y XXXX",
"XXXXN.* v. Xa.O O O * * O * * * * * P. X X X X X X X X X}.}.}. X X.X.X.X X X X X X X X X X X X XE * > < * < * < = W  XL.* M.XXXX",
"XXXXXXS m  X`.6 & @ & # @ @ # * * 2 |. X X X X X X X X X X X X X X X X X X X X X X X X X X X X XD < * < * > * * < ^.|.U N XXXXXX",
"XXXXXXj.O Z. Xa.O O O * # * * # * F  X X X X X X X X X X X X X X X X X X X X X X X X X X X X}.}.t * * * = * : * q. XQ.* h.XXXXXX",
"XXXXXXXXV m }.|.u * + $ * # * * * r. X X X X X X X X X X X X X X X X X X X X X X X X X X X X X^., * - * * * * t ). XU M XXXXXXXX",
"XXXXXXXXc.* g.}.L.* O O * + @ * * G. X X X X X X X X X X X X X X X X X X.X X X X X X X X X X XB.* ; * * * * * B. XL.* c.XXXXXXXX",
"XXXXXXXXXXP 4 ^.|.q.O & * O * * * [.}. X X X X X X X X X X X X X X X X X X X X X X X X X X X.Xq.* * * * * * E  X{.u K XXXXXXXXXX",
"XXXXXXXXXXF.t D |.|.A * O * $ * B  X X X X X X X X X X X X X X X X X X X X X X X X X X X X X}.C * * * * * B `. XW q H.XXXXXXXXXX",
"XXXXXXXXXXXXl.* p. X).u $ O O * I  X X X X}. X}. X}. X X}. X X X X X X X X X|.}. X X X X X X).< * * * * t ^..XB.* l.XXXXXXXXXXXX",
"XXXXXXXXXXXXXX+.* B.}.W.t * O * 6 I I I I U U K K D K D D F A A A N N B B B m m m p p p u i < * O & @ 9 W. XP.< O.XXXXXXXXXXXXXX",
"XXXXXXXXXXXXXXXXL ; L. XW.i # * * @ * * * * * * # * * * & * * & * * O * * # * * + * O * % $ $ % @ O t W.}.W.t H Y.XXXXXXXXXXXXXX",
"XXXXXXXXXXXXXXXXXXS 4 L. X).N O O * @ O O & # O # # O * * O & * & & $ O O * O O O O O O O O O + & B /. XW.t Z U.XXXXXXXXXXXXXXXX",
"XXXXXXXXXXXXXXXXXXH.S > B. X|.W * & # # * O # * + * O * $ & & O O $ O O O O O O O O O O O O O $ W {.}.P.9 Z U.XXXXXXXXXXXXXXXXXX",
"XXXXXXXXXXXXXXXXXXXXXXL * p.}.}.C.t @ O * O # + + + + O O O O @ O $ O O O O O O O O O O O O t C.|. Xb.< J U.XXXXXXXXXXXXXXXXXXXX",
"XXXXXXXXXXXXXXXXXXXXXXXX+.* D ^.}.'.r.< # + + O @ @ O O O O O O O O O O O O   O o O O O * r.[. X`.Q * @.T.XXXXXXXXXXXXXXXXXXXXXX",
"XXXXXXXXXXXXXXXXXXXXXXXXXXk.t 4 z.|.}._.r.6 O O O O O O O O O O O O O X   O   O O   4 r.).|. XC.t q z.XXXXXXXXXXXXXXXXXXXXXXXXXX",
"XXXXXXXXXXXXXXXXXXXXXXXXXXXXS.L & m Z.|.}.{.b.K , O O O O O O O O O O O   O   - K B.{. X|.P.D O P D.XXXXXXXXXXXXXXXXXXXXXXXXXXXX",
"XXXXXXXXXXXXXXXXXXXXXXXXXXXXXXXXz.V * B v.{. X X{.L.a.U B 6 * O O * 6 m U a.L.|. X X|.C.D O N m.XXXXXXXXXXXXXXXXXXXXXXXXXXXXXXXX",
"XXXXXXXXXXXXXXXXXXXXXXXXXXXXXXXXXXXXh.Z & < E B.{.}. X X}. X X}. X|. X X X X X}.I.W e O Z z.XXXXXXXXXXXXXXXXXXXXXXXXXXXXXXXXXXXX",
"XXXXXXXXXXXXXXXXXXXXXXXXXXXXXXXXXXXXXXXXM.R i O * B W g.S.Q._.'.[.(.W.L.v.W A - o y Q A.XXXXXXXXXXXXXXXXXXXXXXXXXXXXXXXXXXXXXXXX",
"XXXXXXXXXXXXXXXXXXXXXXXXXXXXXXXXXXXXXXXXXXXXXXM.@.D y * o o o o O     o * y D 4.A.XXXXXXXXXXXXXXXXXXXXXXXXXXXXXXXXXXXXXXXXXXXXXX",
"XXXXXXXXXXXXXXXXXXXXXXXXXXXXXXXXXXXXXXXXXXXXXXXXXXXXXXK.A.k.u.t.t.u.h.A.K.XXXXXXXXXXXXXXXXXXXXXXXXXXXXXXXXXXXXXXXXXXXXXXXXXXXXXX"
};
