/* XPM */
static char *result[] = {
/* columns rows colors chars-per-pixel */
"32 32 177 2 ",
"   c #191E27",
".  c #151E2A",
"X  c #181F29",
"o  c #161E27",
"O  c #1B2027",
"+  c #17202E",
"@  c #1B222C",
"#  c #162234",
"$  c #1C2532",
"%  c #1F2835",
"&  c #1E2A3C",
"*  c #21262D",
"=  c #26292E",
"-  c #2A2B2E",
";  c #212731",
":  c #212832",
">  c #282F3A",
",  c #292E34",
"<  c #2D333B",
"1  c #2C3137",
"2  c #31363B",
"3  c #35393D",
"4  c #383B3F",
"5  c #1F3556",
"6  c #243245",
"7  c #2D3542",
"8  c #2F3946",
"9  c #29364A",
"0  c #20364D",
"q  c #303741",
"w  c #303844",
"e  c #3B3E41",
"r  c #313C4B",
"t  c #1D396B",
"y  c #1D3E76",
"u  c #3E4143",
"i  c #35404F",
"p  c #354255",
"a  c #3C4756",
"s  c #3E4857",
"d  c #3E4A5A",
"f  c #1E427C",
"g  c #204669",
"h  c #344A64",
"j  c #224B76",
"k  c #424345",
"l  c #40454D",
"z  c #424E5E",
"x  c #4D4E51",
"c  c #515356",
"v  c #465365",
"b  c #4E5867",
"n  c #45556D",
"m  c #48576C",
"M  c #4C596C",
"N  c #4E5661",
"B  c #515D6D",
"V  c #575C61",
"C  c #4D5B72",
"Z  c #515E73",
"A  c #5E6165",
"S  c #5C626A",
"D  c #546174",
"F  c #5A6575",
"G  c #5F6977",
"H  c #54637A",
"J  c #5A6678",
"K  c #5E6A7B",
"L  c #66686A",
"P  c #626D7D",
"I  c #696C70",
"U  c #67717F",
"Y  c #777A7E",
"T  c #767A7E",
"R  c #1D4980",
"E  c #194A96",
"W  c #1C5097",
"Q  c #235887",
"!  c #245D8F",
"~  c #23659C",
"^  c #1349A6",
"/  c #165EBF",
"(  c #1254BC",
")  c #1C62AE",
"_  c #1F69B8",
"`  c #5F6E85",
"'  c #616F84",
"]  c #667180",
"[  c #697383",
"{  c #627189",
"}  c #6E7A8B",
"|  c #6D7886",
" . c #717A87",
".. c #727D8C",
"X. c #787F8A",
"o. c #6B7A92",
"O. c #667690",
"+. c #707F98",
"@. c #0F4FC0",
"#. c #0A4FCE",
"$. c #0B50CD",
"%. c #0C54D4",
"&. c #0D58D7",
"*. c #0B57DC",
"=. c #0B5ADF",
"-. c #1670DD",
";. c #247DC6",
":. c #0D5DE1",
">. c #0F62E1",
",. c #136BE3",
"<. c #1776E5",
"1. c #197BE9",
"2. c #748193",
"3. c #798492",
"4. c #75849C",
"5. c #7D889B",
"6. c #1E80DC",
"7. c #2382CF",
"8. c #2283D6",
"9. c #1D85EB",
"0. c #218DED",
"q. c #2190EF",
"w. c #838589",
"e. c #8A8D90",
"r. c #848D9B",
"t. c #838B97",
"y. c #8B939D",
"u. c #8F9193",
"i. c #94979A",
"p. c #8591A3",
"a. c #8C95A1",
"s. c #8594AC",
"d. c #939BA6",
"f. c #959FAD",
"g. c #999EA6",
"h. c #9CA3AB",
"j. c #9BA1A7",
"k. c #9EA7B2",
"l. c #A0A5AB",
"z. c #AAABAE",
"x. c #A3AAB4",
"c. c #A8AEB7",
"v. c #A5AEB8",
"b. c #A9AFB9",
"n. c #ACB2BD",
"m. c #B8BABD",
"M. c #B1B4B8",
"N. c #B0B7C0",
"B. c #B3BAC3",
"V. c #B7BEC8",
"C. c #B9BFC8",
"Z. c #BEC1C5",
"A. c #BCC3CB",
"S. c #C1C3C6",
"D. c #C2C5CA",
"F. c #C4C8CE",
"G. c #C6CBD1",
"H. c #C9CED4",
"J. c #CCD1D6",
"K. c #CED3D9",
"L. c #D2D6DD",
"P. c #D6D9DC",
"I. c #D6DBE1",
"U. c #D9DEE5",
"Y. c #DFE4E7",
"T. c #DFE4EB",
"R. c #E2E5E9",
"E. c #E5E9EE",
"W. c #E8EBEF",
"Q. c #E7ECF2",
"!. c #EBEEF1",
"~. c #EEF2F5",
"^. c #EEF3FA",
"/. c #F2F4F7",
"(. c #F3F6FA",
"). c #F6F8FA",
"_. c None",
/* pixels */
"_._._._._._._._._._._._.a...] P P ] | r._._._._._._._._._._._._.",
"_._._._._._._._._.f.[  .x.J.Q.).).!.L.v. .P p._._._._._._._._._.",
"_._._._._._._._.P d.Q.J.a.P d r r s D t.F.Q.h.G h._._._._._._._.",
"_._._._._._.3.X.E.B.B 8 w q 7 2 7 q < 7 7 z v.Q.3.} _._._._._._.",
"_._._._._.[ k.R.P w q q q 7 2 7 < 2 < 7 < 7 7 M P.n.` _._._._._.",
"_._._._.[ N.J.d 7 q q 2 l U.Q.E.T.D.2 < < < 7 7 p A.A.K _._._._.",
"_._._...k.J.p < q < 2 2 T ^./.(.(.M.3 2 2 < < < < r A.b.` _._._.",
"_._._...R.a 7 < q 2 2 2 h.(./.).(.t.3 2 2 3 q 3 q 7 7 L.} p._._.",
"_._.F E.P < > 2 < 2 2 2 J.)./.).).A 3 3 3 3 2 3 < @ $ z E.m _._.",
"_.5.a.N.7 2 < < 2 2 2 k /.).)./.Q.e 4 4 e 3 3 , @ @ @ $ k.d.2._.",
"_.D E.b < > 1 2 2 2 2 I /.).).).S.e e 4 3 3 , @ * @ @ $ p Q.C _.",
"_.U J.7 > 1 2 1 2 2 3 i.).).).).i.e e u 3 = * : * @ * @ % A.] _.",
"..h.a.> < 1 2 1 2 2 3 S.).).).).L k e h ;.;.! ~ 7.7.g $ $ 3.k.} ",
"J G.F > > 1 1 1 2 3 4 !.).).).!.k x Y ! 0.9.Q 8.0.q.0 ; % n K.H ",
"B R.d < 1 1 < 1 2 3 A ).).).).P.z.~.z._ 9.9.j 9.9.8.: $ % 9 ~.C ",
"B ~.r > < 1 < 2 2 3 e./.).).).).).).Y -.1.<.j 1.1.) ; : % & ^.C ",
"Z !.r > 1 1 2 2 2 3 m.).).).).)./.M.d >.,./ W ,.,.R * : % 6 ~.C ",
"Z E.z > 2 1 1 2 Y S.(.).).).!.u.k - f :.:.E ( :.>.5 : % % 9 Q.C ",
"P G.P < > 2 2 w.).).(.).).).m.- - - ^ =.:.y *.*.&.: : : % v K.H ",
"+.g.a.7 > 2 2 x.(.!.)./.)./.w.= - - ( %.%.t $.#.^ : * : % 3.x.o.",
"_.[ J.7 7 2 2 i.V j.(.(.(.(.c - = - = - = = ; ; ; ; $ % & A.[ _.",
"_.G E.B 7 2 > *   L.(.(.(.(.A.Z.S.C.S.D.F.G.H.G.e ; : % p Q.H _.",
"_.5.a.M.w > * X 1 ^.(.(.(.(.(./.(.(.(.(./.(.^.^.7 $ $ % k.d.4._.",
"_._.J E.Z + X X V ^.^.^.^.(.(.^.(.(.^.^.^.^.^.I.@ $ # v Q.D _._.",
"_._._.P U.6 $ @ y.^.^.(.^.^.(.(.^.(.^.(.^.^.^.v.@ $ 6 I.} s._._.",
"_._._.' d.A.& + X.b.c.x.x.x.l.l.h.g.g.d.d.d.d.N # > V.v.{ _._._.",
"_._._._.Z v.A.6 # X @ X   X             o . . $ 6 C.V.H _._._._.",
"_._._._._.D d.I.v $ + @ X X X o o o . . . . # v I.k.H _._._._._.",
"_._._._._._.` P Y.x.p # # . . . . . . . # r x.Q.} { _._._._._._.",
"_._._._._._._._.m t.T.A.3.n 6 # # 6 v 2.A.Q.p.C _._._._._._._._.",
"_._._._._._._._._.+.m J d.D.T.~.^.Q.G.f.P C 4._._._._._._._._._.",
"_._._._._._._._._._._._.O.H n n n n Z o._._._._._._._._._._._._."
};
