/* XPM */
static char *result[] = {
/* columns rows colors chars-per-pixel */
"256 256 208 2 ",
"   c #0F0F0F",
".  c #100F0F",
"X  c #0F100F",
"o  c #10100F",
"O  c #0F0F10",
"+  c #100F10",
"@  c #0F1010",
"#  c #141414",
"$  c #181717",
"%  c #171817",
"&  c #181817",
"*  c #171718",
"=  c #181718",
"-  c #171818",
";  c #1B1B1B",
":  c #201F1F",
">  c #1F201F",
",  c #20201F",
"<  c #1F1F20",
"1  c #201F20",
"2  c #1F2020",
"3  c #1F2932",
"4  c #232323",
"5  c #282727",
"6  c #272827",
"7  c #282827",
"8  c #262728",
"9  c #282728",
"0  c #272828",
"q  c #2A2A2A",
"w  c #2B2E32",
"e  c #252C37",
"r  c #2D3136",
"t  c #333333",
"y  c #3B3B3C",
"u  c #373739",
"i  c #302F30",
"p  c #1E3152",
"a  c #253649",
"s  c #3D3E41",
"d  c #233B57",
"f  c #1B3564",
"g  c #1B3769",
"h  c #1A3D7A",
"j  c #1B3C75",
"k  c #223B65",
"l  c #25425B",
"z  c #3F4042",
"x  c #1E4475",
"c  c #244869",
"v  c #224974",
"b  c #255379",
"n  c #434344",
"m  c #444549",
"M  c #4B4B4C",
"N  c #474849",
"B  c #4C4E51",
"V  c #535353",
"C  c #54555A",
"Z  c #5B5B5B",
"A  c #575859",
"S  c #505051",
"D  c #5F605F",
"F  c #5A5D62",
"G  c #5E6166",
"H  c #646464",
"J  c #63666B",
"K  c #6C6C6C",
"L  c #676869",
"P  c #6B6D72",
"I  c #666A72",
"U  c #6E7177",
"Y  c #737374",
"T  c #73757B",
"R  c #7B7B7C",
"E  c #76787B",
"W  c #6F706F",
"Q  c #605F60",
"!  c #807F7F",
"~  c #80807F",
"^  c #173F86",
"/  c #1C4687",
"(  c #174898",
")  c #1E5697",
"_  c #235786",
"`  c #215D99",
"'  c #226399",
"]  c #134BAC",
"[  c #1657B6",
"{  c #1553B0",
"}  c #1E67B2",
"|  c #236CA6",
" . c #2374B7",
".. c #236FAF",
"X. c #7B7D82",
"o. c #767A83",
"O. c #0751D9",
"+. c #0955DC",
"@. c #0C5BDE",
"#. c #0C57D5",
"$. c #1055C7",
"%. c #1A6BC7",
"&. c #0E61DF",
"*. c #1266DB",
"=. c #1C75D3",
"-. c #217AC5",
";. c #0D5EE0",
":. c #0F63E0",
">. c #1066E1",
",. c #126BE2",
"<. c #1673E4",
"1. c #1778E6",
"2. c #197BE6",
"3. c #1A7EE8",
"4. c #1877E5",
"5. c #807F80",
"6. c #7E8289",
"7. c #2184D9",
"8. c #1B81E6",
"9. c #1D84E9",
"0. c #1F89EA",
"q. c #218DEB",
"w. c #228BE3",
"e. c #2393ED",
"r. c #1F83DD",
"t. c #848484",
"y. c #8C8C8C",
"u. c #85878B",
"i. c #868A93",
"p. c #8B8D94",
"a. c #898F9A",
"s. c #8C919C",
"d. c #949494",
"f. c #92969D",
"g. c #9B9B9C",
"h. c #96989B",
"j. c #90908F",
"k. c #989CA5",
"l. c #8D94A1",
"z. c #9EA2AA",
"x. c #9CA3B2",
"c. c #A4A4A4",
"v. c #ACACAC",
"b. c #A3A6AC",
"n. c #A5A9B3",
"m. c #ABAEB3",
"M. c #A5ABB8",
"N. c #ADB2BD",
"B. c #AFB1B5",
"V. c #B4B4B4",
"C. c #BBBBBB",
"Z. c #B5B7B9",
"A. c #B0B0AF",
"S. c #A09F9F",
"D. c #C0BFBF",
"F. c #BFC0BF",
"G. c #ACB3C3",
"H. c #AFB8C8",
"J. c #B6BCC5",
"K. c #B9BDC6",
"L. c #B4BBCB",
"P. c #B9BEC9",
"I. c #B2B7C2",
"U. c #B7BFD0",
"Y. c #C0BFC0",
"T. c #BCC2CC",
"R. c #BCC4D4",
"E. c #BEC6D7",
"W. c #C3C3C3",
"Q. c #C2C6CD",
"!. c #CBCBCC",
"~. c #C8C7C7",
"^. c #C5CAD3",
"/. c #CACDD5",
"(. c #C4CBDA",
"). c #C9CFDD",
"_. c #C1C7D4",
"`. c #CBD1DD",
"'. c #CED0D4",
"]. c #D4D4D4",
"[. c #D3D6DC",
"{. c #DBDBDB",
"}. c #D6D8DB",
"|. c #D0CFCF",
" X c #E0DFDF",
".X c #CED4E2",
"XX c #D1D6E3",
"oX c #D5DAE4",
"OX c #DADDE4",
"+X c #DADEE8",
"@X c #DEE1E5",
"#X c #DEE1EA",
"$X c #E3E4E4",
"%X c #E3E5EB",
"&X c #E6E9EE",
"*X c #ECECEC",
"=X c #E8E8E8",
"-X c #EBEDF1",
";X c #E7EAF0",
":X c #EFF0F3",
">X c #F4F4F4",
",X c #F6F6F9",
"<X c #F7F8F9",
"1X c #F9F9F9",
"2X c #F8F7F7",
"3X c #F0F0EF",
"4X c #E0DFE0",
"5X c None",
/* pixels */
"5X5X5X5X5X5X5X5X5X5X5X5X5X5X5X5X5X5X5X5X5X5X5X5X5X5X5X5X5X5X5X5X5X5X5X5X5X5X5X5X5X5X5X5X5X5X5X5X5X5X5X5X5X5X5X5X5X5X5X5X5X5X5X5X5X5X5X5X5X5X5X5X5X5X5X5X5X5X5X5X5X5X5X5X5X5X5X5X5X5X5X5X5X5X5X5X5X5X5X5X5X5X5X5X5X5X5X5X5X5X5X5X5X5X5X5X5X5X5X5X5X1X1X1X1X1X1X1X1X1X1X1X1X1X1X1X1X5X5X5X5X5X5X5X5X5X5X5X5X5X5X5X5X5X5X5X5X5X5X5X5X5X5X5X5X5X5X5X5X5X5X5X5X5X5X5X5X5X5X5X5X5X5X5X5X5X5X5X5X5X5X5X5X5X5X5X5X5X5X5X5X5X5X5X5X5X5X5X5X5X5X5X5X5X5X5X5X5X5X5X5X5X5X5X5X5X5X5X5X5X5X5X5X5X5X5X5X5X5X5X5X5X5X5X5X5X5X5X5X5X5X5X5X5X5X5X",
"5X5X5X5X5X5X5X5X5X5X5X5X5X5X5X5X5X5X5X5X5X5X5X5X5X5X5X5X5X5X5X5X5X5X5X5X5X5X5X5X5X5X5X5X5X5X5X5X5X5X5X5X5X5X5X5X5X5X5X5X5X5X5X5X5X5X5X5X5X5X5X5X5X5X5X5X5X5X5X5X5X5X5X5X5X5X5X5X5X5X5X5X5X5X5X5X5X5X5X5X5X5X5X5X5X5X5X5X5X5X5X1X1X1X1X1X1X1X1X1X1X1X1X1X1X1X1X1X1X1X1X1X1X1X1X1X1X1X1X1X1X1X1X1X1X1X1X5X5X5X5X5X5X5X5X5X5X5X5X5X5X5X5X5X5X5X5X5X5X5X5X5X5X5X5X5X5X5X5X5X5X5X5X5X5X5X5X5X5X5X5X5X5X5X5X5X5X5X5X5X5X5X5X5X5X5X5X5X5X5X5X5X5X5X5X5X5X5X5X5X5X5X5X5X5X5X5X5X5X5X5X5X5X5X5X5X5X5X5X5X5X5X5X5X5X5X5X5X5X5X5X5X5X5X5X5X",
"5X5X5X5X5X5X5X5X5X5X5X5X5X5X5X5X5X5X5X5X5X5X5X5X5X5X5X5X5X5X5X5X5X5X5X5X5X5X5X5X5X5X5X5X5X5X5X5X5X5X5X5X5X5X5X5X5X5X5X5X5X5X5X5X5X5X5X5X5X5X5X5X5X5X5X5X5X5X5X5X5X5X5X5X5X5X5X5X5X5X5X5X5X5X5X5X5X5X5X5X5X5X5X5X5X1X1X1X1X1X1X1X1X1X1X1X1X$X].C.v.c.h.y.t.R T Y R Y E R ~ y.h.c.v.C.!.$X1X1X1X<X1X1X1X1X1X1X1X1X1X5X5X5X5X5X5X5X5X5X5X5X5X5X5X5X5X5X5X5X5X5X5X5X5X5X5X5X5X5X5X5X5X5X5X5X5X5X5X5X5X5X5X5X5X5X5X5X5X5X5X5X5X5X5X5X5X5X5X5X5X5X5X5X5X5X5X5X5X5X5X5X5X5X5X5X5X5X5X5X5X5X5X5X5X5X5X5X5X5X5X5X5X5X5X5X5X5X5X5X5X5X5X5X",
"5X5X5X5X5X5X5X5X5X5X5X5X5X5X5X5X5X5X5X5X5X5X5X5X5X5X5X5X5X5X5X5X5X5X5X5X5X5X5X5X5X5X5X5X5X5X5X5X5X5X5X5X5X5X5X5X5X5X5X5X5X5X5X5X5X5X5X5X5X5X5X5X5X5X5X5X5X5X5X5X5X5X5X5X5X5X5X5X5X5X5X5X5X5X5X5X5X5X5X5X1X1X<X1X1X1X1X1X1XOXC.S.R Z N q ; - # # # # $ & # $ # # # # # # # # # # # # # # - q n Z R d.C.OX1X1X1X1X1X1X1X1X1X5X5X5X5X5X5X5X5X5X5X5X5X5X5X5X5X5X5X5X5X5X5X5X5X5X5X5X5X5X5X5X5X5X5X5X5X5X5X5X5X5X5X5X5X5X5X5X5X5X5X5X5X5X5X5X5X5X5X5X5X5X5X5X5X5X5X5X5X5X5X5X5X5X5X5X5X5X5X5X5X5X5X5X5X5X5X5X5X5X5X5X5X5X5X5X5X5X5X5X",
"5X5X5X5X5X5X5X5X5X5X5X5X5X5X5X5X5X5X5X5X5X5X5X5X5X5X5X5X5X5X5X5X5X5X5X5X5X5X5X5X5X5X5X5X5X5X5X5X5X5X5X5X5X5X5X5X5X5X5X5X5X5X5X5X5X5X5X5X5X5X5X5X5X5X5X5X5X5X5X5X5X5X5X5X5X5X5X5X5X5X5X5X5X5X5X5X<X<X<X<X1X1X1X>XW.d.L N 4 $ # $ # % # - # # # $ # # # # # # # # # # # # # # # # + # # + # # # # # # # + & y H y.C.%X1X1X1X1X1X1X<X5X5X5X5X5X5X5X5X5X5X5X5X5X5X5X5X5X5X5X5X5X5X5X5X5X5X5X5X5X5X5X5X5X5X5X5X5X5X5X5X5X5X5X5X5X5X5X5X5X5X5X5X5X5X5X5X5X5X5X5X5X5X5X5X5X5X5X5X5X5X5X5X5X5X5X5X5X5X5X5X5X5X5X5X5X5X5X5X5X5X5X5X5X5X5X",
"5X5X5X5X5X5X5X5X5X5X5X5X5X5X5X5X5X5X5X5X5X5X5X5X5X5X5X5X5X5X5X5X5X5X5X5X5X5X5X5X5X5X5X5X5X5X5X5X5X5X5X5X5X5X5X5X5X5X5X5X5X5X5X5X5X5X5X5X5X5X5X5X5X5X5X5X5X5X5X5X5X5X5X5X5X5X5X5X5X5X5X5X2X1X1X1X<X<X1X}.c.Y y - $ $ # = & # & # # # % # $ % # # & # $ # # # # # # # # # # # # # # # # # # # o # # # o # # # O # # # t H k.].1X1X<X2X<X<X<X5X5X5X5X5X5X5X5X5X5X5X5X5X5X5X5X5X5X5X5X5X5X5X5X5X5X5X5X5X5X5X5X5X5X5X5X5X5X5X5X5X5X5X5X5X5X5X5X5X5X5X5X5X5X5X5X5X5X5X5X5X5X5X5X5X5X5X5X5X5X5X5X5X5X5X5X5X5X5X5X5X5X5X5X5X5X5X5X5X5X5X",
"5X5X5X5X5X5X5X5X5X5X5X5X5X5X5X5X5X5X5X5X5X5X5X5X5X5X5X5X5X5X5X5X5X5X5X5X5X5X5X5X5X5X5X5X5X5X5X5X5X5X5X5X5X5X5X5X5X5X5X5X5X5X5X5X5X5X5X5X5X5X5X5X5X5X5X5X5X5X5X5X5X5X5X5X5X5X5X5X5X,X,X,X<X<X2XOXb.L q # * # % # # $ $ # # - # $ # & $ # # # $ # # # # # & # # # # # # # # # # # # # # # # + # o # # # # # # # O # o . # # + 6 Z h.}.2X1X<X,X,X,X5X5X5X5X5X5X5X5X5X5X5X5X5X5X5X5X5X5X5X5X5X5X5X5X5X5X5X5X5X5X5X5X5X5X5X5X5X5X5X5X5X5X5X5X5X5X5X5X5X5X5X5X5X5X5X5X5X5X5X5X5X5X5X5X5X5X5X5X5X5X5X5X5X5X5X5X5X5X5X5X5X5X5X5X5X5X5X5X",
"5X5X5X5X5X5X5X5X5X5X5X5X5X5X5X5X5X5X5X5X5X5X5X5X5X5X5X5X5X5X5X5X5X5X5X5X5X5X5X5X5X5X5X5X5X5X5X5X5X5X5X5X5X5X5X5X5X5X5X5X5X5X5X5X5X5X5X5X5X5X5X5X5X5X5X5X5X5X5X5X5X5X5X5X5X5X2X2X,X,X2X2XW.5.n - $ = $ $ # % # - $ # - # = # - # & # # $ # $ $ & $ # # - ; 4 6 6 9 9 6 1 ; # # # # # # # # # # # # o # . # o @ # # # # . #   # # + # i T Z.>X2X2X<X,X,X5X5X5X5X5X5X5X5X5X5X5X5X5X5X5X5X5X5X5X5X5X5X5X5X5X5X5X5X5X5X5X5X5X5X5X5X5X5X5X5X5X5X5X5X5X5X5X5X5X5X5X5X5X5X5X5X5X5X5X5X5X5X5X5X5X5X5X5X5X5X5X5X5X5X5X5X5X5X5X5X5X5X5X5X5X",
"5X5X5X5X5X5X5X5X5X5X5X5X5X5X5X5X5X5X5X5X5X5X5X5X5X5X5X5X5X5X5X5X5X5X5X5X5X5X5X5X5X5X5X5X5X5X5X5X5X5X5X5X5X5X5X5X5X5X5X5X5X5X5X5X5X5X5X5X5X5X5X5X5X5X5X5X5X5X5X5X5X5X5X,X,X,X,X>X>XC.W q = # & # # % # $ # $ & = $ # $ # $ $ # $ > u C W t.g.A.F.]. X=X>X2X1X1X1X1X1X1X1X2X>X*X4X].W.A.g.t.W C y ; # # # # o o # o # # # . #   # #   # #   ; H v.-X2X,X,X,X>X5X5X5X5X5X5X5X5X5X5X5X5X5X5X5X5X5X5X5X5X5X5X5X5X5X5X5X5X5X5X5X5X5X5X5X5X5X5X5X5X5X5X5X5X5X5X5X5X5X5X5X5X5X5X5X5X5X5X5X5X5X5X5X5X5X5X5X5X5X5X5X5X5X5X5X5X5X5X5X5X5X5X",
"5X5X5X5X5X5X5X5X5X5X5X5X5X5X5X5X5X5X5X5X5X5X5X5X5X5X5X5X5X5X5X5X5X5X5X5X5X5X5X5X5X5X5X5X5X5X5X5X5X5X5X5X5X5X5X5X5X5X5X5X5X5X5X5X5X5X5X5X5X5X5X5X5X5X5X5X5X5X5X5X5X,X,X>X2X>XT.W q # & # - # % # & # $ $ # = # # $ $ 9 S E g.D. X>X1X2X2X1X1X1X1X2X1X1X1X1X1X1X1X1X1X1X1X1X1X1X1X1X1X1X1X1X1X2X1X2X XF.S.E S 6 # + # + # # . #     #   o # # X   - L B.>X,X,X,X>X5X5X5X5X5X5X5X5X5X5X5X5X5X5X5X5X5X5X5X5X5X5X5X5X5X5X5X5X5X5X5X5X5X5X5X5X5X5X5X5X5X5X5X5X5X5X5X5X5X5X5X5X5X5X5X5X5X5X5X5X5X5X5X5X5X5X5X5X5X5X5X5X5X5X5X5X5X5X5X5X",
"5X5X5X5X5X5X5X5X5X5X5X5X5X5X5X5X5X5X5X5X5X5X5X5X5X5X5X5X5X5X5X5X5X5X5X5X5X5X5X5X5X5X5X5X5X5X5X5X5X5X5X5X5X5X5X5X5X5X5X5X5X5X5X5X5X5X5X5X5X5X5X5X5X5X5X5X5X5X>X>X>X:X>X{.y.t # $ - = # & & $ & # & # $ $ - 6 V t.V. X2X1X1X1X1X1X1X1X1X1X1X1X1X1X2X1X1X1X1X1X1X1X1X1X1X1X1X1X1X1X1X1X1X1X1X1X1X1X1X1X1X1X2X2X1X@XV.t.S 4 # # #   # X # . . o o # # # O 8 E '.>X,X,X:X>X5X5X5X5X5X5X5X5X5X5X5X5X5X5X5X5X5X5X5X5X5X5X5X5X5X5X5X5X5X5X5X5X5X5X5X5X5X5X5X5X5X5X5X5X5X5X5X5X5X5X5X5X5X5X5X5X5X5X5X5X5X5X5X5X5X5X5X5X5X5X5X5X5X5X5X5X5X",
"5X5X5X5X5X5X5X5X5X5X5X5X5X5X5X5X5X5X5X5X5X5X5X5X5X5X5X5X5X5X5X5X5X5X5X5X5X5X5X5X5X5X5X5X5X5X5X5X5X5X5X5X5X5X5X5X5X5X5X5X5X5X5X5X5X5X5X5X5X5X5X5X5X5X5X5X:X>X>X>X:XV.A - # $ $ $ # # % = - # $ # & 7 Q h.!.>X1X1X1X1X1X1X1X1X1X1X1X1X1X1X1X1X1X1X1X1X1X1X1X1X1X1X1X1X1X1X1X1X1X1X1X1X1X1X1X1X1X1X1X1X1X1X2X2X1X1X>X1X1X>X!.d.Z ; o # X # o # # o #   # @ O # N c.-X>X,X,X>X5X5X5X5X5X5X5X5X5X5X5X5X5X5X5X5X5X5X5X5X5X5X5X5X5X5X5X5X5X5X5X5X5X5X5X5X5X5X5X5X5X5X5X5X5X5X5X5X5X5X5X5X5X5X5X5X5X5X5X5X5X5X5X5X5X5X5X5X5X5X5X5X5X5X5X",
"5X5X5X5X5X5X5X5X5X5X5X5X5X5X5X5X5X5X5X5X5X5X5X5X5X5X5X5X5X5X5X5X5X5X5X5X5X5X5X5X5X5X5X5X5X5X5X5X5X5X5X5X5X5X5X5X5X5X5X5X5X5X5X5X5X5X5X5X5X5X5X5X5X5X:X>X>X:X$Xp.t * $ $ # - $ # - - = # - - N y.!.>X1X1X1X1X1X1X1X1X1X1X1X1X1X1X1X1X1X1X1X1X1X1X1X1X1X1X1X1X1X1X1X1X1X1X1X1X1X1X1X1X1X1X1X1X1X1X1X1X1X1X1X1X1X1X1X1X1X1X1X2X1X>X~.t.z # #   + #     #   #   O   8 X.{.>X:X>X>X5X5X5X5X5X5X5X5X5X5X5X5X5X5X5X5X5X5X5X5X5X5X5X5X5X5X5X5X5X5X5X5X5X5X5X5X5X5X5X5X5X5X5X5X5X5X5X5X5X5X5X5X5X5X5X5X5X5X5X5X5X5X5X5X5X5X5X5X5X5X5X5X5X",
"5X5X5X5X5X5X5X5X5X5X5X5X5X5X5X5X5X5X5X5X5X5X5X5X5X5X5X5X5X5X5X5X5X5X5X5X5X5X5X5X5X5X5X5X5X5X5X5X5X5X5X5X5X5X5X5X5X5X5X5X5X5X5X5X5X5X5X5X5X5X5X5X:X:X:X:X}.Y 4 # * * - - $ - & # - # : Z c.=X1X1X1X1X1X1X2X1X1X1X1X1X1X1X1X1X1X1X1X1X1X1X1X1X1X1X1X1X1X1X1X1X1X1X1X1X1X1X1X1X1X1X1X1X1X1X1X1X1X1X1X1X1X1X1X1X1X1X1X1X1X1X1X1X1X1X1X1X2X Xh.V # # o # # . +     # # + # L ^.:X-X>X>X5X5X5X5X5X5X5X5X5X5X5X5X5X5X5X5X5X5X5X5X5X5X5X5X5X5X5X5X5X5X5X5X5X5X5X5X5X5X5X5X5X5X5X5X5X5X5X5X5X5X5X5X5X5X5X5X5X5X5X5X5X5X5X5X5X5X5X5X5X5X5X",
"5X5X5X5X5X5X5X5X5X5X5X5X5X5X5X5X5X5X5X5X5X5X5X5X5X5X5X5X5X5X5X5X5X5X5X5X5X5X5X5X5X5X5X5X5X5X5X5X5X5X5X5X5X5X5X5X5X5X5X5X5X5X5X5X5X5X5X5X5X5X:X-X-X>X^.H - - & % * * * # $ # - ; Z c.*X1X1X1X1X1X1X1X1X1X1X1X1X1X1X1X1X1X1X1X1X1X1X1X1X1X1X1X1X1X1X1X1X1X1X1X1X1X1X1X1X1X1X1X1X1X1X1X1X1X1X1X1X1X1X1X1X1X1X1X1X1X1X1X1X1X1X1X1X1X1X1X1X1X2X1X=Xg.M #   + o # # X O O O @ # V P.>X:X-X:X5X5X5X5X5X5X5X5X5X5X5X5X5X5X5X5X5X5X5X5X5X5X5X5X5X5X5X5X5X5X5X5X5X5X5X5X5X5X5X5X5X5X5X5X5X5X5X5X5X5X5X5X5X5X5X5X5X5X5X5X5X5X5X5X5X5X5X5X5X",
"5X5X5X5X5X5X5X5X5X5X5X5X5X5X5X5X5X5X5X5X5X5X5X5X5X5X5X5X5X5X5X5X5X5X5X5X5X5X5X5X5X5X5X5X5X5X5X5X5X5X5X5X5X5X5X5X5X5X5X5X5X5X5X5X5X5X5X5X-X:X-X-X~.Z - # - & # - # - # - $ n h.=X1X1X1X1X1X1X1X1X1X1X1X1X1X1X1X1X1X1X1X1X1X1X1X1X1X1X1X1X1X1X1X1X1X1X1X1X1X1X1X2X1X1X1X1X1X1X1X1X1X1X1X1X1X1X1X1X1X1X1X1X1X1X1X1X1X1X1X1X1X1X1X1X1X1X1X1X1X1X1X1X1X{.y.t   #     O # @ O O + . M J.>X:X:X:X5X5X5X5X5X5X5X5X5X5X5X5X5X5X5X5X5X5X5X5X5X5X5X5X5X5X5X5X5X5X5X5X5X5X5X5X5X5X5X5X5X5X5X5X5X5X5X5X5X5X5X5X5X5X5X5X5X5X5X5X5X5X5X5X5X5X5X",
"5X5X5X5X5X5X5X5X5X5X5X5X5X5X5X5X5X5X5X5X5X5X5X5X5X5X5X5X5X5X5X5X5X5X5X5X5X5X5X5X5X5X5X5X5X5X5X5X5X5X5X5X5X5X5X5X5X5X5X5X5X5X5X5X5X5X-X-X-X3X!.Z - # % = $ # & # $ $ 4 Y !.1X1X1X1X1X1X1X1X1X1X1X1X1X1X1X1X1X1X1X1X1X1X1X1X1X1X1X1X1X=X!.Z.g.t.Y H S n u i q 4 , ; > 4 7 i u n V Q Y t.h.V.!.=X1X1X2X1X1X1X1X1X1X1X1X1X1X1X1X1X1X1X1X1X1X1X1X1X1X1X1X1X2XW.H # # . o o #   #   # # M T.:X:X:X-X5X5X5X5X5X5X5X5X5X5X5X5X5X5X5X5X5X5X5X5X5X5X5X5X5X5X5X5X5X5X5X5X5X5X5X5X5X5X5X5X5X5X5X5X5X5X5X5X5X5X5X5X5X5X5X5X5X5X5X5X5X5X5X5X5X",
"5X5X5X5X5X5X5X5X5X5X5X5X5X5X5X5X5X5X5X5X5X5X5X5X5X5X5X5X5X5X5X5X5X5X5X5X5X5X5X5X5X5X5X5X5X5X5X5X5X5X5X5X5X5X5X5X5X5X5X5X5X5X5X5X*X-X-X-X}.L - % = = - # $ # $ $ y g.*X1X1X1X1X1X1X1X1X1X1X1X1X1X1X1X1X1X1X1X1X1X1X1X1X1X}.V.y.L n 6 # = & $ = # $ - # # # $ # # $ # % # # # # # # # # # # # # 4 n H t.A.}.>X1X1X1X1X1X2X1X1X1X1X1X1X1X1X1X1X1X1X2X1X1X1X1X1X$Xy.q # o o X . . o o o o Z /.-X:X:X-X5X5X5X5X5X5X5X5X5X5X5X5X5X5X5X5X5X5X5X5X5X5X5X5X5X5X5X5X5X5X5X5X5X5X5X5X5X5X5X5X5X5X5X5X5X5X5X5X5X5X5X5X5X5X5X5X5X5X5X5X5X5X5X",
"5X5X5X5X5X5X5X5X5X5X5X5X5X5X5X5X5X5X5X5X5X5X5X5X5X5X5X5X5X5X5X5X5X5X5X5X5X5X5X5X5X5X5X5X5X5X5X5X5X5X5X5X5X5X5X5X5X5X5X5X5X5X5X*X*X-X$X6.: $ # # & # $ $ $ $ V C.1X1X1X1X1X1X1X1X1X1X1X1X1X1X1X1X1X1X1X1X1X2X1X$XV.R V 6 $ - & & # & $ # = - # $ - # - # # % # & # # # # # % # # # # # # # # # # # # # # # ; M R v. X2X2X2X2X1X1X1X1X1X1X1X1X1X1X1X1X1X1X1X1X1X1X>Xc.y o #   X . o o     # Y OX-X-X:X5X5X5X5X5X5X5X5X5X5X5X5X5X5X5X5X5X5X5X5X5X5X5X5X5X5X5X5X5X5X5X5X5X5X5X5X5X5X5X5X5X5X5X5X5X5X5X5X5X5X5X5X5X5X5X5X5X5X5X5X5X5X",
"5X5X5X5X5X5X5X5X5X5X5X5X5X5X5X5X5X5X5X5X5X5X5X5X5X5X5X5X5X5X5X5X5X5X5X5X5X5X5X5X5X5X5X5X5X5X5X5X5X5X5X5X5X5X5X5X5X5X5X5X5X&X;X-X*Xk.q # # $ $ $ = $ $ - H !.2X1X1X1X1X1X1X1X1X1X1X1X1X1X1X1X1X1X1X1X1X$Xv.Y u % # * # # $ # $ # $ # # $ $ # - # # & # # & # % # # % # % # # # # # # # # # # # # # # # # # o # # # # t L c.$X1X1X1X1X1X1X1X1X1X1X1X1X1X1X1X1X1X1X1X1X2XZ.N .   # . # # O @ # 4 d.-X:X-X-X5X5X5X5X5X5X5X5X5X5X5X5X5X5X5X5X5X5X5X5X5X5X5X5X5X5X5X5X5X5X5X5X5X5X5X5X5X5X5X5X5X5X5X5X5X5X5X5X5X5X5X5X5X5X5X5X5X5X5X5X",
"5X5X5X5X5X5X5X5X5X5X5X5X5X5X5X5X5X5X5X5X5X5X5X5X5X5X5X5X5X5X5X5X5X5X5X5X5X5X5X5X5X5X5X5X5X5X5X5X5X5X5X5X5X5X5X5X5X5X5X&X&X&X-XW.M # # * $ & # $ # - L ].1X1X1X1X1X1X1X1X1X1X1X1X1X1X1X1X1X1X1X2X!.t.N - # # - & # - - $ # $ - # # $ - - $ = # # # - % % $ - # # % # # # # $ # $ # # # # # # # # # # # # # o # o # o # o # # u ! W.>X1X1X1X1X1X1X1X1X1X1X1X1X1X1X1X1X1X1X1XC.M #       +   o o o y K.-X;X-X5X5X5X5X5X5X5X5X5X5X5X5X5X5X5X5X5X5X5X5X5X5X5X5X5X5X5X5X5X5X5X5X5X5X5X5X5X5X5X5X5X5X5X5X5X5X5X5X5X5X5X5X5X5X5X5X5X5X5X",
"5X5X5X5X5X5X5X5X5X5X5X5X5X5X5X5X5X5X5X5X5X5X5X5X5X5X5X5X5X5X5X5X5X5X5X5X5X5X5X5X5X5X5X5X5X5X5X5X5X5X5X5X5X5X5X5X5X5X&X&X&X$XT ; $ % # % # # $ & H ].1X1X1X1X1X1X1X1X1X1X1X1X1X1X1X1X1X1X>XY.Y i # & # - % $ $ $ $ $ $ $ - $ & - - $ $ # # & - - $ # # $ # # - $ # $ # - % # # # # $ # # # # # # # # # # # # # # # # # # # # o # # 4 L C.>X1X1X1X1X1X1X1X1X1X1X1X1X1X1X1X1X1X1XC.n #   # # o #   o # K +X-X-X-X5X5X5X5X5X5X5X5X5X5X5X5X5X5X5X5X5X5X5X5X5X5X5X5X5X5X5X5X5X5X5X5X5X5X5X5X5X5X5X5X5X5X5X5X5X5X5X5X5X5X5X5X5X5X5X5X5X",
"5X5X5X5X5X5X5X5X5X5X5X5X5X5X5X5X5X5X5X5X5X5X5X5X5X5X5X5X5X5X5X5X5X5X5X5X5X5X5X5X5X5X5X5X5X5X5X5X5X5X5X5X5X5X5X5X&X%X&X&Xm.t # # # & # % $ $ V !.1X1X1X1X1X1X1X1X1X1X1X1X1X1X1X1X1X1X!.R q - % % & - & # $ $ # - $ $ - # - = # - & $ $ $ # $ - # % $ $ - & # # - # $ & # # & $ # # # # $ # # # # # # # # # # # o # o o # # o # o # X o # 4 W W.2X1X>X1X1X1X1X1X1X1X1X1X1X1X1X1X1X1Xv.t . # o + . # . # 8 m.-X;X-X5X5X5X5X5X5X5X5X5X5X5X5X5X5X5X5X5X5X5X5X5X5X5X5X5X5X5X5X5X5X5X5X5X5X5X5X5X5X5X5X5X5X5X5X5X5X5X5X5X5X5X5X5X5X5X5X",
"5X5X5X5X5X5X5X5X5X5X5X5X5X5X5X5X5X5X5X5X5X5X5X5X5X5X5X5X5X5X5X5X5X5X5X5X5X5X5X5X5X5X5X5X5X5X5X5X5X5X5X5X5X5X5X%X&X%X{.L $ - # * # % & $ u Z.1X1X1X1X1X1X1X1X1X1X1X1X1X1X1X1X1X=Xd.y # # & & - = $ & % $ & = - - - - - = $ & $ $ - # - - - $ = - - # $ - # = - # # - # - & # # # $ # % # $ # # # # # # # # # # # # # # # # # # # X # # + # # o t y.$X1X1X1X1X1X1X1X1X1X1X1X1X1X1X1X1X>Xd.; . # # o . + + + F OX;X;X;X5X5X5X5X5X5X5X5X5X5X5X5X5X5X5X5X5X5X5X5X5X5X5X5X5X5X5X5X5X5X5X5X5X5X5X5X5X5X5X5X5X5X5X5X5X5X5X5X5X5X5X5X5X5X",
"5X5X5X5X5X5X5X5X5X5X5X5X5X5X5X5X5X5X5X5X5X5X5X5X5X5X5X5X5X5X5X5X5X5X5X5X5X5X5X5X5X5X5X5X5X5X5X5X5X5X5X5X5X%X&X%X%XV.t # # # - = $ $ , d.2X2X1X1X1X1X1X1X1X1X1X1X1X1X1X1X1XW.L ; $ - * - - = - $ $ * $ - $ = = - $ $ - = = $ $ - - & & & # - & # - $ # - - $ $ $ - $ $ # = # = # # * # # & # # # # % # # # # # # # # # o # o # # # # .   #   #   # # Z C.1X1X1X1X1X1X1X1X1X1X1X1X1X1X1X1X=XK # o # . o .   . 6 m.&X&X&X5X5X5X5X5X5X5X5X5X5X5X5X5X5X5X5X5X5X5X5X5X5X5X5X5X5X5X5X5X5X5X5X5X5X5X5X5X5X5X5X5X5X5X5X5X5X5X5X5X5X5X5X5X",
"5X5X5X5X5X5X5X5X5X5X5X5X5X5X5X5X5X5X5X5X5X5X5X5X5X5X5X5X5X5X5X5X5X5X5X5X5X5X5X5X5X5X5X5X5X5X5X5X5X5X5X5X%X%X%X$XY # # # # - % # & L $X2X1X2X1X1X1X1X1X1X1X1X1X1X1X1X>Xc.N # $ & $ = # - & & & & $ $ = = $ $ = = - & = - & & = - - = & = * $ $ $ - = = - - # # $ - # - - * # $ - & # % # $ # # # # # # # # # # # # o # # # # X # O # # # . # X # . # . # u g.>X>X1X1X1X1X1X1X1X1X1X1X1X1X1X1X~.z . # . # # . + # P %X&X;X;X5X5X5X5X5X5X5X5X5X5X5X5X5X5X5X5X5X5X5X5X5X5X5X5X5X5X5X5X5X5X5X5X5X5X5X5X5X5X5X5X5X5X5X5X5X5X5X5X5X5X5X",
"5X5X5X5X5X5X5X5X5X5X5X5X5X5X5X5X5X5X5X5X5X5X5X5X5X5X5X5X5X5X5X5X5X5X5X5X5X5X5X5X5X5X5X5X5X5X5X5X5X5X5X%X%X$XQ.u # # - $ # $ # u D.2X1X1X1X1X1X1X1X1X1X1X1X1X1X1X*Xd.i & - - # & & - - # & - $ $ & - $ & & ; & - - - = - & - $ $ - $ - = % = & $ $ $ = # - - $ = - $ # # - # # % # # # # # # * * * # # # # # # # # # # # # # # # # # # O # # + # # o # . # # 4 y.*X2X1X1X1X1X1X1X1X1X1X1X1X1X1X>Xd.; . #   o # . O u Q.&X;X&X5X5X5X5X5X5X5X5X5X5X5X5X5X5X5X5X5X5X5X5X5X5X5X5X5X5X5X5X5X5X5X5X5X5X5X5X5X5X5X5X5X5X5X5X5X5X5X5X5X5X",
"5X5X5X5X5X5X5X5X5X5X5X5X5X5X5X5X5X5X5X5X5X5X5X5X5X5X5X5X5X5X5X5X5X5X5X5X5X5X5X5X5X5X5X5X5X5X5X5X5X%X%X%X%Xh.4 $ * # # - $ - R >X1X1X1X1X1X1X1X1X1X1X1X1X1X1X=Xy.q # $ # $ - & - = = = - * - - - - - - - = = - - - - - - & - = $ - - - = $ & & $ = & - - - # $ # = $ - = - $ - # $ $ - # # $ # # # # * # # # # # # # # # @ # o # O # # # # + # o # # . # # o # @ : t.=X1X1X1X1X1X1X1X1X1X1X1X1X1X2X}.M o # o . # # # ; g.&X&X;X5X5X5X5X5X5X5X5X5X5X5X5X5X5X5X5X5X5X5X5X5X5X5X5X5X5X5X5X5X5X5X5X5X5X5X5X5X5X5X5X5X5X5X5X5X5X5X5X5X",
"5X5X5X5X5X5X5X5X5X5X5X5X5X5X5X5X5X5X5X5X5X5X5X5X5X5X5X5X5X5X5X5X5X5X5X5X5X5X5X5X5X5X5X5X5X5X5X5X$X$X%XOXL % # # # # $ $ u ~.1X1X1X1X1X1X1X1X1X1X1X1X1X1X3Xj.6 = $ $ - - & * - = $ $ & & $ $ - - - = $ $ - - $ $ - - = - & - - ; - - - - ; $ $ $ - - & = = = & & # $ - # $ - = # & % # $ # - # % # % # # # # # # # # # # # # # # O # # # # . # . . # + # #   o # +   ; t.*X1X1X1X1X1X1X1X1X1X1X1X1X1X2Xh.; o o o O o #   L #X&X&X5X5X5X5X5X5X5X5X5X5X5X5X5X5X5X5X5X5X5X5X5X5X5X5X5X5X5X5X5X5X5X5X5X5X5X5X5X5X5X5X5X5X5X5X5X5X5X5X",
"5X5X5X5X5X5X5X5X5X5X5X5X5X5X5X5X5X5X5X5X5X5X5X5X5X5X5X5X5X5X5X5X5X5X5X5X5X5X5X5X5X5X5X5X5X5X5X@X#X#X^.y # # # & & # $ Y 3X1X1X1X2X1X1X1X1X1X1X1X1X1X>Xg.q - $ # & $ - # = = * = $ $ = & $ ; - = - - ; - ; - $ ; $ ; $ $ $ ; - = - - - & $ $ ; - - - - - $ $ $ $ - & - % $ # = = # $ # & - # - # - # # # % # # # # # # # # # # # # # # @ # # # # # o o # #   #   # # # # 6 d.>X1X1X1X1X1X1X1X1X1X1X1X1X1X].n # o   # o   # y /.%X&X&X5X5X5X5X5X5X5X5X5X5X5X5X5X5X5X5X5X5X5X5X5X5X5X5X5X5X5X5X5X5X5X5X5X5X5X5X5X5X5X5X5X5X5X5X5X5X",
"5X5X5X5X5X5X5X5X5X5X5X5X5X5X5X5X5X5X5X5X5X5X5X5X5X5X5X5X5X5X5X5X5X5X5X5X5X5X5X5X5X5X5X5X5X5X@X#X+XV.6 # # # $ # # q C.2X1X1X1X1X1X1X1X1X1X1X2X1X2XZ.u - # - = - $ # = - & - $ = - ; $ $ & - $ = ; ; $ - $ - ; - & $ $ ; - = - $ ; - - $ - ; $ - - $ $ - - - - $ - - & % $ - = # - $ $ $ % # - # * # * # # % # # # # # # # # # @ # # # # # + # # # + # + O # #   @ # #   # o t A.2X1X1X1X1X1X1X1X1X1X1X1X1X2X~ # # #   # + # 4 Z.%X&X%X5X5X5X5X5X5X5X5X5X5X5X5X5X5X5X5X5X5X5X5X5X5X5X5X5X5X5X5X5X5X5X5X5X5X5X5X5X5X5X5X5X5X5X5X5X",
"5X5X5X5X5X5X5X5X5X5X5X5X5X5X5X5X5X5X5X5X5X5X5X5X5X5X5X5X5X5X5X5X5X5X5X5X5X5X5X5X5X5X5X5X5X@X@X$Xp.- # # # & # & V $X1X1X1X1X1X1X1X1X1X1X1X1X2X].C & & - $ $ = - - - = - - = - - - - $ ; - - ; - $ $ $ - - - & - $ ; - - ; $ - ; $ & - ; - - $ - - ; - - - = ; $ - - = = $ - - - - # $ - - # # * # % # % # # % # % # # # # # # # # # @ # # # + # # # # # # # @ # # @ @ # O . # # S ].1X1X1X1X1X1X1X1X1X1X1X1X1XF.6 o #   # . # # f.&X%X%X5X5X5X5X5X5X5X5X5X5X5X5X5X5X5X5X5X5X5X5X5X5X5X5X5X5X5X5X5X5X5X5X5X5X5X5X5X5X5X5X5X5X5X5X",
"5X5X5X5X5X5X5X5X5X5X5X5X5X5X5X5X5X5X5X5X5X5X5X5X5X5X5X5X5X5X5X5X5X5X5X5X5X5X5X5X5X5X5X+XOX@X@XK # # % # # % & y.>X1X1X1X1X1X1X1X1X1X1X1X1X3Xt.; = # = $ - - = = = - = $ & $ $ & - - - $ = - - - = = $ & = & ; = ; = - $ = ; = $ ; - $ ; - & - - ; - & $ & $ $ $ - $ $ & ; $ $ $ $ $ - $ $ % # - # = # - # = = # $ # $ # # # # # # # # # # # # # # # # + # + # # #   # o # . . # O # R >X2X1X2X1X1X1X1X1X1X1X1X1X$XM # . # . # o # T %X%X%X5X5X5X5X5X5X5X5X5X5X5X5X5X5X5X5X5X5X5X5X5X5X5X5X5X5X5X5X5X5X5X5X5X5X5X5X5X5X5X5X5X5X5X",
"5X5X5X5X5X5X5X5X5X5X5X5X5X5X5X5X5X5X5X5X5X5X5X5X5X5X5X5X5X5X5X5X5X5X5X5X5X5X5X5X5X5XOX@XOX}.V # # # # # # 5 C.1X1X1X1X1X1X1X1X1X1X1X1X1XC.t # $ & $ # * # & - $ = - = & - ; - - = $ ; $ $ ; & $ - ; - ; - $ ; - = - ; = & - - ; $ ; & - ; - ; = $ - & ; = ; & ; - ; - - - - $ $ $ $ - # $ # $ - $ $ $ # & # # # # # % # # # $ # # # # # # # # # # # @ # # # # X # @ X #   # # o + # # q C.2X1X1X1X1X1X1X1X1X1X1X2X>XR # o # o # o # Z +X%X%X5X5X5X5X5X5X5X5X5X5X5X5X5X5X5X5X5X5X5X5X5X5X5X5X5X5X5X5X5X5X5X5X5X5X5X5X5X5X5X5X5X5X",
"5X5X5X5X5X5X5X5X5X5X5X5X5X5X5X5X5X5X5X5X5X5X5X5X5X5X5X5X5X5X5X5X5X5X5X5X5X5X5X5X5XOX@XOX'.z # # # # # % s {.1X1X1X1X1X1X1X1X1X1X2X1X=XK & # & # # $ - - = & - $ $ & - - ; - - ; ; $ = ; = - & ; ; - & - ; & - ; ; $ - ; ; - & ; & - - ; = $ ; $ - ; $ & - - - - & $ - ; $ - - - $ - $ $ $ - $ $ & - $ # * # - $ # # # $ $ # # # # # # # # # # # # # # # #   # X @ # o # # # O #   # # O # L *X>X1X1X1X1X1X1X1X1X1X1X1Xv.- # # o # # + N oX%X%X5X5X5X5X5X5X5X5X5X5X5X5X5X5X5X5X5X5X5X5X5X5X5X5X5X5X5X5X5X5X5X5X5X5X5X5X5X5X5X5X5X",
"5X5X5X5X5X5X5X5X5X5X5X5X5X5X5X5X5X5X5X5X5X5X5X5X5X5X5X5X5X5X5X5X5X5X5X5X5X5X5X5XOXOXOX~.t # # # # # # H >X1X1X1X1X1X1X1X1X1X1X1X2XC.w = & $ $ $ - $ = - $ $ - $ - - - - = - - $ - - = = ; $ ; = ; - ; - ; - & ; $ ; $ ; & ; - ; - ; $ ; = ; - ; ; - ; & - ; - $ - ; $ $ = $ ; & - $ - - $ - - # - # * $ # $ $ # $ $ # # # # * # # % # # # # # # # # @ # # # # # # # # o # o # @ # O # # # # q C.1X1X1X1X1X1X1X1X1X1X1X1X!.q # o # . # # u `.%X&X5X5X5X5X5X5X5X5X5X5X5X5X5X5X5X5X5X5X5X5X5X5X5X5X5X5X5X5X5X5X5X5X5X5X5X5X5X5X5X5X",
"5X5X5X5X5X5X5X5X5X5X5X5X5X5X5X5X5X5X5X5X5X5X5X5X5X5X5X5X5X5X5X5X5X5X5X5X5X5X5XOXOXoXK.q # # # # # - t.1X1X1X1X1X1X1X1X1X1X1X1X3XY $ # # = = $ - & & - & $ & ; $ - - = $ = ; $ = ; $ - $ $ ; - ; - - ; - ; & ; ; ; $ ; & $ - ; - ; ; - ; & - ; - - ; = ; & & ; & - ; = = - - ; $ $ $ - = $ = - - - = $ $ = - $ # $ # * # # # # * # # # # # # # # # + # # # o # # # # # # # @ # # + # # + # #   # Y >X2X2X1X1X1X1X1X1X1X1X1X$Xz o o   #   # w ^.%X%X5X5X5X5X5X5X5X5X5X5X5X5X5X5X5X5X5X5X5X5X5X5X5X5X5X5X5X5X5X5X5X5X5X5X5X5X5X5X5X",
"5X5X5X5X5X5X5X5X5X5X5X5X5X5X5X5X5X5X5X5X5X5X5X5X5X5X5X5X5X5X5X5X5X5X5X5X5X5XoXOXoXC.4 # # # % % - c.1X1X1X1X1X1X1X1X1X1X2X1X|.y # $ * $ # # $ - - # - - & - & & - - = $ = - - = - - - ; - & ; - ; $ = ; - ; & - & ; - ; ; ; ; & - ; ; - ; = ; & ; = ; $ ; - & ; - & ; - = ; - - ; $ ; - & - - - = - & $ = # $ $ - $ = # = - # $ - # # # # & # # # # # # # # @ # O # O # # # O .   # . # # . #   # y ].1X1X1X1X1X1X1X1X1X1X1X3XA # # # # # + q Q.#X#X5X5X5X5X5X5X5X5X5X5X5X5X5X5X5X5X5X5X5X5X5X5X5X5X5X5X5X5X5X5X5X5X5X5X5X5X5X5X",
"5X5X5X5X5X5X5X5X5X5X5X5X5X5X5X5X5X5X5X5X5X5X5X5X5X5X5X5X5X5X5X5X5X5X5X5X5XOX{.oXB.4 # # # # # , C.1X1X1X1X1X1X1X1X1X1X1X1Xg.; & - * # $ - - $ # - $ # - = & - - ; $ - ; & $ ; - ; = = ; - ; - ; ; & ; $ = - ; ; ; ; ; = ; - ; - ; ; ; = - ; ; - ; ; $ ; ; & & ; ; - ; & - ; = - $ $ $ $ $ $ - = - - # % $ $ $ $ $ = - * $ # # # % & # % # # # # # # # # # # # # # # + # # # # # # . # # O . # # # . ; c.1X1X1X1X1X1X1X1X1X1X2X2XK # . # + # # q Q.#X#X5X5X5X5X5X5X5X5X5X5X5X5X5X5X5X5X5X5X5X5X5X5X5X5X5X5X5X5X5X5X5X5X5X5X5X5X5X",
"5X5X5X5X5X5X5X5X5X5X5X5X5X5X5X5X5X5X5X5X5X5X5X5X5X5X5X5X5X5X5X5X5X5X5X5XoX}.OXB.; # # # # # 7 !.1X1X1X1X1X1X1X1X1X1X1X3XL # # % # $ - - # $ $ $ = = - - - & - - $ $ $ ; - ; $ ; & $ ; - $ ; & ; $ ; $ ; ; & ; - - ; - ; & ; ; - ; ; & ; ; = ; ; $ - = ; ; & ; & ; $ = ; ; - ; = $ ; ; - - ; - - - - - - $ = - $ $ # $ # # % - & # # % # # & % # # # # # # # # # # # # # # + # o # # #   # # X # . # # # K >X1X1X1X1X1X1X1X1X1X1X>X! @ # # + # # 8 Q.#X%X5X5X5X5X5X5X5X5X5X5X5X5X5X5X5X5X5X5X5X5X5X5X5X5X5X5X5X5X5X5X5X5X5X5X5X5X",
"5X5X5X5X5X5X5X5X5X5X5X5X5X5X5X5X5X5X5X5X5X5X5X5X5X5X5X5X5X5X5X5X5X5X5XoXoX{.B.2 # # # # # i ].1X1X1X1X1X1X1X1X1X2X1X].y & # & % - $ # # - - = $ & - $ $ = - - & - ; & & ; & - ; $ - ; $ $ - ; = ; - = ; ; & ; ; ; ; , Q j.v.C.W.C.C.V.A.v.v.c.S.g.h.j.y.t.~ R Y W K H H Z Z A A A Z A M q ; & - $ $ & - ; $ & = - # $ = $ $ # $ # - # * = # - # # # # * # # # # # # # # # # # # @ # X # # # # # # + . # # n {.1X2X2X1X1X1X1X1X1X1X1Xd.# # # O # # 6 Q.%X#X5X5X5X5X5X5X5X5X5X5X5X5X5X5X5X5X5X5X5X5X5X5X5X5X5X5X5X5X5X5X5X5X5X5X5X",
"5X5X5X5X5X5X5X5X5X5X5X5X5X5X5X5X5X5X5X5X5X5X5X5X5X5X5X5X5X5X5X5X5X5X}.}.oXN.4 # # # # # u {.1X1X1X1X1X1X1X1X1X1X1XC.6 # $ # $ # # & = & # & - - $ = & = - = - & - - $ ; & & ; & - ; & ; ; ; = ; - ; ; ; = ; & ; - K $X1X1X1X1X1X1X2X1X1X1X1X1X1X1X1X2X1X1X1X1X1X2X2X2X1X2X1X1X1X1X2X1X1X2X|.M & ; & - - $ $ & - - & $ - # $ - & - # & # # # $ # = # # # # # & # # # # # # # # # # # # # @ # X # # # # o   # q ~.2X2X1X1X1X1X1X1X1X1X1Xg.# # @ # # + q ^.#X#X5X5X5X5X5X5X5X5X5X5X5X5X5X5X5X5X5X5X5X5X5X5X5X5X5X5X5X5X5X5X5X5X5X5X",
"5X5X5X5X5X5X5X5X5X5X5X5X5X5X5X5X5X5X5X5X5X5X5X5X5X5X5X5X5X5X5X5X5X}.XX}.C.4 # # # # # u $X2X1X1X1X1X1X1X1X1X1X1Xh.- $ $ & # $ # # * # - - $ $ - = = - - = ; ; $ = $ & - & ; $ ; ; - ; & ; - = $ ; ; & - ; ; ; ; t.2X1X1X1X1X1X1X1X1X1X1X1X1X1X1X1X1X1X1X1X1X1X1X1X1X1X1X2X2X1X1X1X1X1X1X1X1X{.; & & ; - - - ; - - - - - & $ # & - $ = - = $ $ # # = # # # # # # # # # # # # # # # # # # # # # @ o # o # # # # & v.2X1X1X1X1X1X1X1X1X1X1Xg.# # # # # # t ).%X#X5X5X5X5X5X5X5X5X5X5X5X5X5X5X5X5X5X5X5X5X5X5X5X5X5X5X5X5X5X5X5X5X5X",
"5X5X5X5X5X5X5X5X5X5X5X5X5X5X5X5X5X5X5X5X5X5X5X5X5X5X5X5X5X5X5X5XXX[.[.Q.q # @ # # # t @X1X1X1X1X1X1X1X1X1X1X>XY # # $ # # # % & $ & - - = - # - & = - $ $ $ - - ; ; $ ; = ; - = = ; - ; = ; ; ; ; ; ; ; ; & ; N 2X1X1X1X1X1X1X1X1X1X1X1X1X1X1X1X1X1X1X1X1X1X1X1X1X1X1X1X1X2X1X1X1X1X1X1X1X2X2X6 ; - $ - - - - - - - - - - # $ $ # $ # & = # # - * # $ # % # % # # % # # # # # # # # o # # # # # # # # # # + # # # y.1X2X1X1X1X1X1X1X1X1X1Xg.# # #   # # s [.+X#X5X5X5X5X5X5X5X5X5X5X5X5X5X5X5X5X5X5X5X5X5X5X5X5X5X5X5X5X5X5X5X5X",
"5X5X5X5X5X5X5X5X5X5X5X5X5X5X5X5X5X5X5X5X5X5X5X5X5X5X5X5X5X5X5X5X[.}.Q.t # # # # # t $X2X1X1X1X1X1X1X1X1X1X>XZ # # # # * & # $ - * # - # # = $ & - = - - - - ; = $ $ $ - ; - - ; ; & ; - ; ; = ; ; ; ; = ; ; ; C.1X1X1X1X1X1X1X1X1X1X2X1X1X1X1X1X1X1X1X1X1X1X1X1X1X1X1X1X1X1X1X1X1X1X1X1X1X1X2X; ; & ; ; - $ ; & ; - ; $ = - = $ - $ $ # $ # = - - # & # % = # # # # # & # # # # # # # # # # # # # # o # + #   # o # W >X1X1X1X1X1X1X1X1X1X1Xh.# # # # # # M OX@X+X5X5X5X5X5X5X5X5X5X5X5X5X5X5X5X5X5X5X5X5X5X5X5X5X5X5X5X5X5X5X5X",
"5X5X5X5X5X5X5X5X5X5X5X5X5X5X5X5X5X5X5X5X5X5X5X5X5X5X5X5X5X5X5X[.[.`.n # # # # # q {.1X1X1X1X1X1X1X1X1X1X=XM # # % # - # # % - # = # & % - $ = $ - & - - = & $ $ - - ; & - ; ; - ; - = ; ; & ; ; ; - ; ; & ; i 2X1X1X1X1X1X1X1X1X1X1X1X1X1X1X1X1X1X1X1X1X1X1X1X1X1X1X1X1X1X1X1X1X1X1X1X1X1X1X].; & ; & - ; ; - & = & = = $ $ = & - - - - $ $ = # # & # % # # # * # % # # # # % # # # # # # # # # # # # # # # # # # # # Z >X1X1X1X1X1X1X1X1X1X2Xd.# # # # # # G @X#X+X5X5X5X5X5X5X5X5X5X5X5X5X5X5X5X5X5X5X5X5X5X5X5X5X5X5X5X5X5X5X",
"5X5X5X5X5X5X5X5X5X5X5X5X5X5X5X5X5X5X5X5X5X5X5X5X5X5X5X5X5X5X[.[.[.C # o # o # 6 }.1X1X1X2X1X1X1X1X1X1X$Xy # # # # % # $ # = = $ - * & - - $ - - - - - ; ; $ = = ; $ - ; ; ; & $ ; - ; = ; ; ; ; - ; ; ; ; ; W 1X1X1X1X1X1X1X1X1X1X1X1X1X1X1X1X1X1X1X1X1X1X1X1X1X1X1X1X1X1X1X1X1X1X1X1X1X1X1Xv.- ; - & ; = - - ; & & - ; = ; - - - - - - & & - # - - % # = # * # # # # % # % # # # # # # # $ # # # + o # # # o # o # # o M 3X2X1X1X1X1X1X1X1X1X1X! # # # # # o 6.+X#X+X5X5X5X5X5X5X5X5X5X5X5X5X5X5X5X5X5X5X5X5X5X5X5X5X5X5X5X5X5X",
"5X5X5X5X5X5X5X5X5X5X5X5X5X5X5X5X5X5X5X5X5X5X5X5X5X5X5X5X5X[.[.[.P # # # # # ; !.2X1X1X1X1X1X1X1X1X1X{.t % # # - # # - # - # $ # = # & # $ $ & $ - = $ $ - ; - = & ; ; & ; & ; ; & ; ; ; ; & ; & ; ; ; ; ; ; c.1X1X1X1X1X1X1X1X1X1X1X1X1X1X1X1X1X1X1X1X1X1X1X1X1X1X1X1X1X1X1X1X1X1X1X1X1X1X1XE ; ; & ; & ; ; ; & ; ; - $ = = ; - ; = ; - - - - * = = - # & - # $ % # % # % # # # # # # # # # # # # # # # # # # # # # # # # N *X1X1X1X1X1X1X1X1X1X2XL # # # # # # k.+X+X5X5X5X5X5X5X5X5X5X5X5X5X5X5X5X5X5X5X5X5X5X5X5X5X5X5X5X5X5X",
"5X5X5X5X5X5X5X5X5X5X5X5X5X5X5X5X5X5X5X5X5X5X5X5X5X5X5X5X`.[.`.p.# # # o # & C.1X1X1X1X1X1X1X1X1X1X{.t # # # # = # & # $ # # - & $ = $ - & = $ & - - - - = = ; ; ; - - = = ; = ; - ; ; ; ; ; ; ; ; ; & ; & : {.2X2X1X1X1X1X1X1X1X1X1X1X1X1X1X1X1X1X1X1X1X1X1X1X1X1X1X1X1X1X1X1X1X1X1X1X1X1X1Xn ; & ; ; ; - ; - ; ; = - $ ; $ $ & $ & - ; $ - - & $ $ = # - = $ # $ # # - # # # * # # = # # # # # # # # # # # # # # # # # # # n =X2X1X1X1X1X1X1X1X1X>XA # # $ # # ; I.+X+X5X5X5X5X5X5X5X5X5X5X5X5X5X5X5X5X5X5X5X5X5X5X5X5X5X5X5X5X",
"5X5X5X5X5X5X5X5X5X5X5X5X5X5X5X5X5X5X5X5X5X5X5X5X5X5X5X`.].[.m.$ # o # # # S.2X1X1X1X1X1X1X1X1X2X{.q # # $ # # # # # - # $ & $ # - # # - $ - $ - - - & ; ; - - = - = ; ; ; - ; = ; ; - - ; ; ; ; ; ; ; ; ; i 2X2X1X1X1X1X1X1X1X1X1X1X1X1X1X1X1X1X1X1X1X1X1X1X1X1X1X1X1X1X1X1X1X1X1X1X1X1X2X3X: ; ; ; ; - ; ; - ; ; - ; ; $ ; ; & ; - - = = & - - = & & $ % $ $ $ $ * # $ - $ = # # - $ # # = # # # # # # # # # $ # # # # # # # n *X1X1X1X1X1X1X1X1X1X*Xs # o # # # w /.+X+X5X5X5X5X5X5X5X5X5X5X5X5X5X5X5X5X5X5X5X5X5X5X5X5X5X5X5X",
"5X5X5X5X5X5X5X5X5X5X5X5X5X5X5X5X5X5X5X5X5X5X5X5X5X5X5X[.`.T.6 # O # # # R 1X1X1X1X1X1X1X1X1X2X{.i # # # # # # % # & # - # $ $ # $ $ # & $ % & - - - ; $ & = ; - ; ; = ; ; ; ; ; - ; ; ; ; ; ; ; ; ; ; ; & H 1X1X1X1X1X1X1X1X1X1X1X1X1X1X1X1X1X1X1X1X1X1X1X1X1X1X1X1X1X1X1X1X1X1X1X1X1X1X1XD.; ; ; ; ; ; ; & ; ; $ ; - ; ; ; & ; = - ; $ - & ; $ ; $ $ $ % % # - # & $ & # - & # & # = # # $ # # * # # # # # # # # # # # # # # # N *X1X1X1X1X1X1X1X1X2X Xq $ # $ # # N oX+XOX5X5X5X5X5X5X5X5X5X5X5X5X5X5X5X5X5X5X5X5X5X5X5X5X5X5X",
"5X5X5X5X5X5X5X5X5X5X5X5X5X5X5X5X5X5X5X5X5X5X5X5X5X5X'.`./.n X # # X # Z 2X1X1X1X1X1X1X1X1X1X$Xt # # # # # # % # - # $ # * = & - - - - $ $ % = - ; - - & $ ; - $ ; & ; = ; - ; ; ; ; ; - ; ; ; ; ; ; : ; : h.1X1X1X1X1X1X1X1X1X1X1X1X1X1X1X1X1X1X1X1X1X1X2X1X1X1X1X2X1X1X1X1X1X1X1X1X1X1X1Xj.; ; ; ; ; ; ; ; ; ; ; ; ; ; ; - ; - - ; $ ; ; ; - & - - - - = = - - - - $ # - = - # # = # # - # # & # # # # # $ # # # # # # # # # # # S >X1X1X1X1X1X1X1X1X1X~.: # o # # # T oX+X+X5X5X5X5X5X5X5X5X5X5X5X5X5X5X5X5X5X5X5X5X5X5X5X5X5X",
"5X5X5X5X5X5X5X5X5X5X5X5X5X5X5X5X5X5X5X5X5X5X5X5X5X`.`.'.K # # @ # # u *X1X1X1X1X1X1X1X1X2X=Xy # # # # # # # # # # = # = % - = * $ # - $ - - = & $ $ & ; - ; = ; $ ; ; & ; - ; - ; ; ; ; ; ; ; ; ; ; ; ; ; !.1X1X1X1X1X1X1X1X1X2X1X1X2X1X1X1X1X1X1X1X1X1X1X1X1X1X1X1X1X1X1X1X1X1X1X1X1X1X1XZ ; ; ; ; ; ; ; ; ; ; ; ; ; ; - ; ; - $ ; ; $ = ; & & & & - $ $ $ - = $ $ $ $ - $ $ $ $ * # $ # $ # $ # * # # - # # # # $ # # # # # # # # Z >X1X1X1X1X1X1X1X1X1Xc.# $ # # # # z.oXOX5X5X5X5X5X5X5X5X5X5X5X5X5X5X5X5X5X5X5X5X5X5X5X5X5X",
"5X5X5X5X5X5X5X5X5X5X5X5X5X5X5X5X5X5X5X5X5X5X5X5X`.'.`.h.# # @ # O 4 ].1X1X1X1X1X1X1X1X1X3XN # # # # # # $ # # $ # # - # # # = # $ - & $ & = - $ - - & ; & & ; = ; = - ; ; = ; ; ; ; ; ; ; ; ; ; ; ; ; : 5 >X1X1X1X1X1X1X1X1X1X1X1X1X1X1X1X1X1X1X1X1X1X1X1X1X1X1X1X1X1X1X1X1X1X1X1X1X1X1X1Xq ; < ; : ; ; ; ; ; ; ; ; ; ; ; ; ; ; ; - ; ; ; - ; ; $ ; ; $ = ; - - - = = - & $ - # - # - $ & & # # * # = # - # $ # * # # # # # # # # # = Y 2X1X1X1X1X1X1X1X1X1XE $ # & $ # 4 _.oX#X5X5X5X5X5X5X5X5X5X5X5X5X5X5X5X5X5X5X5X5X5X5X5X5X",
"5X5X5X5X5X5X5X5X5X5X5X5X5X5X5X5X5X5X5X5X5X5X5X5X'.'.K.; @ # @ X # Z.1X1X1X1X1X1X1X1X1X2XZ # # # # # # # # # & # = # # - - - - # # - = = $ = ; $ - = - - - $ - ; ; & - ; ; ; ; ; ; - ; ; ; ; ; ; ; ; ; ; C 2X2X1X1X1X1X1X1X1X1X1X1X1X1X1X1X1X1X1X1X1X1X1X1X1X1X1X1X1X1X1X1X1X1X1X1X1X1X2X].; ; ; ; : ; ; ; ; ; ; ; ; ; ; ; ; ; ; ; ; ; & - ; - ; - ; ; & - ; = & - ; - - & = - & & $ - # - # # $ # # # - # # # - # # # # # * # # # # # # y.1X1X1X1X1X1X1X1X1X>XM * # # = # m oX+XoX5X5X5X5X5X5X5X5X5X5X5X5X5X5X5X5X5X5X5X5X5X5X5X",
"5X5X5X5X5X5X5X5X5X5X5X5X5X5X5X5X5X5X5X5X5X5X5X/.`./.n # # @ # # ~ 1X1X1X1X1X1X1X1X1X1XY o # # # # # # % # # # & # = $ # = # - - $ = $ = $ - - - ; $ ; & ; ; ; - ; ; ; ; ; - ; ; ; ; ; ; ; ; ; : ; : ; ; y.2X2X2X1X1X1X1X1X1X1X1X1X1X1X1X1X1X1X1X1X1X1X1X1X1X1X1X1X1X1X1X1X1X1X1X1X1X1X2Xk.; ; , ; ; : ; ; ; : ; ; ; ; ; ; ; ; ; ; - ; ; ; ; $ ; & ; = = ; - $ ; & = - - - = = = - & - $ - - $ $ - - - # - $ $ # # - $ # * # $ # * # # # # v.1X1X1X1X1X1X1X1X1X$Xq # % # # * X.oX+X5X5X5X5X5X5X5X5X5X5X5X5X5X5X5X5X5X5X5X5X5X5X5X",
"5X5X5X5X5X5X5X5X5X5X5X5X5X5X5X5X5X5X5X5X5X5X/.`./.T # + # # # M 2X2X1X1X1X1X1X1X1X1Xh.# # # # # # # # # # # # # # - & # - - & $ $ $ $ - - - & $ $ ; $ ; ; ; ; - = ; ; ; - ; ; ; ; ; ; ; ; ; ; ; ; ; ; ; F.1X1X1X1X1X1X1X1X1X1X1X1X1X1X1X1X1X1X1X1X1X1X1X1X1X1X1X1X1X1X1X1X1X1X1X1X1X1X1XK ; ; ; ; : ; ; ; ; > ; > ; : ; ; ; ; ; ; ; ; ; ; ; ; ; ; - ; ; ; & ; - - - - ; - ; = - & ; $ $ $ $ $ $ & - = - $ # = # * # # # % # & # # * # # # ; ~.1X1X1X1X1X1X1X1X1XZ.# - # - # - N.oXoX5X5X5X5X5X5X5X5X5X5X5X5X5X5X5X5X5X5X5X5X5X5X",
"5X5X5X5X5X5X5X5X5X5X5X5X5X5X5X5X5X5X5X5X5X5X/./.m.# + # . o 4  X1X2X1X1X1X1X1X1X1XC.$ # o # # # # # # # # # * * # $ # # $ # # $ - - # - - - ; - = - = $ & - & ; - ; = ; ; ; - ; ; ; ; ; ; ; ; ; ; ; ; : 3X1X1X1X1X1X1X1X1X1X1X1X1X1X1X1X1X1X1X1X1X1X1X1X1X1X1X1X1X1X1X1X1X1X1X1X1X1X1X1Xy ; > ; : ; ; ; ; 2 ; ; ; ; ; ; , ; ; ; ; ; ; ; ; ; ; ; - ; & ; - ; & ; ; - & - - & = - - - = = $ $ # - = - # # & = * - % & % % # & # * & # # $ # = q $X1X1X1X1X1X1X1X1X1XR # & # % & u .XoX+X5X5X5X5X5X5X5X5X5X5X5X5X5X5X5X5X5X5X5X5X5X",
"5X5X5X5X5X5X5X5X5X5X5X5X5X5X5X5X5X5X5X5X5X/./.^.t # . o # o A.2X1X1X1X1X1X1X1X1X].4 + # # # # # # # * # # # = # # & # $ & - - & # - - = ; - ; $ - ; $ ; - ; ; = ; = ; ; ; ; ; ; ; ; ; ; ; ; ; ; , ; : M 2X1X1X1X1X1X1X1X1X1X1X1X1X1X1X1X1X1X1X1X1X1X1X1X1X1X1X1X1X1X1X1X1X1X1X1X1X1X1X$X; > ; ; 2 ; 4 ; ; ; ; ; ; ; ; : ; ; ; 1 ; : ; ; ; ; ; ; ; ; ; ; ; & ; - - = ; ; $ = = ; - $ - - ; $ = & $ = = $ # - $ # # % # - & # * # # - # - $ # # M >X2X1X1X1X1X1X1X1X>Xn # % # # $ U oXoX5X5X5X5X5X5X5X5X5X5X5X5X5X5X5X5X5X5X5X5X5X",
"5X5X5X5X5X5X5X5X5X5X5X5X5X5X5X5X5X5X5X5X/././.P + + # + # L 1X1X1X1X1X1X1X1X1X3Xu # # # # # o # # # # # # = # # & # - - % # $ $ % $ - = - - $ - - = ; & ; & ; = ; ; ; ; ; ; ; ; ; 1 ; ; ; < ; : , ; ; R 1X1X1X1X1X1X1X1X1X1X1X1X1X1X1X1X1X1X1X1X1X1X1X1X1X1X1X1X1X1X1X1X1X1X1X1X1X2X2XA.: ; 4 > ; ; 4 ; > ; 2 ; , > ; ; ; : ; ; ; ; ; ; ; ; ; ; ; ; - ; ; - ; ; ; ; $ ; ; ; - & ; $ ; - - - - & - - = = - - & $ - = - # - - # - = # & # # = $ # Y 1X1X1X1X1X1X1X1X1X].; * * # $ ; B.oXoX5X5X5X5X5X5X5X5X5X5X5X5X5X5X5X5X5X5X5X5X",
"5X5X5X5X5X5X5X5X5X5X5X5X5X5X5X5X5X5X5X5X/./.n.# # #   # i *X2X1X1X1X1X1X1X1X1XL # # # # # # # # * # # # # # # - # = # # # - - = & & - & ; - = $ ; $ - ; = ; & ; & ; ; ; ; ; ; ; ; ; : ; ; ; ; , ; ; : V.1X1X1X1X1X1X1X1X1X1X1X1X1X1X1X1X1X1X1X1X1X1X1X1X1X1X1X1X1X1X1X2X1X1X1X1X1X1X2XR : : ; , 4 ; ; 4 ; ; ; 4 ; ; 2 ; ; 2 ; ; ; ; ; ; ; > ; ; ; ; ; ; ; ; ; ; ; ; ; & & ; ; & ; $ - ; $ ; = $ - - ; $ - - = = % $ & - & - % % = # & % # $ % # # c.1X1X1X1X1X1X1X1X1Xd.# & # $ # u XXoXoX5X5X5X5X5X5X5X5X5X5X5X5X5X5X5X5X5X5X5X",
"5X5X5X5X5X5X5X5X5X5X5X5X5X5X5X5X5X5X5X/./.^.t   . +   # D.1X2X2X1X1X1X1X1X1Xg.o O # O # # # # # # # # # # % = # - # = $ % # # $ - - & - $ - & ; - ; ; & ; & ; ; ; ; ; - ; ; ; ; ; ; ; ; ; ; > ; ; , ; $X1X1X1X1X1X1X1X1X1X1X1X1X1X1X1X1X1X1X1X1X1X1X1X1X1X1X1X1X1X1X1X1X1X1X1X1X1X1X2XN ; : , ; ; < ; 4 : 1 1 ; ; 4 ; ; > ; ; ; ; : , ; ; ; ; : ; ; ; ; ; - ; ; ; - ; ; & ; - ; ; - - ; - $ ; - - - & $ - & & $ # - $ # $ # - # - = % # = - # & # 4 ].1X1X1X1X1X1X1X1X1XM $ # % # * X.oXoX5X5X5X5X5X5X5X5X5X5X5X5X5X5X5X5X5X5X5X",
"5X5X5X5X5X5X5X5X5X5X5X5X5X5X5X5X5X5X5X/.^.R @ # . # @ K 1X1X1X1X1X1X1X1X2X|.; # # # + # @ # # # # # # # # # % # # & = $ & # - - # - = $ - - & & = ; & ; ; ; ; ; ; ; ; ; ; : ; ; ; ; ; ; 2 ; , ; ; ; u 1X1X1X1X1X1X1X1X1X1X1X1X1X1X1X1X1X1X1X1X2X1X1X1X1X1X1X1X1X1X1X1X1X1X1X1X1X1X1X*X, : ; : : 4 ; > ; ; , ; , , ; ; < ; 4 ; 4 : ; ; ; : ; , ; ; ; ; ; ; ; ; ; ; ; ; ; ; ; - - & ; $ - - ; = & & & - ; - - - = - - & = = & - - $ # - # - # & # % # n >X1X1X1X1X1X1X1X1X].; & % * * < T.oXoX5X5X5X5X5X5X5X5X5X5X5X5X5X5X5X5X5X5X",
"5X5X5X5X5X5X5X5X5X5X5X5X5X5X5X5X5X5X^.^.I.;   # o # q *X1X1X1X1X1X1X1X1X3Xu # o @ # # # # # # # # # # * # $ # # * # # $ * $ & - $ & & $ ; - ; - - - ; $ = ; & ; & ; ; ; ; ; ; ; : ; ; 4 ; ; ; ; : ; Y 1X1X1X1X1X1X2X1X1X1X1X1X1X1X1X1X1X1X1X1X1X1X1X1X1X1X1X1X1X1X1X1X1X1X1X1X1X1X1XD.: : : : : ; 4 4 ; 4 ; 4 ; ; 4 4 ; 2 ; ; ; ; : , ; ; ; ; ; ; ; ; : ; ; ; ; ; ; ; & ; ; ; ; ; ; ; & ; - ; - ; ; - & = $ ; ; - - & - & & & & $ = - $ - = - # & $ # R 1X1X1X1X1X1X1X1X1Xy.* & * * * B oXoX5X5X5X5X5X5X5X5X5X5X5X5X5X5X5X5X5X5X",
"5X5X5X5X5X5X5X5X5X5X5X5X5X5X5X5X5X^./.^.S @ # #   # v.1X1X1X1X1X1X1X1X2XY # o # # # # # # X # # # # # # # # * # = # - - $ $ # - - - $ = - & & ; $ - ; ; = ; ; & ; ; ; ; ; ; ; : ; ; < ; ; ; 2 ; : ; c.1X1X1X1X1X1X1X1X1X1X1X1X1X1X1X1X1X1X1X1X1X2X1X1X1X1X1X1X1X1X1X1X1X1X1X1X1X1X1Xu.< ; > ; 1 4 ; ; 4 2 ; 4 ; ; 4 , 1 4 ; ; > ; ; 2 ; ; 1 : ; ; ; > ; ; ; : ; ; ; ; ; ; ; ; ; ; - ; - ; ; - ; - ; $ - $ ; $ = = = $ $ & & = - $ $ $ & $ * $ $ $ - & - C.1X1X1X1X1X1X1X1X>Xy $ $ $ $ - k.OXoX5X5X5X5X5X5X5X5X5X5X5X5X5X5X5X5X5X",
"5X5X5X5X5X5X5X5X5X5X5X5X5X5X5X5X5X^.^.k.  #   o + V 1X1X1X1X1X1X2X1X1XC.# o # o o # # + # # # # # # # # # # # # # # % # # $ $ $ $ $ $ ; - ; ; - ; & - ; = ; ; ; ; ; ; ; ; ; ; ; ; ; ; ; < ; ; 2 ; , ].1X1X1X1X1X1X1X1X1X1X1X1X1X1X1X1X1X1X1X1X1X1X1X1X1X1X1X1X1X1X1X1X1X1X1X1X1X1X1XV , 4 4 4 1 ; : 4 ; 2 4 ; 4 4 ; : ; ; < 2 ; 4 4 ; 2 : ; ; : , , ; ; : ; ; ; ; ; : ; ; ; ; ; ; ; ; ; - - ; ; ; & ; ; ; $ ; $ ; - ; = - - $ ; & $ $ - - # & & * # $ - t *X1X1X1X1X1X1X1X1XW.$ & & # - t .XoXoX5X5X5X5X5X5X5X5X5X5X5X5X5X5X5X5X",
"5X5X5X5X5X5X5X5X5X5X5X5X5X5X5X5X^.^.Q.t X     # * }.2X1X1X1X1X1X1X1X*Xq o o # # o # # # o # # # # # # # # # - # = * $ = - - - $ - & - - ; - $ - & ; $ ; ; ; & ; ; ; ; ; < ; ; ; : 4 ; < ; ; > ; ; i 2X1X1X1X1X1X1X1X1X1X1X1X1X1X1X1X1X1X1X1X1X1X1X1X1X1X1X1X1X1X1X1X1X1X1X1X1X1X1X>Xq , 4 ; 4 ; 4 > ; 4 : : : ; ; 4 ; 4 2 : ; 4 ; 2 , ; : ; ; ; ; ; : ; ; ; ; ; : ; ; ; ; ; ; ; ; ; ; ; ; ; ; - ; = - ; - ; - ; - = = - - = - & ; $ $ ; - & - & # & $ $ $ W 1X1X1X1X1X1X1X1X2XL $ & - $ * 6.oXoX5X5X5X5X5X5X5X5X5X5X5X5X5X5X5X5X",
"5X5X5X5X5X5X5X5X5X5X5X5X5X5X5X5X^.^.t.# # o o o t.1X1X1X1X1X1X1X1X2XL # # # o # # # + # # # # # # # # # # * # % # # $ - & # - $ $ = - - $ - = ; ; - ; $ ; ; ; ; ; ; ; ; ; ; ; : ; ; ; ; 4 > ; , : H 1X1X1X1X1X1X1X1X1X1X1X1X1X1X1X1X1X1X1X1X1X1X1X1X1X1X1X1X1X1X1X1X1X1X1X1X1X1X1XW.; 4 < 4 1 : ; 4 4 1 1 : 4 ; > > 2 2 4 ; 2 , ; 2 ; 4 ; 1 4 ; : , ; : ; , 2 ; ; ; ; ; ; ; : ; ; ; ; ; - ; ; ; ; ; & ; & ; ; & ; ; - ; - = ; - - - $ - - - - - - - & % $ $ C.1X1X1X1X1X1X2X2X$X4 - & & = 4 ^.oXoX5X5X5X5X5X5X5X5X5X5X5X5X5X5X5X",
"5X5X5X5X5X5X5X5X5X5X5X5X5X5X5X^.Q.T.4 #   @ # q 3X1X1X1X1X1X1X1X1XC.# o #   + # # o . # # # # # # # # # # # $ # # # - # # $ - # $ $ - - = & ; & ; ; - ; ; ; ; ; ; ; : ; ; ; ; ; ; ; ; ; ; ; : ; ; d.2X1X1X1X1X1X1X1X1X1X1X1X1X1X1X1X1X1X1X1X1X1X1X1X1X1X1X1X1X1X1X1X1X1X1X1X1X1X1Xd., , ; 4 4 : 4 4 4 ; ; 4 1 4 ; < ; 4 ; 4 ; ; 4 ; 4 ; ; > , ; ; ; 1 ; 1 ; < ; , ; ; > : ; ; ; ; ; ; ; ; ; ; ; ; - ; ; = - & ; - ; ; - ; ; $ = & - ; - - & ; - - - & ; $ $ u 3X1X1X1X1X1X1X1X1Xy.$ = - = = P oXoX5X5X5X5X5X5X5X5X5X5X5X5X5X5X5X",
"5X5X5X5X5X5X5X5X5X5X5X5X5X5X5XQ.^.P     # @ o c.1X1X1X1X1X1X1X1X3Xw # . O # # + # # # # o # # o # # # # & # # - $ # = $ - & - = $ $ ; = & ; $ ; $ ; ; ; - ; ; ; ; ; ; ; : ; ; ; > ; 4 ; ; 4 ; , : ~.1X1X1X1X1X1X1X1X1X1X1X1X1X1X1X1X2X1X1X1X1X1X1X1X1X1X1X1X1X1X1X1X1X1X1X1X1X1X1XQ 4 , 4 4 , 4 4 ; 4 4 4 4 4 ; 4 4 < < < > 4 4 ; 4 ; 4 4 ; ; 4 , : ; 4 ; : ; < ; : : ; ; 1 ; ; ; : ; ; ; ; ; ; ; ; ; ; ; ; ; ; ; ; - & ; $ ; ; ; = = & ; = $ - ; - - - - $ $ t.1X1X1X1X1X1X1X1X>Xt - - - - ; T.oXoX5X5X5X5X5X5X5X5X5X5X5X5X5X5X",
"5X5X5X5X5X5X5X5X5X5X5X5X5X5X_._.J.- #     # u >X1X1X1X1X1X1X1X1Xt.#   # # # . # # # # # # # # # # # $ # # # % # - - - - - = = = = = $ $ $ ; ; & = ; ; ; ; ; ; ; ; ; ; ; ; ; ; ; ; > ; 4 , ; 1 ; 7 >X1X1X1X1X1X1X1X1X1X1X1X1X1X1X1X1X1X1X1X1X1X1X1X1X1X1X1X1X1X1X1X1X1X1X1X1X1X1X>Xq 4 1 ; 4 4 > 4 , 1 < 4 ; 4 < > 4 1 4 : : 4 ; 4 ; 4 ; ; 4 4 ; ; ; ; 4 ; ; ; ; ; ; ; : ; ; ; : : ; ; ; ; ; ; ; ; ; ; ; ; ; ; & ; ; ; $ ; & $ ; ; $ - $ & & = $ - = - $ - - - ; ].1X1X1X1X1X1X1X2Xc.- = - - - H oXXX5X5X5X5X5X5X5X5X5X5X5X5X5X5X",
"5X5X5X5X5X5X5X5X5X5X5X5X5X5XQ.Q.L .   # + @ C.2X1X1X1X1X1X1X2X}.# # + # +   # # . # . # # # # # # # # # - # # - # - # - # $ = = - - ; - & - ; - ; = ; = ; ; ; ; ; : ; ; ; : ; : ; ; ; , ; , ; 4 A 1X1X1X1X1X1X1X1X1X1X1X1X1X1X1X1X1X1X1X1X1X1X1X1X1X1X1X1X1X1X1X1X1X1X1X1X1X1X1X!.> 4 4 4 4 : 4 4 1 4 4 < 4 2 4 2 2 4 ; 4 4 ; 4 > 4 , 4 : 4 ; > 4 4 > ; 4 ; 4 4 4 4 ; ; ; 4 ; ; ; ; ; 1 < ; ; ; ; ; ; ; ; ; ; ; ; ; ; ; - ; ; $ ; & ; ; & ; ; - ; = ; $ - - ; $ V 1X1X1X1X1X1X1X2X2Xn = = ; - ; L.oXoX5X5X5X5X5X5X5X5X5X5X5X5X5X",
"5X5X5X5X5X5X5X5X5X5X5X5X5X_.Q.J.*   o o # M 1X1X1X1X1X1X1X1X1XA   o #   # o # + # # # + # # # # # # # # # - # # # % # & $ # - = - $ & ; $ ; - - ; ; ; = ; ; ; ; ; ; ; 4 ; ; < ; 4 ; ; > ; < : ; t.1X1X1X1X1X1X1X1X1X1X1X1X1X1X1X1X1X1X1X1X1X1X1X1X1X1X1X1X1X1X1X1X1X1X1X1X1X1X1Xh.4 4 4 4 4 4 , 2 4 ; 4 4 < 4 : 1 4 1 4 : 4 ; 4 4 ; 4 ; 4 4 ; 4 4 ; , ; 4 ; > ; ; 4 ; < ; ; > ; ; 4 ; ; : ; ; ; ; ; ; ; ; ; ; ; - ; ; ; ; ; - ; - ; ; = ; = ; $ ; = - $ - = - = & V.2X1X1X1X1X1X1X1XV.- $ - - $ F oXXX5X5X5X5X5X5X5X5X5X5X5X5X5X",
"5X5X5X5X5X5X5X5X5X5X5X5X5XQ.Q.J     # o   W.1X1X1X1X1X1X1X1XZ.o # @ + # # # X # o . # # # # # # # # # $ # # - $ - $ # & = = - - - ; $ $ $ ; ; ; = ; ; ; ; ; ; ; ; ; ; ; > > ; ; ; ; 4 ; 4 ; ; 4 C.1X1X1X1X1X1X1X1X1X1X1X1X1X1X1X1X1X1X1X1X1X1X1X1X1X1X1X1X1X1X1X1X1X1X1X1X1X1X1XH 4 , 4 4 , 4 4 , 4 4 4 4 4 4 4 4 4 4 1 4 1 4 2 4 4 4 ; 4 ; 4 ; ; 4 , : < 4 ; 4 1 ; 4 ; 4 ; ; < ; > ; ; : ; < ; > ; ; ; ; ; ; ; ; ; ; ; ; ; ; ; ; = ; $ ; - = ; - & ; ; ; ; - & ; u >X1X1X1X1X1X1X1X2XN ; & ; $ ; P.oXoX5X5X5X5X5X5X5X5X5X5X5X5X",
"5X5X5X5X5X5X5X5X5X5X5X5XQ._.J.- O # # . M 1X1X1X1X1X1X1X2X>Xu o X # # X   # X # # # # # o # # @ # # # # # # # # # & - - # - & - - - = - ; - $ ; & ; ; ; ; ; ; ; ; ; ; ; ; ; ; , 4 ; , ; ; : 1 4 *X1X1X1X1X1X1X1X1X1X1X1X1X1X1X1X1X1X1X1X1X1X1X1X1X1X1X1X1X1X1X1X1X1X1X1X1X1X1X1Xt 4 4 4 4 4 4 4 4 4 4 4 > 4 4 : 1 4 4 1 1 : 4 : : 4 ; 4 4 4 4 ; 4 ; ; 4 : ; 4 ; < 4 : ; ; ; 2 ; 2 ; ; ; ; > ; ; ; ; > ; ; ; > ; ; ; ; ; - ; - ; ; ; ; ; ; ; = = ; & ; & - & ; $ & ; h.2X1X1X1X1X1X1X1XZ.$ $ ; ; - L XXXX5X5X5X5X5X5X5X5X5X5X5X5X",
"5X5X5X5X5X5X5X5X5X5X5X5XQ._.K       o o F.1X1X1X1X1X1X1X1Xg.# o   # O # + # # + . # + # # # # # # # # # $ # - % & # $ $ $ & & - ; - = ; - $ ; $ ; ; = ; ; ; ; ; ; 2 ; ; ; 4 , ; ; 2 ; 4 : : ; N 1X1X1X1X1X1X1X1X1X1X1X1X1X1X1X1X1X1X1X1X1X1X1X1X1X1X1X1X1X1X1X1X1X1X1X1X1X1X1X].4 4 4 4 4 4 4 , 4 4 2 4 4 4 4 4 4 4 1 1 4 4 < 4 4 > 4 4 2 ; 4 4 < 4 4 ; : , ; 4 < ; ; 4 4 4 ; 4 ; ; 4 4 : ; ; 1 ; > ; ; ; > ; ; ; ; ; ; ; ; ; ; ; ; & - ; - ; ; ; ; & ; - ; ; - - & q *X1X1X1X1X1X1X2X2XN & $ & - < R.oXoX5X5X5X5X5X5X5X5X5X5X5X",
"5X5X5X5X5X5X5X5X5X5X5XQ.T.T.; #       N 1X1X1X1X1X1X1X1X3X7 o #   o #   #   # # # # + # # # # # # * # * # # % # # - * * # - & & $ $ $ = - ; ; ; ; - ; ; ; ; ; ; ; 1 ; ; 4 ; ; ; 1 ; ; > , ; 4 R 1X1X1X1X1X1X1X1X1X1X1X1X1X1X1X1X1X1X1X1X1X1X1X1X2X1X1X1X1X1X1X1X1X1X1X1X1X1X1Xc.4 4 4 4 4 6 4 4 4 4 4 4 4 4 4 2 4 1 4 4 4 4 4 4 4 < 4 2 4 4 > < ; 4 4 4 4 ; ; > ; > ; : ; 4 ; > 4 ; ; ; ; 4 ; ; ; > ; ; ; ; ; ; ; 2 ; ; ; ; ; ; ; ; ; ; ; - ; ; - ; $ ; ; $ = - ; & $ t.1X1X1X1X1X1X1X1XV.& ; & - - T oXoX5X5X5X5X5X5X5X5X5X5X5X",
"5X5X5X5X5X5X5X5X5X5X5XQ.Q.X.o X   # . V.1X1X1X1X1X1X1X1Xj.# # o # X   # + # O   + # # # # # # # # # # # # = # $ * % = # - - ; - - $ ; $ ; - = ; ; ; - ; ; ; ; ; ; ; ; < ; ; ; 4 ; > , > : : 1 v.1X1X1X1X1X1X1X1X1X1X1X1X1X1X1X1X1X1X1X1X1X1X1X1X1X1X1X1X1X1X1X1X1X1X1X1X1X1X1XK 4 4 4 4 4 4 4 4 4 4 4 4 4 4 4 4 4 4 4 4 4 4 1 4 1 4 4 4 4 > < 4 4 < ; 4 4 4 4 4 4 > 4 , 4 ; > 2 ; 4 4 ; ; ; , 4 2 ; ; , : ; 2 ; ; ; ; ; ; ; ; ; ; ; ; ; ; ; ; - ; ; ; = ; ; - ; & ; ; 4 *X1X1X1X1X1X1X1X2Xy & ; ; - 9 ).XXoX5X5X5X5X5X5X5X5X5X5X",
"5X5X5X5X5X5X5X5X5X5XT._.T.q o X O   u 2X1X1X1X1X1X1X1X*X4 o   o   # o   # O # # # # + # @ # # # # # # # # # = # # # - $ & - - - - $ - ; ; ; ; ; ; ; ; ; ; ; ; ; ; ; ; > ; : ; , 4 ; 4 ; 4 ; : $X1X1X1X1X1X1X1X1X1X1X1X1X1X1X1X1X1X1X1X1X1X1X1X1X1X1X1X1X1X1X1X1X1X1X1X1X2X1X2Xu 4 4 4 4 4 4 4 4 4 4 4 4 4 4 4 4 4 4 4 4 4 4 4 4 4 4 4 2 4 ; 4 , 4 : 4 ; > > 4 ; 4 ; ; , ; 4 > ; 4 ; 1 ; 4 ; ; ; , ; 4 ; , ; ; ; ; : ; ; ; ; ; ; ; ; ; ; ; ; ; ; - ; ; ; ; - - - - & ; ; t.2X2X1X1X1X1X1X2XS.& & ; - - p.oX.X5X5X5X5X5X5X5X5X5X5X",
"5X5X5X5X5X5X5X5X5X5XQ.T.s.X X X   # g.1X1X1X1X1X1X1X>Xy.# .   #   # # #   # O #   . # # # # # # # # # * # - # & = - $ $ & # - - - ; ; - & - ; $ = ; ; ; ; ; ; : ; ; : ; ; 4 ; ; 4 ; ; 4 ; 4 u >X1X1X1X1X1X1X1X1X1X1X1X1X1X1X1X1X1X1X1X1X1X1X1X1X1X1X1X1X1X1X1X1X1X1X1X1X1X1X{.4 6 4 4 4 6 4 4 4 6 4 4 6 4 4 4 4 4 4 4 4 4 4 1 4 4 4 4 4 4 4 4 4 : 4 4 4 4 2 > 4 2 4 4 : 4 ; 4 4 ; < 2 4 ; 1 : ; ; ; 4 ; ; ; 4 , ; ; : ; ; ; : ; ; ; ; ; ; ; ; ; ; ; ; $ ; ; ; ; ; ; & ; 4 *X1X1X1X1X1X1X2X>Xq ; - * ; y .XoX5X5X5X5X5X5X5X5X5X5X",
"5X5X5X5X5X5X5X5X5X5XT.T.m     # @ 4 >X1X1X1X1X2X1X1X3X6     #   #   #   # # O # # # # . # # # # # # # * # $ - # # $ - # $ $ & = $ $ ; - - ; & ; ; ; ; ; ; ; 1 ; > < ; : ; ; 4 ; 4 ; : ; 4 : K 1X1X1X1X1X1X1X1X1X1X1X1X1X1X1X2X1X1X1X1X1X1X1X1X1X1X1X1X1X1X1X1X1X1X1X1X1X1X1Xc.5 4 4 4 5 4 5 4 4 4 4 4 4 4 6 4 4 4 4 6 4 4 4 4 4 4 4 4 4 4 4 1 4 4 1 1 4 : 4 , 1 1 4 ; ; 4 2 ; 4 ; 4 ; 4 ; 2 < : 4 ; ; ; 4 : ; < ; ; : ; ; ; > ; ; ; ; ; ; ; ; ; ; ; ; ; ; ; - ; ; = $ ; - y.1X1X1X1X1X1X1X1Xt.; ; - ; - n.XXXX5X5X5X5X5X5X5X5X5X",
"5X5X5X5X5X5X5X5X5XQ.T.m.X         R 1X1X1X1X1X1X1X1Xd.. o # @ X +     # o   # o @ # # # O # # # # # # # # - # - & $ - $ $ = $ & & ; = ; ; ; - ; ; ; ; ; ; ; ; ; ; ; : ; 4 ; ; > < < 4 ; ; 4 c.1X1X1X1X1X1X1X1X1X1X1X1X1X1X1X1X1X1X1X1X1X1X1X1X1X1X1X1X1X1X1X1X2X1X1X1X1X1X1XY 4 4 5 4 4 4 4 4 6 5 4 5 4 5 4 6 4 4 4 4 4 4 4 5 4 4 4 4 4 4 4 4 4 4 4 4 1 4 1 4 4 4 1 4 4 : 4 4 4 4 ; 4 ; 4 ; ; 4 ; 4 4 ; ; ; 1 ; , ; ; > ; 4 ; ; ; ; ; > ; ; ; ; ; ; ; ; ; - ; ; ; ; ; ; ; q 3X2X1X1X1X1X1X1X4X; = ; = ; F oXXX5X5X5X5X5X5X5X5X5X",
"5X5X5X5X5X5X5X5X5XT.T.J       . # }.1X1X1X1X1X1X1X>Xq #     #     # # + # . # # # . # X # # # # # # # # # = * # $ # - = $ - ; $ - - & - & ; - ; ; ; ; ; ; 1 : ; ; ; ; < ; 2 ; 4 ; 4 ; 4 4 4 ].>X1X1X1X1X1X1X1X1X1X1X1X1X1X1X1X1X1X1X1X1X1X1X1X1X1X1X1X1X1X1X1X1X1X1X1X1X2X1Xy 4 4 5 4 6 4 6 5 4 5 4 4 5 4 4 9 4 4 4 4 4 4 4 4 4 4 4 4 4 4 4 4 4 4 4 4 4 4 ; 4 > 4 < 2 , : ; 4 ; 4 ; > : ; 4 4 ; 4 1 : < ; 4 ; 4 : ; ; : ; ; , ; 1 ; < ; ; ; ; ; ; ; ; ; ; ; ; - ; = ; - ; ; g.2X1X1X1X1X1X1X2XQ ; ; ; ; < _.XXXX5X5X5X5X5X5X5X5X",
"5X5X5X5X5X5X5X5X5XT.T.4     X   V 1X1X1X1X1X1X1X1Xv.# o . # + . # +   # X # o # # # # # # # + # # # # # $ # # * & - # $ $ = - - $ ; ; - ; - ; ; ; ; ; ; ; ; ; ; 1 ; : ; , ; < ; 4 ; 4 ; ; q 2X1X1X1X1X1X1X1X1X1X1X1X1X1X1X1X1X1X1X1X1X1X1X1X1X1X1X1X1X1X1X1X1X1X1X1X1X1X2X{.6 6 5 4 5 4 6 4 9 4 4 9 4 4 4 4 6 4 6 6 4 5 6 4 4 6 4 4 4 4 4 4 4 4 1 4 4 4 4 4 4 4 , 4 4 4 4 4 < 4 4 4 ; 4 4 4 ; 4 ; , ; 1 , ; : ; ; 4 ; ; : ; ; : ; ; ; ; ; ; > ; ; ; ; ; ; ; ; ; ; ; ; ; ; - y 2X1X1X1X1X1X1X2XC.- ; - - = u.XXXX5X5X5X5X5X5X5X5X",
"5X5X5X5X5X5X5X5XQ.T.p.o       X v.1X1X1X1X1X1X1X1Xn #   # o #   O # . + X # # o @ # # @ # # # # # * # # # = # # $ # - - $ = - - ; ; - ; ; ; - ; ; ; ; ; ; : ; ; ; 1 ; 4 ; < > > : 4 : : 4 D 1X1X1X1X1X1X1X1X1X1X1X1X1X1X1X1X1X1X1X1X1X1X1X1X1X1X1X1X1X1X1X1X1X1X1X1X1X1X1Xv.6 4 5 4 4 6 4 4 4 9 4 8 4 8 4 5 4 6 4 4 4 4 5 4 4 4 6 4 6 4 4 4 4 4 4 4 4 4 4 4 4 1 ; 4 4 2 1 4 4 1 > 4 4 , 4 ; 2 ; ; 4 ; 4 , 4 ; 2 ; ; 1 , 1 ; ; ; ; ; ; > : ; > ; ; ; ; ; ; ; ; ; ; ; ; = ; ; - Z.1X1X1X1X1X1X1X2Xt ; ; = ; s XXXX5X5X5X5X5X5X5X5X",
"5X5X5X5X5X5X5X5XT.T.M X   .   4 >X1X1X1X1X1X1X1X!.        o # +   # #   # X # # # . # # # # # # # # # * # & - $ # - $ = $ = - - = - ; & ; - ; ; ; ; ; ; ; ; ; : < ; ; > 4 ; ; 4 ; ; : 1 1 d.1X1X1X1X1X1X1X1X1X1X1X1X1X1X1X1X1X1X1X1X1X1X1X1X1X1X1X1X1X1X1X1X1X1X1X1X1X1X2XY 4 6 4 6 5 9 9 8 4 9 9 4 9 4 8 4 8 4 4 5 5 4 9 4 4 6 6 4 4 4 4 4 8 4 4 4 4 4 4 4 4 4 4 4 4 4 4 1 4 1 4 ; ; 4 > 4 4 ; 4 ; 4 ; : ; ; 2 4 ; : ; : ; 4 : , : ; ; ; ; ; ; ; < 2 ; ; ; ; ; ; ; ; ; ; ; ; Z 1X1X1X1X1X2X1X1Xu.; ; ; = ; G..XXX5X5X5X5X5X5X5X",
"5X5X5X5X5X5X5XT.T.I.#         Y 2X1X1X1X1X1X1X2XL   #   .     # #   + #   # # @ + o # o # + # # # # # # - # # * * - $ $ $ = - $ & - & ; ; ; ; ; ; ; ; ; ; 2 ; 1 ; ; > ; ; ; 4 ; 4 ; ; 4 2 W.1X1X1X1X2X1X1X1X1X1X1X1X1X1X1X1X1X1X2X1X1X1X1X1X1X1X1X1X1X1X1X1X1X1X1X1X1X1X2Xs 6 6 6 4 6 4 9 4 5 6 4 9 6 8 5 4 4 9 5 4 6 6 4 4 6 4 4 6 4 4 6 4 8 4 4 4 4 4 4 4 4 4 4 4 4 4 4 4 1 4 4 , 4 4 , 1 1 : , 4 > < 4 ; 4 > ; , , ; ; < < ; ; , ; ; ; ; ; > ; ; ; ; ; ; ; ; ; ; ; ; ; - ; ; {.1X1X1X1X1X1X1X].; ; ; ; ; Y oXXX5X5X5X5X5X5X5X",
"5X5X5X5X5X5X5XT.T.X.      .   !.1X1X1X1X1X1X1X*X&   + . O #     O   # .   #   # # # # # # # # # # # # * # - # = # - # = $ $ ; = ; ; - = - ; ; ; ; ; ; ; ; ; : ; ; 4 ; 4 ; 4 ; 4 : 4 4 ; 6 >X1X1X1X1X1X1X1X1X1X1X1X1X1X1X1X1X1X1X1X1X1X1X1X1X1X1X1X1X1X1X1X1X1X1X1X1X1X1X X6 4 5 5 9 9 4 5 6 9 4 6 9 4 4 6 9 8 4 6 6 4 4 9 6 4 8 6 4 4 6 4 4 4 4 4 4 4 4 4 4 4 4 4 1 4 2 4 4 4 1 4 : 4 ; 4 : 4 : 4 ; : 1 , 2 4 ; 4 ; 1 : 4 ; ; : , ; : , ; 4 ; ; ; < ; ; < ; > ; ; ; ; ; ; ; ; ; t.1X1X1X1X1X1X1X1XM ; ; ; ; i .XXX5X5X5X5X5X5X5X",
"5X5X5X5X5X5X5XT.T.z         i 2X1X1X1X1X1X1X2Xh.  .     .   X + # . #   # o o #   # O # X # # # # # # * # = # - $ # - $ = - - ; - ; = ; - ; = ; ; ; ; ; ; ; ; ; 2 ; > ; ; 4 , ; ; 4 4 ; V 1X1X1X1X1X1X1X1X1X1X1X1X1X1X1X1X1X1X1X1X1X1X1X1X1X1X1X1X1X1X1X1X1X1X1X1X1X1X1Xv.6 4 6 8 5 4 9 8 6 4 9 6 4 9 4 9 5 5 6 9 4 6 5 4 6 4 6 9 4 4 6 6 4 4 5 8 4 4 4 4 4 4 4 4 4 4 4 4 4 1 4 1 4 4 2 4 > 4 , 4 1 4 ; ; > > 4 ; ; 4 < : ; 4 : ; ; < ; ; 4 ; ; ; ; ; ; ; ; > ; ; ; ; ; ; ; ; ; i 2X2X1X1X1X1X1X2Xh.; ; ; ; ; M.XX.X5X5X5X5X5X5X",
"5X5X5X5X5X5XT.T.N.O         t.1X1X1X1X1X1X1X1Xy X o #   O #   # @     # O # #   # # # # # # # # # # # * # # $ = & = & - - - $ $ ; $ $ ; ; ; ; ; ; ; ; 4 ; ; ; 4 ; , ; 4 1 ; : : 4 1 4 ; t.1X1X1X1X1X1X1X1X1X1X1X1X2X1X1X1X1X1X1X1X1X1X1X1X1X1X1X1X1X1X1X1X1X1X1X1X1X1X1XY 6 9 5 6 5 6 6 6 6 6 5 5 4 5 6 6 8 9 9 8 6 4 9 9 4 5 9 6 4 6 9 4 5 4 4 4 5 6 4 4 6 4 4 4 4 4 4 4 1 4 4 4 1 4 4 > 4 > > < 2 < 4 4 2 , ; 4 : 4 ; , ; ; ; 4 ; 1 1 ; ; ; , < ; ; 4 ; ; ; ; ; : ; ; ; ; ; ; ; C.1X1X1X1X1X1X2X$X; & ; ; ; U .XXX5X5X5X5X5X5X",
"5X5X5X5X5X5XP.T.X.        . |.1X1X1X1X1X1X1X].# X + +       #     # # @ # o # # . # # # # # # # * # # # # - # - $ # - & - - ; ; $ - ; ; ; ; ; ; ; ; ; ; 4 ; 4 ; > > ; ; ; 4 ; 4 ; 1 4 4 C.1X1X1X1X1X1X1X1X1X1X1X1X1X1X1X1X1X1X1X1X1X1X1X1X1X1X1X1X1X1X1X1X1X1X1X1X1X1X1Xz 6 4 9 6 9 9 6 9 9 6 6 6 6 6 6 6 4 9 4 5 5 6 4 9 6 6 4 4 9 4 4 6 4 4 5 6 4 4 4 4 5 4 4 4 6 4 4 4 4 4 4 4 , 2 2 4 > > 4 4 ; 4 ; ; 4 , 1 < < ; 4 ; 4 < < ; 4 ; 1 ; 4 : ; ; 4 ; ; 4 ; ; ; ; ; ; ; ; ; : ; ; K 1X1X1X1X1X1X1X1XS ; ; ; ; t XX.X5X5X5X5X5X5X",
"5X5X5X5X5X5XT.T.n         i 1X1X1X1X1X1X1X1XR     o #   #   # O # @ O O o # O # # + @ # # # # # # # * # * # # $ $ & & - - - - - ; $ - ; ; - ; ; ; ; < ; ; ; ; ; < ; 4 ; 4 ; 4 ; 4 1 ; 4 =X1X1X1X1X1X1X1X1X1X1X1X1X1X1X1X1X1X1X1X1X1X1X1X1X1X1X1X1X1X1X1X1X1X1X1X1X1X1X{.6 5 6 6 8 4 8 5 8 9 4 6 8 6 6 6 6 6 5 5 9 4 5 9 4 6 9 4 4 6 6 4 6 5 4 6 4 6 6 4 4 4 4 8 4 4 4 4 4 4 4 4 4 4 4 4 4 4 4 , 4 4 4 4 4 < 4 ; ; < 4 ; : 4 ; ; ; ; 4 ; ; 4 ; , ; ; ; , ; ; < ; ; ; : ; ; ; ; ; ; 4 3X1X1X1X1X1X1X1Xh.; ; ; ; - N.oXXX5X5X5X5X5X",
"5X5X5X5X5X5XT.J.#         R 1X1X1X1X1X1X1X2Xq             #   O @ #   # # + # # # # # # # # # # # # # % # # - = & = # - $ ; & $ ; - ; & ; ; ; ; ; ; ; ; > ; ; : ; 4 ; 4 ; 1 4 > > 4 > N 1X1X1X1X1X1X1X1X1X1X1X1X1X1X1X1X1X1X1X1X1X1X1X1X1X1X1X1X1X1X1X1X1X1X1X1X1X1X1Xv.5 6 5 5 8 6 6 6 5 8 6 5 8 5 6 6 5 8 6 6 9 6 6 6 6 6 4 6 9 6 4 5 4 9 4 4 4 5 4 8 5 4 4 6 4 4 4 4 4 4 4 4 4 4 1 4 4 , 4 4 4 < 4 4 , 4 2 4 4 4 : > : ; ; 4 4 ; 4 ; 2 ; ; ; , ; ; ; 4 ; ; : ; ; ; ; ; : ; ; ; ; v.2X1X1X1X1X1X1X X; ; ; ; ; o..XoX5X5X5X5X5X",
"5X5X5X5X5XP.P.y.          F.1X1X1X1X1X1X1X~.#       #   + X # o   # #   . # +   # + . # # # # # # # % # # - # * # $ - - $ - - ; ; $ ; ; ; = ; ; < ; ; 2 ; 1 ; ; 2 ; 1 ; 4 ; : , 4 ; 4 Y 1X1X1X1X1X1X1X1X1X1X1X1X1X1X1X1X1X1X1X1X1X1X1X1X1X1X1X1X1X1X1X1X1X1X1X1X1X1X2XE 5 6 6 6 9 9 5 6 8 9 9 9 9 5 9 0 6 6 5 6 5 5 5 5 6 6 9 6 6 5 6 6 9 4 9 6 8 4 6 4 4 6 6 4 6 4 4 6 6 4 4 4 4 4 4 4 4 4 2 4 > 4 ; 4 , : 4 4 4 ; 4 ; < 4 4 ; ; 4 ; : < 2 4 ; ; 4 , ; ; ; ; 1 : ; : ; ; ; ; ; ; ; H 2X1X1X1X1X1X1X1Xn ; ; ; ; N .X.X5X5X5X5X5X",
"5X5X5X5X5XT.P.A         ; >X1X1X1X1X1X1X1XR O . X + . #   @   @   X @   # + X # # # # # # # # # # # # $ # - $ = $ $ = - = - ; - $ ; = ; ; ; ; ; ; ; ; ; ; , ; , 2 ; : ; 4 : < 4 ; 4 4 v.1X1X1X1X1X1X1X1X1X1X1X1X1X1X1X1X1X1X1X1X1X1X1X1X1X1X1X1X1X1X1X1X1X1X1X1X1X1X2Xn 6 6 6 6 q 6 7 q q 5 9 5 6 6 6 6 9 8 6 9 8 9 9 6 5 0 8 8 4 6 4 9 6 6 5 9 6 4 6 4 9 4 4 6 6 4 4 4 4 4 4 4 4 4 4 4 > 4 4 4 4 4 : , 4 4 ; ; 4 4 ; 4 2 4 > 4 4 4 ; 2 < ; 2 ; ; ; 2 ; 4 , ; ; ; ; : ; ; ; ; ; ; : 5 3X1X1X1X1X1X1X1X~ ; ; ; ; ; ^..X5X5X5X5X5X",
"5X5X5X5X5XP.P.8       # Z 1X1X1X1X1X1X1X2Xt     + @     #   # + # X # # + # #   # X # # # # # # # % # # = # - # $ $ $ & - - - - ; $ ; - ; ; ; ; ; ; , ; , ; ; 4 ; 2 ; 4 ; 4 ; ; 4 2 4 {.1X1X1X1X1X1X1X1X1X1X1X1X1X1X1X1X1X1X1X1X1X1X1X1X1X1X1X1X1X1X1X1X1X1X1X1X1X2X X5 q 9 5 q 9 5 5 6 6 9 6 q q 9 9 q 9 9 9 9 9 9 8 5 9 8 9 9 9 6 6 9 5 4 6 4 6 9 4 6 6 5 4 4 4 4 6 4 6 4 6 4 4 4 4 4 4 4 4 4 4 > 4 4 4 : 4 4 > , 4 , 4 ; > ; > ; 4 ; ; 4 ; 4 4 ; ; 4 ; ; > ; ; : ; ; : ; ; : ; ; ; V.1X1X1X1X1X1X1XD.; : ; ; ; l.oX.X5X5X5X5X",
"5X5X5X5XP.P.n.          g.1X1X1X1X1X1X1X].o   O X     X . #     # #   # @ # # O # # # @ # # # # # # $ # # - & # - # - - & - ; $ $ - ; ; = ; ; ; : ; ; ; : ; : ; 4 ; 2 4 ; 4 < 4 ; > t 1X1X1X1X1X1X1X1X1X1X1X1X1X1X1X1X1X1X2X1X1X1X1X1X1X1X1X1X1X1X1X1X1X1X1X1X1X1X1Xv.q 5 5 q 6 7 7 7 q 7 7 7 q q 6 7 q q 6 5 6 5 5 q 6 6 8 6 6 q q 5 7 7 7 q q , q , q 7 7 7 6 > 6 6 6 6 > 4 4 4 4 4 , 4 4 6 6 6 6 6 6 6 6 6 t 4 4 > 4 2 > 2 3 > > ; > , ; 4 ; 4 ; ; < ; : ; 2 : ; ; ; ; ; ; ; ; ; > Y 1X1X1X1X1X1X1X>X0 ; ; ; ; L oX.X5X5X5X5X",
"5X5X5X5XP.P.o.      X X ].1X1X1X1X1X1X1Xy.o   o . # # X       #   X # o # +   # @ # # # # # # # # # # % - # & - & $ = - & $ & ; ; - ; ; ; ; ; ; ; ; ; : ; : ; 1 ; , 1 ; > 2 4 ; 4 4 K 1X1X1X1X1X1X1X1X1X1X1X1X1X1X1X1X1X1X1X1X1X1X1X1X1X1X1X1X1X1X1X1X1X1X1X1X1X1X1XY 9 9 q 5 q 7 q q 7 7 q 7 q 7 q 7 5 5 q 9 q 8 q 9 9 8 6 w b ' _ _ _ b b b c c c c l l M l y l a a a a 6 4 6 4 6 4 l  . . . . . .|  .| | | 7.| | |  .| | |  .| | | 3 ; 4 ; 4 ; ; 4 ; 1 ; 4 ; 4 ; 4 ; ; 2 ; < ; ; ; t 2X1X1X1X1X1X1X1XZ ; ; ; < u .X.X5X5X5X5X",
"5X5X5X5XP.T.M         q 1X1X1X1X1X2X1X1XM o #   O O       #   # # X o # o # + # # # # o # # # # # % * # $ $ # # $ $ - - - ; - - = ; = ; ; ; ; ; ; ; : ; ; 1 1 ; ; 1 > ; < 2 4 4 > 4 g.1X1X1X1X1X1X1X1X1X1X1X1X1X1X1X1X1X1X1X1X1X1X1X1X1X1X1X1X1X1X1X1X1X1X1X1X1X1X2Xn q 7 5 5 7 q 7 7 q 7 q 7 7 q q q 0 6 9 q 7 q q 6 5 0 0 ..e.w.e.e.e.e.e.e.e.e.e.e.e.e.e.e.e.e.e.e.e.e.' 4 6 6 , 3 w.e.e.e.e.e.e.e.e.e.e.e.e.e.e.e.e.e.e.e.e.e.e.e.c 4 , 4 ; 4 ; ; 4 ; < 4 ; ; ; ; ; 1 ; ; < > ; ; , !.1X1X1X1X1X1X1Xd.; ; 1 ; ; R..X5X5X5X5X",
"5X5X5X5XP.P.2         H 1X1X1X1X1X1X1X*X# o     X . .     # O o     # X # @ # o @ # # # # # # # # # # $ # % & = $ $ $ ; = $ ; ; ; - ; ; ; ; ; ; : ; ; ; ; ; ; 4 4 ; , 4 1 , ; 4 > 1 ].1X1X1X1X1X1X1X1X1X1X1X1X1X1X1X1X1X1X1X1X1X1X1X1X1X1X1X1X1X1X1X1X1X1X1X1X1X1X X5 5 q q q q 7 q 7 7 7 q q q 6 7 q q q q 0 8 0 q 8 q q w q.e.e.e.q.e.e.e.e.e.e.e.e.e.e.e.e.e.e.e.e.e.e.| 6 > , , l q.e.e.e.e.e.e.e.e.e.e.e.e.e.e.e.e.e.e.e.e.e.e.e.a , : ; 4 ; 4 1 ; 4 ; ; , ; : 4 ; ; : ; ; ; > ; ; d.1X1X1X1X1X1X1X!.; ; ; ; ; f..X.X5X5X5X",
"5X5X5X5XP.n.          g.1X1X1X1X1X1X1XZ.    X . . #     #     O #   # o # X # # o # . # # # # # # = # # # = # $ $ # $ - ; = $ - $ ; ; ; ; ; ; ; ; , ; ; 4 , : ; < < ; 4 4 ; ; 4 4 q 2X1X1X1X1X1X1X1X1X1X1X1X1X1X1X1X1X1X1X1X1X1X1X1X1X1X1X1X1X1X1X1X1X1X1X1X1X1X1Xv.q 6 q q 9 q q q q q q 7 q q q 5 q q 9 q 6 q 9 0 9 q 7 c e.e.e.w.e.e.e.e.e.e.e.e.e.e.e.e.e.e.e.e.e.e.e.b 6 > 4 6 _ e.e.e.e.e.e.e.e.e.e.e.e.e.e.e.e.e.e.e.e.e.e.e.e.2 ; 4 > ; 1 < ; 4 ; 4 ; ; 1 ; > ; ; ; : ; ; > ; ; Z 1X1X1X1X1X1X1X>X6 ; ; ; ; P .XXX5X5X5X",
"5X5X5XP.K.u.    .     ].1X1X1X1X1X1X1XR   #   O       # #   #   # O O # o # o # # # # # @ # # # # $ # * - # - $ $ = = - - - ; - & ; - ; ; ; ; : ; ; ; 4 ; ; ; 4 2 ; 4 ; : 4 4 , 4 Z 1X1X1X1X1X1X1X1X1X1X1X1X1X1X1X1X1X1X1X1X1X1X1X1X1X1X1X1X1X1X1X1X1X1X1X1X1X1X1XY 9 q 9 q 5 q i , q 7 q q q q q q 9 q q q q q q q q q 7 _ q.q.e.q.e.e.w.e.e.e.e.e.e.e.e.e.e.e.e.e.e.e.e.a 6 6 6 2  .e.e.e.e.e.e.e.e.e.e.e.e.e.e.e.e.e.e.e.e.e.e.e. .> < 4 , > 4 ; 4 ; : ; ; 4 : < ; 2 4 ; : ; , ; ; ; 4 >X1X1X1X1X1X1X1XV ; ; < ; n .X.X5X5X5X",
"5X5X5XP.K.F @       : 2X1X1X1X1X1X1X2Xn     O o   . #     #   #   + # O # #   + # o # # # # # # = # % # = * - - $ * = - ; $ - ; ; $ ; ; ; ; ; ; ; 2 ; ; ; ; < ; ; 4 > > > , 4 : 4 y.1X1X1X1X1X1X1X1X1X1X1X1X1X1X1X1X1X1X1X1X1X1X1X1X1X2X1X1X1X1X1X1X1X1X1X1X1X1X2Xn q q 0 q q q q q q q q q q q q q 0 q 9 q q 7 q q q q q  .q.q.q.e.q.e.e.e.e.e.e.e.e.e.e.e.e.e.e.e.e.e.7.6 > 6 6 0 0.e.e.e.e.e.e.e.e.e.e.e.e.e.e.e.e.e.e.e.e.e.e.e._ > 4 ; 4 ; ; 4 ; 4 ; 4 ; > ; 1 ; ; ; < ; 1 , ; : ; ; !.1X1X1X1X1X1X1Xt.; ; ; ; 4 `.XX5X5X5X",
"5X5X5XP.P.u         S 1X1X1X1X1X1X1X3X#     X   X         o O + #     # #   # # # # # # # # # # # # # # $ # # = = = - - $ ; ; = ; ; ; ; ; ; ; ; ; ; ; 4 ; 4 ; 4 4 ; > 4 ; 4 1 , : W.1X1X1X1X1X1X1X1X1X1X1X1X1X1X1X1X1X1X1X1X1X1X1X1X1X1X1X1X1X1X1X1X1X1X1X1X1X2X{.9 0 q q q q 0 q q q q q q q q q q q q q q q q q q q q q w.q.q.q.e.q.e.w.e.e.e.e.e.e.e.e.e.w.e.e.e.e.e...6 4 6 0 a q.q.e.e.e.e.e.e.e.e.e.e.e.e.e.e.e.e.e.e.e.e.e.e.l > 1 2 2 < 4 ; 4 ; 4 ; 4 ; 4 ; 4 ; : ; < ; ; ; ; ; ; h.1X1X1X1X1X1X1XV.; ; ; ; ; M..X.X5X5X",
"5X5X5XK.J.#         R 2X2X1X1X1X1X1XW.      O O         X X @   . . # + # # @ # # o # # # # # # % # * % & # - = $ $ ; - - - $ ; ; - - ; ; ; ; ; 2 ; ; ; 4 4 ; 2 4 ; 4 1 4 ; 1 4 6 3X1X1X1X1X1X1X1X1X1X1X1X1X1X1X1X1X1X1X1X1X1X1X1X1X1X1X1X1X1X1X1X1X1X1X1X1X1X1Xb.q 7 q q q q q q q q q q q q q q q q q q q q q 9 q q q d q.q.q.q.q.q.q.q.e.e.q.q.e.e.e.e.e.e.q.e.e.e.w._ 6 6 6 4 b q.e.e.e.q.e.e.e.e.e.e.e.e.e.e.e.e.e.e.e.e.e.e.e.3 > > > > > 4 ; 4 ; 4 ; ; 4 ; < ; 4 ; ; 4 4 ; ; ; 1 , L 2X1X1X1X1X1X1X{.; : ; < ; i..X.X5X5X",
"5X5X5XK.z.          v.2X1X1X1X1X1X1Xy.    X o X .   #   #   # # # # X .   o # # # # # o # # # # # & # # * & # & = $ $ & ; $ ; - ; ; ; ; ; ; ; 2 > ; 4 ; ; ; > > ; > ; 4 4 4 < 4 S 1X1X1X1X1X1X1X1X1X1X1X1X1X1X1X1X1X1X1X1X1X1X1X1X1X1X1X1X1X1X1X1X1X1X1X1X1X1X1XY q q q q q q q q q q q q q q q q q q q q q q q q q q q _ q.w.q.w.q.q.q.q.q.q.e.e.e.q.q.q.q.e.e.w.e.e.e.l 6 4 6 4 | e.q.e.q.q.e.e.e.e.e.e.e.e.e.e.e.e.e.e.e.e.e.e.-.> > , , , , ; 4 > > ; 4 < : 4 ; < ; 4 ; ; ; ; : ; ; ; u 1X1X1X1X1X1X1X2Xi ; ; ; ; J .XoX5X5X",
"5X5XK.K.u.          ].2X1X1X1X1X1X1XZ       O . O @ + #   X #   X # . # #   # + # # # # # # # # # # - # # $ $ & $ - ; = = ; & ; - ; ; ; ; > ; ; ; ; : ; > ; ; 4 ; 4 1 : : : 4 4 t.2X1X1X1X1X1X1X1X1X1X1X1X1X1X1X1X1X1X1X1X1X1X1X1X1X1X1X1X1X1X1X1X1X1X1X1X1X2X1Xz q q q q q q q q q q q q q q q q q q q q q H q q q q q ..9.q.q.q.q.q.q.q.q.e.q.q.w.q.e.q.e.q.q.e.e.w.e.8 8 4 6 6 7.0.e.e.q.0.e.e.e.e.e.e.e.e.e.e.e.e.e.e.e.e.q.e.' > > , > , , 4 ; 4 ; 4 4 ; 2 4 ; ; 4 4 ; ; 1 4 ; 4 ; ; ; $X1X1X1X1X1X1X1XC ; < ; ; N .XoX5X5X",
"5X5XK.K.J         # >X2X1X1X1X1X1X2Xt     o . +   #     # o . . +   #   # # # @ . # # # # # # # # # $ # - & # - & - - - & $ ; - ; ; ; ; ; ; ; ; ; 1 ; 1 ; ; 4 ; 4 ; > 4 2 4 ; 4 Z.2X1X1X1X1X1X1X1X1X1X1X1X1X1X1X1X1X1X1X1X1X1X1X1X1X1X1X1X1X1X1X1X1X1X1X1X1X2X{.7 q q q q q q q q q i q q q q q i q q i K |.{.q q q q q =.q.9.q.9.q.q.q.q.q.q.q.q.e.q.e.q.q.q.q.w.w.e.-.6 6 5 6 e q.q.q.0.e.e.q.e.e.e.e.e.e.e.e.e.e.e.e.e.q.e.e.e.c > > 4 , 4 , , < > < < ; 4 ; ; : : ; ; ; 4 ; ; ; < ; : ; C.1X1X1X1X1X1X1XR ; ; ; < 0 .X.X5X5X",
"5X5XP.P.M       . y 1X1X1X1X1X1X1X*X#             #       X #   # + # + + # @ # # # # # # # # # # # $ * - # - # - - - - - ; ; ; ; ; ; ; ; > ; > ; ; ; 4 4 ; 4 > 4 ; 4 ; , 4 , 4 $X1X1X1X1X1X1X1X1X1X1X1X1X1X1X1X1X1X1X1X1X1X1X1X1X1X1X1X1X1X1X1X1X1X1X1X1X1X1Xc.q q q q q q q q q q i q q q q q q i W ].1X1Xv.q q q i a q.0.q.q.q.q.q.q.q.q.q.q.q.q.q.q.q.q.q.q.q.q.q.' 6 6 4 7 v q.q.q.q.e.q.e.q.q.e.q.e.e.e.e.e.q.e.e.e.e.e.q.q.e 4 1 , : 4 ; 4 ; 4 , ; < ; 4 2 ; ; 4 ; : ; 1 , ; ; > ; ; d.1X1X1X1X1X1X1Xc.; ; ; ; < R..X5X5X",
"5X5XK.K.w       X D 1X1X1X1X1X1X1X!.          #   O o @   #   # O # O # # O # # # # # # # # # # # $ # - * $ $ % & - - - & ; $ ; ; - ; ; ; ; ; ; 1 > ; ; ; , 2 ; ; 4 , 4 , , 4 n 2X1X1X1X1X1X1X1X1X1X1X1X1X1X1X1X1X1X1X1X1X1X1X1X1X1X1X1X1X1X1X1X1X1X2X1X1X1X1XY q q i q q q q i q q q q q q i i ! {.2X2X1X1X! q q q q v q.9.q.8.9.q.9.q.9.9.q.q.q.q.q.q.q.9.q.q.q.q.e.c 6 6 6 6 ' q.0.e.q.0.e.0.q.q.q.e.e.e.e.e.e.q.q.e.e.q.q.e.7.4 ; 4 4 < 4 4 , 4 , > 4 1 4 ; ; 4 > < 4 ; ; 4 : , ; 4 ; 4 L 1X1X1X1X1X1X1XW.; < < ; ; b..X.X5X",
"5X5XK.K.#         ~ 1X1X1X1X1X1X1Xg.  o X   O X     #     . # o # + # o # # # # @ # # # # # # # # - # $ # - $ $ $ $ ; - $ - & ; ; ; ; ; ; ; ; ; ; 1 ; ; ; 4 : > ; 4 ; 4 4 4 4 Y 1X1X1X1X1X1X1X1X1X1X1X1X1X1X1X1X1X1X1X1X1X2X1X1X1X1X1X1X1X1X1X1X1X1X1X1X1X1X2Xs q q q q q q q q q q q q i u y.$X1X1X1X1X1X1XV q q i q | 8.9.8.q.9.0.q.q.q.0.9.q.q.q.q.q.q.q.q.q.q.q.0.a 6 6 6 4 -.0.q.0.0.0.0.0.q.q.q.q.e.w.e.e.e.q.q.q.q.q.q.q.' 2 4 2 4 4 ; 4 4 ; : : 1 1 ; 4 4 ; 4 ; ; 4 ; ; ; 1 ; ; > ; M 1X1X1X1X1X1X1X$X; ; ; ; ; i.oX.X5X",
"5X5XP.M.        X c.1X1X1X1X1X1X1XR       + @ X   #   X # O     @   # # @ # @ @ # # # # # # # # # = # $ # - $ $ $ ; - - ; ; - ; ; ; ; ; ; ; : ; 1 ; 4 ; 1 ; 4 ; : : 4 ; 4 : 4 c.1X1X1X1X1X1X1X1X1X1X1X1X1X1X1X1X1X1X1X1X1X1X1X1X1X1X1X1X1X1X1X1X1X1X1X1X1X1X].q q q q q i q q q i q q n d.3X2X2X1X1X1X1X1X3Xi q q q q =.9.q.9.8.q.9.8.9.q.9.q.q.9.9.w.q.w.q.3.q.0.0.r.2 6 4 6 e 0.0.0.0.0.e.0.e.q.q.e.w.e.e.e.w.q.q.q.q.q.q.q.q.v 4 4 4 ; 2 : 4 4 ; 4 4 ; 4 : 4 ; 4 ; 4 , ; 1 < : ; : ; ; < 6 2X1X1X1X1X1X<X1X0 ; > < ; U .X.X5X",
"5X5XK.l.#       . F.2X1X1X1X1X1X1XZ         X o     #   #     # # X # X # # # o # + # # # # # # % # $ & # $ # - & - ; $ & ; - ; = ; ; ; ; ; ; : 1 ; , ; : ; ; 4 1 2 > 4 : 4 4 }.1X1X1X1X1X1X1X1X1X1X1X1X1X1X1X1X1X1X1X1X1X1X1X1X1X1X1X1X1X1X1X1X1X1X1X1X1X1Xc.q q q q q q i q i i M v.3X1X1X1X1X1X1X1X1X2X~.i q i q r 3.3.q.3.9.0.9.0.9.0.9.0.0.q.8.q.9.8.q.q.q.w.0...6 6 6 7 l 0.0.0.0.0.0.0.0.0.0.q.q.0.0.0.q.0.q.0.0.e.0.e.0.a , 4 , 4 4 4 : ; 1 , 4 ; 4 4 ; 4 ; 4 2 ; : 4 ; ; ; < ; ; : ; {.1X1X1X1X1X1X1Xn : : > ; Z .X.X5X",
"5XK.K.6.        o  X2X1X1X1X1X1X1Xu o   o . # o   #       # # o O # + # # @ # # # # # # # # # # & # # & - - $ - $ - $ ; $ ; ; - - ; ; ; ; : ; ; ; ; ; 4 ; 4 : 4 ; 4 > 4 4 ; t 2X1X1X1X1X1X1X1X1X1X1X1X1X1X1X1X1X1X1X1X1X1X1X1X1X1X1X1X1X2X1X1X1X1X1X1X1X1X1XW q q q i q q q q Q D.1X1X1X1X1X1X1X1X1X1X1X2Xd.q q q q c q.8.9.q.8.8.0.8.0.9.0.0.9.3.q.8.q.q.q.3.q.9.9._ 7 6 6 6 _ 0.0.0.0.0.0.0.0.q.0.0.0.0.0.q.q.q.0.q.0.0.0.q.9.4 4 , 4 4 1 4 ; 4 4 4 ; 4 ; ; 4 ; 4 ; ; 4 , ; , 4 4 ; 1 : ; > W.1X1X1X1X1X1X1XD ; ; ; ; m .XXX5X",
"5XK.K.P         # >X1X1X1X1X1X1X2X; o . . @             +   #   # + # + o # # O # # # # # # # # # # - # # $ $ - & - - - - ; ; ; ; ; ; ; ; ; ; : ; 4 ; 4 4 1 : ; 4 1 4 2 , 4 L 1X1X1X1X1X1X1X1X1X1X1X1X1X1X1X1X1X1X1X1X1X1X1X1X1X1X1X1X1X1X1X1X1X1X1X1X1X1X>Xy q q i i q i E |.1X2X2X1X1X1X1X1X1X1X1X1X1X2XL q q q q ` 3.2.q.2.3.8.9.9.9.9.9.0.0.9.0.q.3.q.8.3.q.0.9.d 6 6 9 6 } 9.0.0.0.0.0.0.0.0.0.0.0.0.0.0.0.0.0.0.0.0.0.0.} 4 ; 4 4 1 4 : 4 : : 4 ; ; 4 ; 4 4 ; ; 4 ; 4 > ; ; 4 < ; ; 4 ; v.1X1X1X1X1X1X2XR : ; ; : i .X.X5X",
"5XK.K.F         q 1X1X1X1X1X1X1X*Xo o . @   .     # o # o #   #   # X # # @ # # + # # # # # # # # - $ % - $ $ = $ $ ; $ ; = = ; ; ; ; ; ; < ; ; ; < ; ; ; 1 ; 4 < 1 ; 4 4 , g.1X1X1X1X1X1X1X1X1X1X2X1X1X1X1X1X1X1X1X1X1X1X1X1X1X1X1X1X1X1X1X1X1X1X1X1X1X1X].q q q 9 y j.$X1X1X1X1X1X1X1X1X1X1X1X1X1X1X1X>Xy q i i q  .2.3.3.8.3.9.3.9.9.8.9.8.9.9.9.9.9.8.3.q.3.9.9.w 5 8 6 0 r.9.9.0.9.0.9.9.0.0.0.0.0.0.0.0.0.0.0.0.0.0.0.q.b 4 4 > 4 4 1 4 : 1 4 1 4 > 4 4 ; 2 4 4 ; 4 ; > > ; ; ; 4 ; ; > j.1X1X1X1X2X2X2Xj.; : : ; < `..X5X",
"5XK.P.M         s 2X2X1X1X1X1X1X|.@   X .         @ + O   # #   X # + # # # # o # # # # # # * # # $ # * - $ # - $ = = ; $ ; ; ; ; ; ; ; ; ; 1 ; ; 1 : ; 4 ; ; > , 4 1 1 , , !.1X1X1X1X1X1X1X1X1X1X1X1X1X1X1X1X1X1X1X1X1X1X1X1X1X1X1X1X1X1X1X1X1X1X1X1X1X2XS.q q V v.3X1X1X1X1X1X1X1X1X1X1X1X1X1X1X1X1X1X].q q q q t 2.3.2.3.3.8.3.3.9.8.9.9.9.3.8.9.3.q.3.8.3.q.9.-.5 5 q 0 a 9.9.9.9.0.9.9.9.0.8.0.0.9.0.0.9.0.0.0.0.0.0.0.9.p 4 4 2 2 4 , 4 > 4 4 4 ; 4 2 1 4 > > ; 4 < ; 4 > 4 ; ; , 4 ; ; Y 1X1X1X1X1X1X2Xc.4 ; ; 1 ; Q..X5X",
"5XJ.K.s         V 2X2X1X1X1X1X1XC.  X @ O # o .   # #   # O   # # X # o X # # # # # # # # # # # # # = - $ $ - - ; - - ; - $ ; - ; ; ; ; : ; < ; : ; ; 4 ; 1 4 > > ; 4 4 4 q 2X1X1X1X1X1X1X1X1X1X1X1X1X1X1X1X1X1X1X1X1X1X1X1X1X1X1X1X1X1X1X1X1X1X1X1X1X1X1XW K ~.1X1X1X1X1X1X1X1X1X1X1X1X1X1X1X1X1X1X1X1XS.i q q i d 2.2.3.2.3.3.3.3.3.3.3.3.3.9.3.9.2.q.q.3.q.8.9.` 9 9 8 8 v 9.9.9.9.9.9.9.9.9.0.8.9.9.9.9.0.0.8.9.8.0.0.0.8.3 4 4 4 4 4 4 1 4 4 < 2 4 ; 4 2 : 1 : 4 ; 4 ; > ; ; 4 ; : ; , < Z 1X1X1X1X1X1X2XZ.; ; < ; ; G..X5X",
"5XK.J.w         L 2X1X1X1X1X1X1Xc.  X O o   + #   .   #     #   O # . # # X # o # # # $ $ # # % - $ * # $ = = = $ - $ ; ; ; ; ; ; ; ; ; < ; ; < ; : ; ; 4 ; 4 2 4 ; 4 , 4 Z 1X1X1X1X1X1X1X1X1X1X1X1X1X1X1X1X1X1X1X1X1X1X1X1X1X1X1X1X1X1X1X1X1X1X1X1X1X1X1X=X1X1X1X1X1X1X1X1X1X1X1X1X1X1X1X1X1X1X1X1X1X1XW q q i q _ 2.4.2.2.2.2.3.2.2.3.3.3.3.3.3.3.3.8.2.3.3.8.8.c q 6 8 8 ` 9.9.9.2.9.8.9.9.9.8.9.9.9.9.9.9.9.0.9.0.8.8.0. .2 2 4 4 4 4 ; 4 2 ; 4 : 4 4 4 4 1 2 : > ; ; 4 4 < ; 4 4 ; 4 ; ; M 1X1X1X1X1X1X1X!.; < < ; < b..X5X",
"5XK.J.1         R 2X1X1X1X1X1X1Xj.  . X           # o O   # . # # @ # O # # # # # # # # # # # - % # & # $ = = - $ $ ; - = ; $ ; ; ; ; ; ; ; ; ; : ; 4 4 ; 4 ; 2 > 4 , : : y.1X1X1X1X1X1X1X1X1X1X1X1X1X1X1X1X1X1X1X1X1X1X1X1X1X1X1X1X1X1X1X1X1X1X1X1X1X1X1X1X1X1X1X1X1X1X1X1X1X1X1X1X1X1X1X1X1X1X1X1X1X2Xs i i q q } 4.2.4.2.2.2.2.2.2.2.3.2.3.2.3.3.3.3.2.3.3.3.3.a 9 5 8 8 =.2.2.9.2.9.9.9.8.8.8.9.8.9.9.9.9.9.9.9.8.0.0.8.) 2 4 4 4 4 4 4 4 > 4 4 4 ; 4 ; ; 4 1 > 2 4 < 2 ; ; 4 ; 4 ; ; 1 ; u 1X1X1X1X1X1X1X}.1 ; ; < ; l..X.X",
"5XJ.K.- O       t.1X1X1X1X1X1X1X~         + +   X   o # #   # . o # + #   # # # # # # # # % # # # # & - # - - - - - ; - ; ; $ ; ; ; ; ; ; > ; ; ; ; 4 ; 4 ; 4 < , 4 4 < 4 C.1X1X1X1X1X1X1X1X1X1X1X1X1X1X1X1X1X1X1X1X1X1X1X1X1X1X1X1X1X1X1X1X1X1X1X1X1X1X1X1X1X1X1X1X1X1X1X1X1X1X1X1X1X1X1X1X1X1X1X1X1X}.q q i q i =.4.4.4.4.4.3.4.2.2.2.2.2.2.2.2.2.2.3.2.3.2.3.=.q 9 5 q e 8.8.3.3.3.3.3.3.8.8.2.9.9.2.3.9.9.8.8.9.9.9.8.8.x - 4 4 4 4 > 4 4 4 ; 4 4 2 2 4 4 ; 4 ; 4 ; 4 ; 4 ; < ; 4 ; < ; , q 2X1X1X1X1X1X1X=X< ; 1 ; ; i..X.X",
"5XK.J.#         d.1X1X1X1X1X1X1XY   X X     #   #   #   X   O # # +   # # # # o # # # # # # # & $ * # $ $ = = - ; & & ; = ; ; ; ; ; ; ; ; > ; 4 ; 4 ; > ; 4 ; 4 4 ; < 4 4 >X1X1X1X1X1X1X1X1X1X1X1X1X1X1X1X1X1X1X1X1X1X1X1X2X1X1X1X1X1X1X1X1X1X1X1X1X1X1X1X1X1X1X1X1X1X1X1X1X1X1X1X1X1X1X1X1X1X1X1X1X1Xc.i i q q d <.4.4.4.4.4.4.1.4.4.4.1.2.2.4.2.2.2.2.2.2.2.2.} q q 7 9 d 2.3.3.3.3.2.8.2.3.3.9.9.2.9.9.8.3.8.8.8.8.8.8.8.3 3 4 4 4 4 , 4 , 4 4 4 1 1 4 ; 4 4 1 4 4 ; ; 4 ; 4 , ; ; 4 ; 4 ; 4 >X1X1X1X1X1X1X>X< < ; ; 4 6..X.X",
"5XJ.I.      X   k.1X1X1X1X1X1X1XL . X O   # X   +     #   # o   + # # # X # O # # # # # # $ # # & # - & $ & - $ ; - ; $ - ; ; ; ; ; > ; ; ; ; ; ; 4 4 ; 4 ; ; 4 1 4 , 4 M 1X1X1X1X1X1X1X1X1X1X1X1X1X1X1X1X1X1X1X1X1X1X1X1X1X1X1X1X1X1X1X1X1X1X1X1X1X1X1X1X1X1X1X1X1X1X1X1X1X1X1X1X1X1X1X1X1X1X1X1X1X1XY q i q i v <.<.<.<.<.4.4.1.1.1.1.1.1.1.4.1.4.2.4.2.2.2.2./ q 0 7 8 _ 1.2.2.2.2.2.3.2.2.2.2.2.9.2.2.2.8.8.8.8.8.8.9.%.> 2 , 4 4 4 4 4 4 > 4 4 4 4 2 : 4 : 1 4 ; > 1 , 4 ; ; 4 ; 4 ; , ; ; =X1X1X1X1X1X1X1X4 ; : 4 ; o..X.X",
"5XJ.N.          v.1X1X1X1X1X1X1XZ @   .     #   @ #     # O # # # o # + # # # # # # # # # # - * # = & # & & - $ = & ; - ; $ ; ; ; ; ; ; ; > ; 4 ; ; ; 4 ; > , , 4 ; 4 < R 1X1X1X1X1X1X1X1X1X1X1X1X1X1X1X1X1X1X1X1X1X1X1X1X1X1X1X1X1X1X1X1X1X1X1X1X1X1X1X1X1X1X1X1X1X1X1X1X1X1X1X1X1X1X1X1X1X1X1X1X1X1Xn q q i q ) <.<.<.<.<.<.<.<.1.<.1.1.<.1.1.1.4.1.4.4.4.4.4.l q q 5 8 } 1.2.4.2.2.2.2.2.2.2.2.2.2.2.2.2.2.3.8.8.1.8.8.` 2 2 4 4 4 4 4 , < 4 4 < ; 4 > 4 ; 4 4 ; 4 > : , 2 2 : 2 1 ; 4 ; 4 ; {.1X1X1X1X1X1X1Xq 1 ; ; ; U .X.X",
"5XK.n.  X       A.2X1X1X1X1X1X1XV   #       o # #     X #   + # # . # # o # # # # # # # % # % # - * # - - - - ; & - ; & ; ; ; ; ; ; ; ; > ; ; ; 2 ; 4 ; 2 , , 1 : > 2 4 V.>X1X1X1X1X1X1X1X1X1X1X1X1X1X2X1X1X1X1X1X1X1X1X1X1X1X1X1X1X1X1X1X1X1X1X1X1X1X1X1X1X1X1X1X1X1X1X1X1X1X1X1X1X1X1X1X1X1X1X1X1X{.i q i 9 q *.<.<.<.<.<.<.<.<.<.1.1.<.<.<.<.1.1.<.1.<.4.4.<.w 8 q q 9 =.1.<.1.4.4.4.1.1.1.1.2.1.2.1.2.1.2.2.2.2.2.2.8.c 2 3 4 4 : 4 4 , 4 4 4 < 4 : 2 < 4 1 4 4 > 4 1 < ; 4 > ; 4 > 4 ; , ; ].1X1X1X1X1X1X1Xt 1 ; < : P .X.X",
"5XJ.n.          Z.1X1X1X1X1X1X1XM . .     # + X @ + # .   # # . . #   # # # # + # # # # % # # # - # $ & & & - - $ ; & ; ; - - ; ; ; 2 ; ; ; 4 ; ; 4 ; : > > : : 4 , 4 4 $X1X1X1X1X1X1X1X1X1X1X1X1X1X1X1X1X1X1X1X1X1X1X1X1X1X1X1X1X1X1X1X1X1X1X1X1X1X1X1X1X1X1X1X1X1X1X1X1X1X1X1X1X1X1X1X1X1X1X1X1X1XS.q i 9 i r <.,.,.<.<.<.<.,.,.<.<.,.<.<.<.<.<.<.<.<.<.<.4.%.8 q 8 8 a 1.<.1.1.4.1.1.1.1.1.1.1.2.1.2.1.1.2.1.2.2.2.2.1.3 4 > 4 4 4 4 4 4 4 , > 4 < 4 4 4 < 2 ; ; 4 ; < : < < > 2 ; > ; 4 ; : ].1X1X1X1X1X1X1Xu ; < ; ; L .X.X",
"5XJ.n.          C.2X2X1X1X1X1X1XM o o .       # #   # # @ # @ # # # # # . # # # # # # # # # - * $ & * - $ - - - - - ; & ; ; ; ; ; < ; ; ; ; ; ; ; 4 ; : ; ; 4 4 ; < 4 y 1X1X1X1X1X1X1X1X1X1X1X1X1X1X1X1X1X1X1X1X1X1X1X1X1X1X1X1X1X1X1X1X1X1X1X2X1X1X1X1X1X1X1X1X1X1X1X1X1X1X1X1X1X1X1X1X1X1X1X1X1X1XW i q i i x ,.,.<.,.<.,.,.<.<.<.,.<.<.<.<.<.<.<.<.<.<.<.<.) q q 8 q v <.<.<.<.<.<.4.<.<.1.1.<.1.1.1.1.<.1.1.2.1.1.1.=.4 4 4 4 4 4 4 4 4 , 4 4 : 4 > 4 ; 1 4 4 2 ; 4 2 : ; 4 4 ; 4 ; > ; ; , !.1X1X1X1X1X1X1Xy ; ; < ; J .XoX",
"5XK.b.O     #   C.2X2X2X1X1X1X1XM o # .   # o @   #   @ # @ # @ # O + # # # # # @ # # # # # % # # * # - # - - ; - ; = ; ; = ; ; ; ; ; ; 4 ; 4 ; , ; 4 ; 4 < 4 ; 4 4 , W 1X1X1X1X1X1X1X1X1X1X1X1X1X1X1X1X1X1X1X1X1X1X1X1X1X1X1X1X1X1X1X1X1X1X1X1X1X1X1X1X1X1X1X1X1X1X1X1X1X1X1X1X1X1X1X1X1X1X1X1X1X1Xy q i i q ) ,.<.,.,.,.<.,.,.,.,.<.,.<.,.<.,.<.,.<.,.,.<.<.v 8 q 8 8 ) <.<.<.<.<.<.<.<.<.<.<.<.<.<.1.1.<.1.1.1.1.1.1.` 4 4 4 4 4 4 4 4 , 4 4 , 4 < 4 4 ; 4 4 ; 4 4 < 1 < > , ; 4 ; 4 ; 4 , ; !.1X1X2X1X1X1X1Xy 4 < ; < G .X.X",
"5XJ.n.    X     C.2X1X1X1X1X1X1XM   # +       # o o   # # X # @ # @ # # + # # # # # # # $ # $ & & & = - $ $ - - & $ - & $ ; ; ; ; ; ; < ; ; ; 4 ; 4 2 ; ; < 2 2 4 , 4 c.1X1X1X1X1X1X1X1X1X1X1X1X1X1X1X1X1X1X1X1X1X1X1X2X1X1X1X1X1X1X1X1X1X1X1X1X1X1X1X1X1X2X1X1X1X1X1X1X1X1X1X1X1X1X1X1X1X1X1X1X1X|.q i q q i [ ,.,.,.,.,.<.,.,.,.,.,.,.<.,.<.,.<.,.<.,.<.,.<.a q q q q %.,.<.<.<.<.,.<.<.<.,.<.<.<.<.<.<.<.<.<.<.<.<.1.c 2 2 2 4 4 4 4 4 4 4 4 1 : 4 : , 4 < ; 4 < 4 ; 4 ; 4 ; 4 ; 4 ; 4 ; 4 ; !.1X1X1X1X1X1X1Xy , ; 1 : H .X.X",
"5XJ.n.  +       C.1X1X1X1X1X1X1XM       @ # + o # # + X   # X # # # @ + # # # # # * # # # # # # # # $ # $ $ ; - ; ; ; ; ; ; ; ; ; ; ; ; : > ; ; ; ; : 4 4 < 2 4 , , , ].1X1X1X1X1X1X1X1X1X1X1X1X1X1X1X1X1X1X1X1X1X1X1X1X1X1X1X1X1X1X1X1X1X1X1X1X1X1X1X1X1X1X1X1X1X1X1X1X1X1X1X1X1X1X1X1X1X1X1X1X1XS.i q i q w ,.,.,.,.,.,.,.,.,.,.,.<.,.,.,.,.,.,.,.,.,.,.,.*.q q q q w ,.,.,.,.<.,.,.<.<.,.<.<.<.<.<.,.<.<.<.<.<.<.<.<.a > 3 6 4 4 4 4 4 4 4 4 4 4 > 4 > 4 : 4 < 4 ; 4 < 4 ; 4 ; 4 ; 4 ; 4 ; 1 !.1X1X1X1X1X1X1Xy : : ; ; J .X.X",
"5XK.M.#   .     V.2X1X1X1X1X1X1XV X     @ # #     o + # # o @ # . # # # # # # # # # % # = # - = & - $ $ & & $ & $ - - ; ; = ; ; ; ; ; ; ; 1 : ; 1 : 4 ; ; 4 4 ; , 4 i 2X1X1X1X1X1X1X1X1X1X1X1X1X1X1X1X1X1X1X1X1X1X1X1X1X1X1X1X1X1X1X1X1X1X1X1X1X1X1X1X1X1X1X1X1X1X1X1X1X1X1X1X1X1X1X1X1X1X1X1X1X2XZ q i q i d ,.,.,.>.>.>.,.>.,.>.,.,.,.,.,.,.,.,.,.,.,.,.,.{ 5 5 5 q d ,.,.,.,.,.,.,.<.,.,.<.<.,.<.,.<.,.<.,.<.<.<.<.=.6 , , , 4 4 4 4 4 4 4 1 4 4 4 ; 4 4 4 > ; ; 4 4 4 ; 4 ; > ; 4 ; , 4 ; ; !.1X1X1X1X1X1X1Xu : ; > < J .X.X",
"5XJ.B.  X o   # v.1X1X1X1X1X1X1XZ X # O .   . o   #   # X # # @ @ # # # # + # # # # # # $ # # # # $ $ $ = & $ ; - ; $ ; ; ; ; ; ; ; ; < ; ; ; > 1 ; ; 4 ; 1 : 4 4 , H 1X1X1X1X1X1X1X1X1X1X1X1X1X1X1X1X1X1X1X1X1X1X1X1X1X1X1X1X1X1X1X1X1X1X1X1X1X1X1X1X1X1X1X1X1X1X1X1X1X1X1X1X1X1X1X1X1X1X1X2XV.A i q q q i / >.,.>.>.,.>.,.>.>.,.,.>.>.>.,.,.>.,.,.,.,.,.>._ q q q 5 / ,.,.,.,.,.,.,.,.,.,.,.,.,.,.,.,.<.,.<.<.<.<.<.{ 4 6 , 6 4 4 4 4 1 4 4 1 ; 4 4 4 ; 4 , > 4 4 4 ; : 1 : 4 2 2 ; > > ; ; 4 ].1X1X1X1X2X1X1Xt ; : ; ; P .X.X",
"5XJ.I..   o o o v.1X1X1X1X1X1X1XH . o # o . #   # . + # # @ # # # # # # # # # # # # $ # # $ # $ - - & & $ - - = ; ; - ; ; ; ; ; ; ; ; : ; ; > ; ; ; 4 < ; 4 > ; , , d.1X1X1X1X1X1X1X1X1X1X1X1X1X1X1X1X1X1X1X1X1X1X1X1X1X1X1X1X1X1X1X1X1X1X1X1X1X1X1X1X1X1X1X1X1X1X1X1X1X1X1X1X1X1X1X1X1X3XS.N q q q q i q i { *.:.:.>.>.>.>.,.>.>.>.>.>.>.,.>.,.,.>.,.>.>.,.k q q 7 q { ,.,.,.*.,.,.&.*.,.,.,.,.,.,.,.,.,.,.,.<.,.<.<.x 4 4 6 4 4 4 4 4 4 4 4 4 4 4 < 4 ; 4 2 4 4 1 4 2 4 < ; 4 ; 4 ; < ; 4 , ; }.2X1X1X1X1X2X1Xq ; ; 4 < P .X.X",
"5XK.K.# +   o o g.2X1X1X1X1X1X1XK     .   #   #   # + +   # @ # X #   # # # # # # # # $ - # - $ * # $ $ = - ; = = - & ; $ ; - ; ; : ; ; ; 4 ; > 1 1 4 ; 4 ; , 4 4 , ~.1X1X2X1X1X1X1X1X1X1X1X1X1X1X1X1X1X1X1X1X1X1X1X1X1X1X1X1X1X1X1X1X1X1X1X1X1X1X1X1X1X1X1X1X1X1X1X1X1X1X1X1X1X1X2X Xt.u i q i q i i q i q *.>.:.>.>.>.>.>.>.>.>.>.>.>.>.>.>.>.>.>.>.>.>.>.i q 7 q 7 *.,.>.>.,.,.>.,.,.,.>.,.,.,.,.,.,.,.,.,.,.,.,.<.a 4 4 4 4 4 4 4 4 4 4 > 4 4 4 4 4 1 4 < 4 ; 4 ; > ; 4 4 ; 4 ; 4 ; , ; > , $X1X1X1X2X1X2X2X6 4 ; ; ; o.oX.X",
"5XK.K.; O + X X d.1X1X1X1X1X1X1XR # . #   . o   # O # +   #   # # # # # # # # # # # # = # - - # - - $ - $ = $ ; & ; ; & ; ; ; ; ; : ; < ; ; ; ; ; 4 ; 1 4 : , , , 5 >X1X1X1X1X1X1X1X1X1X1X1X1X1X2X1X1X1X1X1X1X1X1X1X1X1X1X1X1X1X1X1X1X1X1X1X1X1X1X1X1X1X1X1X1X1X1X1X1X1X1X1X1X1X~.K i i q i i q i i i i q a *.:.:.:.>.>.>.;.>.>.>.>.>.>.>.>.>.&.>.>.>.>.>.$.q q q 7 a *.>.>.>.>.>.>.>.>.&.,.>.>.*.,.>.,.,.,.*.,.,.,.*.6 4 4 4 4 4 4 4 4 4 < 2 4 2 > 4 4 4 > 4 2 4 4 ; 4 ; 4 < ; ; 4 , ; ; 4 ; , 3X1X1X1X1X1X1X>X; , 4 ; ; 6..X.X",
"5XJ.K.8 + . o   t.1X1X1X1X1X1X1Xt.  .   #   # #   #   # # @ # # o @ # # # # # # # # * # # # $ $ - # * - $ $ ; - - = ; ; ; ; ; ; ; ; ; ; ; 4 ; 4 ; ; < 2 ; 4 : : , Q 1X1X1X1X1X1X1X1X1X1X1X1X1X1X1X1X1X1X1X1X1X1X1X1X1X1X1X1X1X1X1X1X1X1X1X1X1X1X1X1X1X1X1X1X1X1X1X1X1X1X1X3Xc.S q i q q q q q q q q q q i v &.&.:.:.:.>.;.>.>.;.;.>.;.>.>.>.>.>.>.:.>.>.>.] q q q q j >.&.>.>.:.>.>.>.*.>.&.>.>.,.>.>.,.&.,.,.,.>.,.{ 6 4 6 4 4 4 4 2 4 4 4 4 4 4 4 4 ; < 4 ; 4 4 ; 4 < 4 4 ; 4 4 ; 4 4 ; > > 4 2X1X1X1X1X1X1X=X4 ; ; 2 ; i..X.X",
"5XK.K.r @ + # O Y 2X1X1X1X1X1X1Xh.# . #   o #   #   # # o # # . # # # # # # # # # % # # - % - $ $ $ $ = - - - ; ; $ ; ; ; ; ; ; ; ; ; ; 4 ; 4 ; : ; 4 ; 4 ; 6 L D.2X1X1X1X1X1X1X1X1X1X2X1X1X1X1X1X1X1X1X1X1X1X1X1X1X1X1X1X1X1X1X1X1X1X1X1X1X1X1X1X1X1X1X1X1X1X1X1X2X1X{.t.y i i q q q i q i q i q i q i q ] ;.;.:.:.;.:.>.>.>.;.>.;.:.>.&.>.;.&.:.:.:.:.:.j q 9 7 5 ( &.&.&.&.>.&.&.>.&.&.&.>.*.>.>.>.>.>.>.>.,.,.>./ 4 4 4 4 4 4 4 4 4 4 > 4 > 4 > 4 4 : 4 ; 4 2 4 4 ; 2 < > : ; 4 ; , : : ; i 1X1X1X1X1X1X1X].; ; ; 2 < f..X.X",
"5XJ.K.z + O O O H 1X1X1X1X1X1X1Xv.o   # #     # o # #   # + # . o # @ # # # # # # # * # & # # & - # = - - - - - $ ; ; - ; & ; ; ; ; ; ; ; ; ; > , ; ; 4 N h.=X1X1X2X1X1X1X1X1X1X1X1X1X1X1X1X1X1X1X1X1X1X1X1X1X1X1X1X1X1X1X1X1X1X1X1X1X1X1X1X1X1X1X1X1X1X1X1X1X2X1XD.H i i q q q q i i q q i i q q q i q q $.;.;.;.;.:.;.;.;.;.;.:.&.;.&.:.;.>.&.:.:.:.:.:.a q q q q $.&.&.&.&.&.&.&.:.*.&.&.&.&.:.:.:.>.>.>.>.*.>.>.d 4 4 4 4 6 4 4 4 4 4 4 4 4 4 4 4 ; 4 4 4 4 4 ; 4 4 : 4 < , 4 ; ; 4 : , , n 1X1X1X1X1X1X1X~.; 4 > ; ; n..X5X",
"5XK.K.B # . @ # V 2X1X1X1X1X1X1X~.. .   # @ @ # #   #   # # # # # + # # # # # # # & # # # - % - - * & - $ ; ; ; ; - ; & ; - ; ; ; ; ; ; ; ; ; 4 ; 7 Y ~.2X1X1X1X1X1X1X1X1X1X1X1X1X1X1X1X1X1X1X1X1X1X1X1X1X1X1X1X1X1X1X1X1X1X1X1X2X1X1X1X1X1X1X1X1X1X1X1X1X1X=Xg.N q q i i q q q q q q q q q q q i q w q r :.;.;.;.;.>.;.;.;.:.;.&.;.;.;.;.&.:.;.:.&.&.&.@.q 9 q q w *.@.&.&.@.&.@.&.:.@.&.&.@.&.:.&.&.*.*.:.&.*.>.&.0 4 6 4 4 4 4 4 4 4 4 > 4 4 < 4 > 4 ; 4 4 ; ; : ; 4 4 ; > < 4 ; 2 : : ; : C 1X1X1X1X1X1X1XV., ; 1 1 ; N..X5X",
"5XK.J.F         u 1X1X1X1X1X1X1X}.# o #   X # o   # . # . # X # # # # # # # # # # # & * $ # # - = & % - = - & $ $ ; = ; ; ; ; ; 4 ; ; < 2 > ; M c.3X2X1X2X1X1X1X1X1X1X1X1X1X1X1X1X1X1X1X1X1X1X1X1X1X1X1X1X1X1X1X1X1X1X1X1X1X1X1X1X1X1X1X1X1X1X1X1X1X1X1X~.Y i q q q q q q q i q i i q i i q i i q i q w k ;.;.;.;.;.;.;.;.;.;.;.;.&.;.:.;.;.&.;.&.@.&.@.{ q q q q d ;.;.@.&.@.&.&.&.@.&.@.&.&.&.&.&.&.&.:.:.&.&.>.[ 3 4 4 4 4 4 4 4 4 2 4 4 4 , 4 1 4 : 4 4 4 4 4 4 : : 4 ; > : ; 4 ; > ; : : L 1X1X1X1X1X1X2Xc.; 2 : ; : R..X5X",
"5XJ.K.U       # 4 2X2X1X1X1X1X1X:X#   # # # O #   # O # # # # # # # # # # # # # # # & # # * * = $ $ - - = ; - - - ; ; ; ; ; ; ; ; ; ; ; q R ].1X1X1X1X1X2X1X1X1X1X1X1X1X1X1X1X1X1X1X1X1X1X1X1X1X1X1X1X1X1X1X1X1X1X1X1X1X1X1X1X1X1X1X1X1X1X1X1X1X1X*XS.M q q i q i q q q i q q i q q q i q q q q q q i q ^ ;.;.;.;.O.;.;.;.;.;.;.;.@.:.@.&.@.&.@.@.:.@.@.^ q q q 0 / @.@.@.@.&.@.@.@.@.&.@.&.&.&.&.&.&.&.&.&.&.&.&./ 4 4 4 4 4 6 4 , 4 4 : 4 4 > 4 4 4 4 4 4 ; ; 4 ; ; 4 : ; 2 , 4 ; 1 1 ; 4 : t.1X1X1X1X1X1X1Xy.; 4 4 ; 1 `.XX5X",
"5XK.K.6.  #     # >X1X1X1X1X1X1X2X6 # o X @ # @ # # # o . X #   # # # # # # # # # & $ # * - # - $ & & - - - - ; $ ; - ; - ; ; ; ; ; Z v.>X1X1X1X1X1X1X1X1X1X1X1X1X1X1X1X1X1X1X1X1X1X1X1X1X1X1X1X1X1X1X1X1X1X1X1X1X1X1X1X1X1X1X1X1X1X1X1X1X1X1X!.E t q q q q q q q q q q q i q i q i q i q i i q i q i q $.;.;.;.;.;.;.;.;.;.;.;.;.@.@.;.@.&.@.&.@.&.@.&.k q q 9 q ] @.@.@.@.@.@.@.@.@.@.@.@.@.@.@.&.@.@.@.&.&.&.&.f 6 6 4 4 4 4 4 4 4 4 4 4 4 4 4 ; 4 > 2 4 4 4 4 4 4 1 < 4 1 > : 4 ; 4 2 ; : g.1X1X1X1X1X1X1XY : ; ; < t .X.X5X",
"5XK.K.f.# + + o . ].1X1X1X1X1X1X2XN #   # X . o # @ # O # # # # @ # # # # # # # # # $ # # $ $ # & * & - - - ; $ & ; = ; ; ; ; t y.}.1X1X1X1X1X1X1X1X1X1X1X1X1X1X1X1X1X1X1X1X1X1X1X1X1X1X1X1X1X1X1X1X1X1X1X1X1X1X1X1X1X1X2X1X1X1X1X1X1X1X1X1X3Xi q q q q q q q q q q q q q q i q q q q q q q i i q i q r O.;.;.;.;.;.;.;.;.;.;.;.+.:.@.@.;.;.&.@.@.@.@.@.w 9 q q 8 #.;.@.@.@.@.#.@.@.@.@.#.@.@.@.@.&.&.@.&.&.&.&.&.e 4 4 4 4 4 4 4 4 4 4 4 4 4 4 , 4 > 4 4 ; 4 ; < ; 4 < > 4 > 4 ; ; 4 ; : ; 1 Z.1X1X1X1X1X1X>XZ ; 4 1 ; N .X.X5X",
"5X5XK.n.  O   # # C.1X1X1X1X1X1X2XH @ #     # # o # + # # . # X # # # # # # # # $ # # # $ - $ & - # $ $ ; $ $ ; ; & ; ; - 6 v.2X1X1X1X1X1X1X1X1X1X1X1X1X1X1X1X1X1X1X1X1X1X1X1X1X1X1X1X1X1X1X1X1X1X1X1X1X1X1X1X1X1X1X1X1X1X1X1X1X1X1X1X1X1X2XW.q q q q q q i q q i q q i q q q q q i i q i q q q q q q d ;.;.O.;.;.O.;.O.;.O.;.;.;.;.@.;.@.@.@.@.@.&.@.$.q q 9 9 a ;.+.@.@.@.#.@.#.@.#.@.;.@.#.@.#.@.@.@.@.@.&.&.$.4 4 6 4 4 4 4 4 4 4 4 , 4 1 4 4 4 4 ; 4 > 4 4 < 4 < , : ; 2 ; 4 : ; 4 ; 4 : ].1X1X1X1X1X1X1Xn : ; ; ; F .X.X5X",
"5X5XK.K.* @ #   + h.1X1X1X1X1X1X1Xt.# # + # # . # # X # # + # # # # # # # # % * # # # - & $ # - $ & & - ; & - ; - = ; ; ; R 1X1X1X1X1X1X1X1X1X1X1X1X1X1X1X1X1X1X1X1X1X1X1X1X1X1X1X1X1X1X1X1X1X1X1X1X1X1X1X1X1X1X1X1X1X1X1X1X1X1X1X1X1X1X1X1Xj.7 q q q q q q q q q q q i i q q i q i q i q i q q i q i / +.+.+.;.+.;.;.+.;.;.+.;.+.;.;.+.+.;.;.;.+.;.+.] q 9 q 5 j #.@.O.+.@.+.+.@.+.+.#.@.@.+.@.@.@.@.@.&.#.&.&.( 4 4 4 4 4 4 4 4 4 4 1 4 1 4 1 4 , 4 ; 4 4 ; 4 2 4 : : < , < , ; 4 ; 4 ; : , >X1X1X1X1X1X1X2X6 ; : ; 2 T .X.X5X",
"5X5XK.J.r @ O # o R 1X1X1X1X1X1X1Xv.# o # . + # . # + # # o # # # # # # # # # # # - & # # % $ - $ = $ - & - $ ; ; ; ; - - C.1X1X1X1X1X1X1X1X1X1X1X1X1X1X1X1X1X1X1X1X1X1X1X1X1X1X1X1X1X1X1X1X1X1X1X1X1X1X1X1X1X1X1X1X1X1X1X1X1X1X1X1X1X1X1X1XZ q q q q q q q q q i q q q q q q q q q q q q q q i q q q ] ;.+.;.+.;.+.+.;.;.+.;.+.;.+.+.;.+.;.+.;.;.+.+.^ 9 q 9 q ] O.@.@.+.+.#.+.#.+.+.+.#.@.@.+.+.@.@.@.@.@.@.@.g 4 8 4 6 4 4 4 4 4 4 4 4 4 4 4 1 4 : 4 4 2 > 4 4 ; 4 4 ; 2 : 4 4 ; 4 ; , : y 1X1X1X1X1X1X1X{., , ; 2 ; p..X.X5X",
"5X5XK.K.N @ # @ # C 2X1X1X1X1X1X1X].o . . # + # # o # # # # # # @ # # # # # # # * # * $ = - $ $ & - & - - - ; = ; ; ; ; ; =X1X1X1X1X1X1X1X1X1X1X1X1X1X1X1X1X1X1X1X1X1X1X1X1X1X1X1X1X1X1X1X1X1X1X1X1X1X1X1X1X1X1X1X1X1X1X1X1X1X1X1X1X1X1X1X3Xi 9 q q 9 q q q q q 9 q q q q q q q q i q q q i q q i q w #.+.;.+.+.+.;.+.+.+.+.+.;.+.;.;.;.;.+.;.;.@.+.+.a q 9 5 9 $.#.O.@.+.+.+.#.+.+.+.+.+.+.+.+.#.+.@.#.+.@.@.@.e 8 4 4 4 4 4 4 4 4 4 4 4 : 1 4 4 4 4 : 1 : ; , ; 4 4 ; 4 1 4 ; ; , ; 4 ; 4 H 2X1X1X1X1X1X1XF.; ; , ; > n..X5X5X",
"5X5XK.K.H @   O . t 2X1X1X1X1X1X2X2X= # # o # o o # @ # # o # @ # # # # # # - # # $ # = $ - # $ $ = - - ; $ - ; - - = ; y 1X1X1X1X1X1X1X1X1X1X1X1X1X1X1X1X1X1X1X1X1X1X1X1X1X1X1X1X1X1X1X1X1X1X1X1X1X1X1X1X1X1X1X1X1X1X1X1X1X1X1X1X1X1X1X1XW.q q 9 9 q q q q q q q q 9 i q q q q q q q i q q q i q w a ;.;.+.;.;.;.+.+.;.;.;.+.+.;.+.+.+.+.;.+.+.@.+.+.q 9 9 9 a @.+.+.+.@.@.+.O.+.+.+.+.#.+.+.#.+.@.+.@.@.@.@.$.4 4 6 4 4 4 4 4 4 4 1 4 1 4 4 4 ; 4 : 4 > 4 4 4 4 ; 1 4 ; , ; < , , 1 ; 4 ; t.1X1X1X1X1X1X2Xg., , ; 4 ; R..X5X5X",
"5X5XK.K.6.@ O # o # 3X1X1X1X1X1X1X1Xs o   # # + # # X # # # # # # # # # # # % # - # # * # # - - $ $ = - = - $ ; ; ; ; ; K 2X1X1X1X1X1X1X1X1X1X1X1X1X1X1X1X1X1X1X1X1X1X1X1X1X1X1X1X1X1X1X1X1X1X1X1X1X1X1X1X1X1X1X1X1X1X1X1X1X1X1X1X1X1X1X1Xy.5 q q q q q q q q q q q i 9 q q q i q 9 q q i q q q q q h ;.+.+.;.+.+.+.+.+.+.;.+.+.;.+.;.;.+.+.+.;.@.@.] q 9 9 q g +.@.O.O.#.+.+.+.+.+.+.O.+.+.+.+.+.+.#.+.#.@.@.( 4 6 4 4 4 4 4 4 4 4 4 4 4 : 4 4 4 4 ; 4 4 ; ; 4 4 2 4 ; ; 4 ; 4 ; 2 < < ; , v.1X1X1X1X1X1X1XE ; < ; < q .X.X5X5X",
"5X5XK.K.k.# O # # # !.1X1X1X1X1X1X1XK # # O # #   # # # # X # # # # # # # # # # $ - # = $ $ $ - $ = - - ; ; - = ; & - ; g.1X1X1X1X1X1X1X1X1X1X1X1X1X1X1X1X1X1X1X1X1X1X1X1X1X1X1X1X1X1X1X1X1X1X1X1X1X1X1X1X1X1X1X1X1X1X1X1X1X1X1X1X1X1X1X1XZ q q q 7 q 9 q q q q q q q q q 9 q q q i 9 i q q q q q q ] +.+.;.+.+.+.;.+.;.+.+.;.+.+.;.+.+.;.+.;.+.@.+.^ 9 q 9 1 ( +.O.O.@.+.O.O.+.+.+.+.O.O.O.O.+.+.+.+.@.+.@.+.j 4 4 4 4 4 4 4 4 4 4 1 4 4 4 4 ; 1 4 4 1 4 4 4 , ; 4 : , 4 4 4 ; 4 ; 4 ; 4 ; }.1X1X1X1X1X1X1XV ; ; 4 ; M .X.X5X5X",
"5X5X5XK.I.* @ @ o o S.2X1X1X1X1X1X1Xh.X . # #   # # # # # O # # # # # # # # # * # # * # - - $ $ $ = - & & $ & ; & - ; ; !.1X1X1X1X1X1X1X1X1X1X1X1X1X1X1X2X1X1X1X1X1X1X1X1X1X1X1X1X1X1X1X1X1X1X1X1X2X1X1X1X1X1X1X1X1X1X1X1X1X1X1X1X1X1X1X>Xq 9 9 q q q q 0 q 0 q q q q q q i i q i 9 q q q q i q q 9 $.+.+.+.;.+.+.+.+.+.+.;.+.+.+.+.+.+.+.+.;.+.+.+.d q 9 9 9 ] @.+.O.+.O.+.+.O.O.O.O.O.O.+.+.+.#.+.+.+.+.+.@.p 4 4 4 4 4 4 4 4 1 4 4 4 4 ; 4 4 ; 4 > 4 ; 4 ; 4 4 ; < 2 > ; 4 ; 4 ; ; < > q >X1X1X1X1X1X1X1Xq , < ; ; P .X.X5X5X",
"5X5X5XP.K.t @ # o # Y 1X1X1X1X1X1X2X!.#   # # . + # #   # # # # # # # # # # % # # - - # - # * = $ $ ; = ; & ; - ; ; ; , >X1X1X1X1X1X1X1X1X1X1X1X1X1X1X1X1X1X1X1X1X1X1X1X1X1X1X1X2X1X1X1X1X1X1X1X1X1X1X1X1X1X1X1X1X1X2X1X1X1X1X1X1X1X1X1XW.q 6 q 5 7 q q q q q q q q q q q q 9 9 9 9 i q q q 9 q i a ;.+.+.+.+.+.+.;.+.+.;.+.+.+.+.;.+.;.+.;.+.;.@.+.i 9 q 9 w +.+.#.O.O.O.+.O.+.#.O.O.+.+.O.O.O.+.+.+.+.#.#.#.> 6 4 4 4 4 4 2 4 4 4 4 4 4 4 1 4 4 4 1 4 ; 4 4 2 2 4 4 ; , , ; 4 ; 4 ; > : A 1X1X1X1X1X1X1X].> ; ; 2 : a.XX.X5X5X",
"5X5X5XP.K.C # . #   n 2X1X1X1X1X1X1X2X; # # # # # # # # # # # # # # # # # # # - - # # - & $ # - = - - & ; $ ; = - ; & M 1X1X1X1X1X1X1X1X1X1X1X1X1X1X1X1X1X1X1X1X1X1X1X1X1X1X1X1X1X1X1X1X1X1X1X1X1X1X1X1X1X1X1X1X1X1X1X1X1X1X1X1X1X1X1X1Xj.9 q 7 6 q q q q q q q q q q q q q q q i 9 q q i 9 q q i ^ +.+.+.;.+.+.+.+.;.+.+.+.+.;.+.+.;.+.+.+.+.+.+.] q 9 9 q p +.O.O.O.O.O.O.O.O.O.O.O.O.O.O.O.+.O.+.+.#.+.+.] 4 4 4 4 4 4 4 4 4 4 4 4 < 4 > 4 4 4 4 ; 4 4 4 ; > , 2 ; 4 ; > ; 4 , , , ; < y.1X1X1X1X1X1X1Xv.; 4 2 ; ; G.XX5X5X5X",
"5X5X5XK.K.E   # O # & :X1X1X1X1X1X1X1XM # # O # o # o # # # # # # # # # * # % # # - & # - $ - - - - ; $ ; - $ ; ; ; - R 1X1X1X1X1X1X1X1X1X1X1X1X1X1X1X1X1X1X1X1X1X1X1X1X1X1X1X2X1X1X1X1X1X1X1X1X1X1X1X1X1X1X1X1X1X1X1X1X1X1X1X1X1X1X1X1XZ 9 9 5 7 6 q 7 8 9 q q q 9 q q q q q q q q q q 9 9 q i 9 ] +.;.+.+.+.+.+.+.+.+.+.+.+.+.+.+.+.;.+.;.+.;.;.( 9 q 1 q ^ +.O.+.+.#.O.+.O.O.O.O.O.O.O.O.O.+.+.O.+.O.+.@.h 4 4 4 4 4 4 , 4 4 < 4 4 4 4 4 : , ; 4 4 , ; 4 4 < > : 1 4 4 , 4 ; ; 4 ; 4 ; C.1X1X1X1X1X1X1XR : ; ; 4 4 .X.X5X5X5X",
"5X5X5XP.K.k.# + # X # ~.1X1X1X1X1X1X<Xt.# # o @ # # o # # # # # # # # = # # % # $ $ $ % - - = - $ - - - = = - ; ; ; ; v.1X1X1X1X1X1X1X1X1X1X1X1X1X1X1X1X1X1X1X1X1X1X1X1X1X1X1X1X1X1X1X2X1X1X1X1X1X1X1X1X1X1X1X1X1X1X1X1X1X1X1X1X1X1X2X>Xi q 5 6 q 6 q 7 0 q q 9 q q q q q 9 q q q q q q i 9 i 9 9 $.+.+.+.+.+.+.+.+.+.+.+.+.+.+.+.+.@.+.+.+.;.+.+.g q 9 q q ] O.O.O.O.O.O.O.O.O.O.O.O.O.O.+.O.O.O.+.O.+.O.#.p 8 4 4 4 4 4 4 4 2 4 4 1 4 ; 4 2 4 4 : 1 1 4 < 1 1 < > > ; ; : ; 2 ; ; ; > 4 *X1X1X2X1X1X1X1XV ; 1 ; ; B .X.X5X5X5X",
"5X5X5X5XK.K.- +   #   d.1X1X1X1X1X1X<XC.+ # # # o # # # o # # # # # # # # $ # & # & # - $ # & & $ ; - & = ; ; - ; & ; ].1X1X1X1X1X1X1X1X1X1X1X1X1X1X1X1X1X1X1X1X1X1X1X1X1X1X1X1X1X1X1X1X1X1X1X1X1X1X1X1X1X1X1X1X1X1X1X1X1X1X1X1X1X1X1XW.9 5 8 q 7 0 5 6 q 6 5 q 5 q 5 q 9 q q 5 9 q q q 9 9 9 9 e +.+.;.+.+.@.+.+.+.+.+.+.+.+.+.+.+.@.@.+.+.+.+.O.a q q 1 q #.+.+.O.+.O.O.O.O.O.O.O.O.O.O.O.O.O.#.O.+.+.O.O.3 4 4 4 4 4 4 4 4 4 2 > 4 2 4 4 , , : 2 : 4 ; 4 , : , 2 ; 4 1 4 ; , 4 ; 4 ; M 1X1X1X1X1X1X2X>X4 < ; 4 ; T .X.X5X5X5X",
"5X5X5X5XP.K.s # #   o Z 1X1X1X1X1X1X1X>X; # # + # + # # # # # # # # # $ # # - # $ # - # $ - - - - - - - = - & ; - ; 5 2X1X1X1X1X1X1X1X1X1X2X1X1X1X1X1X1X1X1X1X1X1X1X1X1X1X1X1X1X1X1X1X1X1X1X1X1X1X1X1X1X2X1X1X1X1X1X1X1X1X1X1X1X1X1X1Xd.6 8 8 6 q q 5 7 q 6 q q q q 7 q q q 9 q 9 9 9 9 9 9 i 9 g +.+.+.+.+.+.+.+.+.+.+.+.+.+.+.+.+.+.+.+.+.+.+.$.q q q 9 p +.+.#.O.O.O.O.O.O.O.O.O.O.O.O.O.O.O.O.O.O.O.+.] 4 4 4 4 4 4 4 4 4 4 4 4 4 , 4 ; 4 > ; 4 4 4 ; 4 1 1 4 ; 4 ; 4 1 ; 4 4 ; 1 4 t.1X1X1X1X1X1X1XW.< ; , ; ; k..X.X5X5X5X",
"5X5X5X5XP.K.I # X # # 4 >X1X1X1X1X1X1X1XV + # # # # # # # # # # # # # # $ # # = # * % & $ # & & & & - ; ; ; - ; ; ; V 2X1X1X1X1X1X1X1X1X1X1X1X1X1X1X1X1X1X1X1X1X1X1X1X1X1X1X1X1X1X1X1X1X1X1X1X1X1X1X1X1X1X1X1X1X1X1X1X1X1X1X1X1X2X1X1XQ 6 5 9 9 6 6 q 9 0 6 7 8 6 0 q q 9 q q 9 i 9 i 9 9 9 9 9 ( +.+.+.+.+.@.+.+.+.+.+.+.+.+.+.+.+.@.+.@.+.+.+.( 1 q 1 9 h O.O.O.O.O.O.O.O.O.O.O.O.O.O.O.O.O.O.+.O.+.+.O./ 8 2 4 4 4 4 4 2 4 2 4 > > 4 4 4 < < ; 4 ; 4 4 ; < : ; 4 ; 4 ; , 1 ; ; : < ; W.1X1X1X1X1X1X1Xj.; : ; < 4 ^..X5X5X5X5X",
"5X5X5X5XK.P.f.# #   # o !.1X1X1X1X1X1X2Xd.# # # # + # # # # # # # & # - # * # = = = # - # & - - $ & - $ - ; - ; = ; t.2X1X1X1X1X1X1X1X1X1X1X1X1X1X1X1X*X$X1X1X1X1X1X1X1X1X1X1X1X1X1X1X1X1X1X1X1X1X1X1X1X1X1X1X1X1X1X1X1X1X1X1X1X1X1X>Xi 6 6 6 6 5 8 6 6 5 q q 9 8 q 5 7 q q q 9 9 9 9 i i 9 9 i ( +.+.+.O.+.O.O.+.+.O.+.O.O.+.+.+.@.+.+.+.+.;.O.g 9 q 1 1 j O.O.O.O.O.O.O.O.O.O.O.O.O.O.O.O.O.O.O.O.O.+.+.p 2 8 4 4 4 4 4 2 4 4 2 4 4 4 , , 4 4 4 4 ; > , 4 ; < 4 ; 4 ; 4 ; ; 4 ; , ; q >X2X1X1X1X1X1X1XV ; ; < ; n .X.X5X5X5X5X",
"5X5X5X5X5XJ.J.# # # # # j.1X1X1X1X1X1X2X].# + # # # # + # # # # # # # # # & # # = # - = - $ $ & $ ; - $ ; $ $ ; ; - V.1X1X1X1X1X1X1X1X1X1X1X1X2X2X!.W 7 }.1X1X1X1X1X1X1X1X1X1X1X1X1X1X1X1X1X1X1X1X1X1X1X1X1X1X1X1X1X1X1X1X1X1X1X1X1X~.9 9 4 6 6 6 6 5 5 5 8 6 6 7 6 q 7 5 9 q 9 9 9 9 9 9 9 9 9 i k ^ ^ j ^ h ^ ^ ^ h h ^ ^ ^ ( h h h h h ^ h g 9 9 9 9 9 9 a f f k f f f f f f f f f f g g f g g g g g p 2 2 2 4 4 2 4 4 4 2 4 4 > ; 4 4 1 ; 4 4 1 4 : ; 4 4 < > 4 ; 4 ; 4 2 ; : ; : H 1X1X1X1X1X1X1X3X6 : 1 ; ; T .X.X5X5X5X5X",
"5X5X5X5X5XP.P.n @ # # + M 1X1X1X1X1X1X1X1Xu # # # # # # # # # # # # - # = $ # $ * - & - - = $ - - - - ; & - ; ; ; - 4X1X1X1X1X1X1X1X1X1X1X1X*XS.N ; , t 2X1X1X1X1X1X1X1X1X1X1X1X1X1X1X1X1X1X1X1X1X1X1X1X1X1X1X1X1X1X1X1X1X1X1X1X1X1Xd.5 6 6 5 6 9 9 9 6 5 9 9 q 9 6 6 q q 6 0 6 7 q q 0 7 q 0 7 q q 6 q q 6 5 q 7 6 9 q q 6 5 6 6 9 8 9 9 9 9 6 6 4 9 9 6 8 8 6 4 6 4 9 6 4 9 4 9 4 4 5 5 4 4 5 6 4 4 4 4 4 4 1 4 1 4 4 4 1 4 > 4 4 4 4 1 : 4 ; ; 4 ; 4 ; 4 2 < ; 4 ; ; 4 , : ; > > ; c.1X1X1X1X1X1X1XC.; 1 : 1 ; b..X.X5X5X5X5X",
"5X5X5X5X5XP.K.T # O O # - *X1X1X1X1X1X1X1XR # # # o # # # # # # # # # # % # = # # # # & - # # - - - $ ; - ; ; $ - t 2X1X1X1X1X1X1X1X1X2X!.Y 7 ; , ; ; H 1X1X1X1X1X1X1X1X1X1X1X1X1X1X1X1X1X1X1X1X1X1X1X1X1X1X1X1X1X1X1X1X1X1X1X1X1X1XH 7 4 7 6 6 9 4 5 5 8 9 5 5 7 q 6 6 5 7 9 q 5 6 5 8 q 9 9 q 8 0 5 7 8 5 q 7 7 q 5 6 9 9 5 q 6 6 8 6 9 9 6 6 8 9 4 6 6 4 5 4 5 5 9 4 4 6 4 4 4 6 4 4 4 4 4 4 4 4 4 4 4 4 4 4 4 4 4 , 4 4 , 4 1 4 ; 4 4 4 2 4 4 > 4 4 4 4 ; < 4 ; 4 : : ; ; , ; > 4 =X1X1X1X1X1X1X1XR 1 ; ; ; 8 )..X5X5X5X5X5X",
"5X5X5X5X5XP.P.x.# # # # # V.1X1X1X1X1X1X1X~.# # # o # # # # # # # $ % # # # & - - = - & $ $ & & ; - ; - $ ; - ; ; Q 1X1X1X1X1X1X1X3Xc.M : ; : ; : ; : h.1X1X1X1X1X1X1X1X1X1X1X1X1X1X1X1X1X1X1X1X1X1X1X1X1X1X1X1X1X1X1X2X1X1X1X1X1X2Xi 7 5 4 6 6 6 6 9 9 5 6 8 6 6 9 5 5 5 q q 9 9 5 9 6 6 q 5 q 9 q q 9 q 6 9 8 q 9 9 9 5 5 6 6 9 9 5 6 6 4 9 9 5 4 6 6 9 4 4 8 6 4 4 5 5 5 4 8 5 4 6 4 5 4 4 4 4 4 4 4 4 4 4 4 4 , 4 4 : 4 4 1 4 ; 4 ; ; 4 4 > > 4 : ; > > ; 2 ; 1 : ; < ; 4 ; ; > A 1X1X1X1X1X1X1X1Xy ; 2 ; , C .X.X5X5X5X5X5X",
"5X5X5X5X5X5XK.T.q O # @ # L 1X1X1X1X1X1X1X2Xi # # # # # # # # # # # # - # & # * $ # $ & $ $ $ = & - $ - - - ; = - j.1X1X1X1X1X].! q ; ; ; ; ; : ; : ; ~.1X1X1X1X1X2X1X1X1X1X1X1X1X1X1X1X1X1X1X1X1X1X1X1X1X1X1X1X1X1X1X1X1X1X1X1X1X|.7 4 6 6 5 4 5 9 8 4 6 6 5 9 5 5 6 5 5 8 9 9 q 6 q 6 9 8 6 6 q 9 9 9 6 6 9 5 6 6 0 7 8 5 6 5 9 9 4 6 6 6 6 9 6 6 4 9 9 6 5 4 6 4 6 4 4 4 6 4 4 5 4 4 4 4 4 5 4 4 4 4 2 4 4 , , 4 4 : 4 1 4 4 1 4 < > 4 > ; 4 , ; : , 4 ; 4 ; 4 ; ; 4 < 4 ; : > ; S.1X1X1X1X1X1X2X}.; > ; > ; i..X.X5X5X5X5X5X",
"5X5X5X5X5X5XP.P.G @ # # # 4 >X1X1X1X1X1X1X1XR # # # # # # # # # * # # # # - # % # = $ $ # - $ - - - ; $ ; $ ; & ; D.1X2X>XV.V ; ; ; ; ; : : ; ; ; , 6 >X1X1X1X1X1X1X1X1X1X1X1X1X1X1X1X1X1X1X1X2X1X1X1X1X1X1X1X1X1X1X1X1X1X1X1X1X1Xh.4 5 4 5 5 6 5 6 4 5 6 9 4 6 6 6 6 6 5 6 8 8 4 6 5 6 9 7 5 0 9 6 5 9 5 6 6 5 6 6 8 5 5 6 9 8 9 6 6 6 6 4 6 4 9 4 5 8 6 4 6 6 4 5 6 6 5 4 4 4 4 4 4 4 4 4 5 1 4 4 4 4 , 4 4 4 4 , 4 > 4 4 4 ; 4 1 1 4 2 4 ; < , > > 1 ; 4 ; 4 : ; 4 ; ; ; 4 ; , , =X1X1X1X1X1X1X1Xj., > ; > ; T..X.X5X5X5X5X5X",
"5X5X5X5X5X5XP.P.f.# # @ # # F.1X1X1X1X1X1X1X!.# # # # # # # # # # # & # $ # * # # $ - - & - $ - - $ $ - & ; & ; ; 3X=Xj.u ; ; : ; ; ; 4 ; ; ; : , ; V 2X1X1X1X1X1X1X1X1X1X1X1X1X1X1X1X1X1X1X1X1X1X1X1X1X1X1X1X1X1X1X1X1X1X1X1X1X1XL 5 9 5 4 5 4 6 9 5 5 6 5 9 6 9 4 6 5 9 4 9 9 9 9 6 6 9 9 0 5 6 9 4 9 6 5 6 5 6 6 6 9 9 4 9 4 6 6 5 9 6 9 9 4 4 9 4 4 4 6 4 4 4 6 4 4 6 4 5 4 4 5 5 4 4 5 4 4 4 4 4 4 4 4 2 4 4 4 4 4 ; 4 < 4 1 4 4 ; < 4 4 : , > 4 ; 4 ; 4 ; ; 4 ; : 4 ; 1 ; ; D 2X1X1X1X1X1X1X1XM ; , ; ; m .X.X5X5X5X5X5X5X",
"5X5X5X5X5X5X5XT.K.4 # o o # W 2X1X1X1X1X1X1X1Xu # # # # # # # # # # $ # # = % & - - = - $ = = = ; $ - ; - $ ; = 4 K , ; & ; ; ; ; ; ; ; > ; ; 4 ; , t.1X1X1X1X1X1X1X1X1X1X1X1X1X1X1X1X1X1X1X1X1X1X1X1X1X1X1X1X1X1X1X1X1X1X1X1X1X2Xu 5 4 5 4 6 4 6 4 9 4 4 9 4 6 9 4 9 8 9 5 6 9 9 9 6 6 6 6 6 6 5 6 5 5 5 6 5 5 6 6 6 8 9 5 4 6 4 5 4 9 4 4 8 6 5 4 4 6 4 5 6 4 4 4 6 4 4 4 4 5 4 4 4 4 4 4 4 4 4 4 4 4 2 4 4 < 4 , > 4 2 4 1 4 ; 4 2 1 4 ; > > 4 ; 2 ; ; 4 1 ; 4 ; , > 4 ; ; 4 > v.1X1X1X1X1X1X1X{.> , ; ; 4 6..X.X5X5X5X5X5X5X",
"5X5X5X5X5X5X5XP.P.Z # # # # 6 >X1X1X1X1X1X1X1Xd.# # # # # # # & # & # # = # - # * # * # = $ = & $ = & = ; ; - ; & ; ; ; & : ; ; : ; ; ; ; ; ; ; ; : D.1X1X1X1X1X1X1X1X1X1X1X1X1X1X1X1X1X1X1X1X1X1X1X1X1X1X1X1X1X1X1X1X1X1X1X1X1X].4 4 5 4 8 4 8 8 4 6 6 9 4 6 5 8 5 9 9 8 6 6 4 6 5 5 9 4 6 6 6 6 6 6 4 6 6 5 5 4 6 4 9 8 6 5 5 5 6 5 4 9 6 4 5 5 9 5 4 6 4 4 6 6 4 4 6 4 4 4 4 4 4 4 4 4 1 4 4 : 4 > 4 4 4 4 4 < 4 < > > 2 4 ; 4 4 ; 4 4 ; 2 : : 4 ; 4 4 ; < 4 ; 1 ; , ; 2 ; ; q >X1X1X1X1X1X1X1Xd.; ; > ; ; P..X.X5X5X5X5X5X5X",
"5X5X5X5X5X5X5XP.P.f.# # @ # # V.1X1X1X1X1X1X1X$X& # # # # # $ # * # # - # & & % $ $ - # $ = $ $ - $ $ ; - ; $ ; ; ; ; ; ; ; ; ; ; ; ; ; ; , ; ; ; ; *X1X1X1X1X1X1X1X1X1X1X1X1X1X1X1X1X1X1X1X1X1X1X1X1X1X1X1X1X1X1X1X1X1X1X1X1X1Xc.5 4 4 4 6 4 6 4 4 9 8 6 4 5 5 9 4 4 6 6 5 5 4 6 4 5 6 6 6 6 4 5 5 4 5 4 5 7 5 4 5 6 5 6 5 4 6 4 5 4 6 4 5 5 4 4 4 4 6 4 5 4 4 4 5 4 4 4 4 4 4 4 , 4 4 4 4 4 4 4 4 4 , 4 1 4 , 4 ; 4 4 > ; , 4 , 4 2 2 < : ; 4 ; 4 : ; , : 4 ; 4 4 ; , , : ; , R 2X1X1X1X1X1X1X2Xn ; < ; ; n .X.X5X5X5X5X5X5X5X",
"5X5X5X5X5X5X5X5XT.P.6 # # # # G 1X1X1X1X1X1X1X1XD # # # # # # # # # * # # & # $ # - = $ * $ - ; - ; & = $ ; ; - & - - ; ; & ; ; ; ; ; ; ; ; ; 1 2 N 1X1X1X1X1X1X1X1X1X1X1X1X1X1X1X1X1X1X1X1X1X1X1X1X1X1X1X1X1X1X1X1X1X1X1X1X1X1XS.4 4 6 6 6 6 4 6 4 4 6 6 5 6 4 6 6 5 6 4 6 5 5 8 5 5 9 9 q q q i t t u u u y s n n n N N M S V V C Z Z Q Q H L K K W Y Y E R ! ! ~ t.y.y.j.d.d.h.g.g.h.t.Y M 4 1 4 4 1 1 4 : 4 1 4 4 : 4 4 4 ; 4 ; 1 : > < : < > > ; 4 4 ; ; , ; ; 2 ; ; > : ; ].2X1X1X1X1X1X1X].< < ; < < u..X.X5X5X5X5X5X5X5X",
"5X5X5X5X5X5X5X5XP.T.G # @ # # ; *X1X1X1X1X1X1X1XC.# # $ # # # % # = # - # - - # - # & = % - - - = ; - - $ ; ; - & ; ; ; ; ; ; ; ; ; : ; ; , 1 ; ; E 1X1X1X1X1X1X1X1X1X1X1X1X1X1X1X1X1X1X1X1X1X1X1X1X1X1X1X1X1X1X1X1X1X1X1X1X1X1X1X=X=X=X=X$X=X=X%X=X=X=X=X=X=X*X=X*X*X3X3X3X>X>X>X>X2X1X1X1X<X1X1X1X1X1X1X1X1X1X2X2X1X1X2X1X2X1X1X1X1X1X1X1X1X1X2X1X1X1X1X1X2X2X1X1X1X1X1X1X1X1X1X1X1X1X1X1X1X$XK 4 , 4 : 4 , 4 , , 4 ; 2 2 1 4 ; 4 ; < 4 ; ; 4 ; 2 ; : ; 4 ; ; < ; ; < > ; ; V 1X1X1X1X1X1X1X2XX.; < ; ; 4 _..X.X5X5X5X5X5X5X5X",
"5X5X5X5X5X5X5X5XT.P.k.# # # # # g.1X1X1X1X1X1X1X2Xu # # # # # # # # $ # - # $ $ - - - - # & = - $ - - ; $ ; - = ; ; $ ; ; ; ; ; ; ; ; ; ; ; ; ; ; v.1X1X1X1X1X1X1X1X1X1X1X1X1X1X1X1X1X1X1X1X1X1X1X1X1X1X1X1X1X1X1X1X1X1X1X1X1X1X1X1X1X1X1X1X2X1X1X1X1X2X1X1X1X1X1X1X1X1X1X2X1X1X2X1X1X1X1X1X1X1X1X1X1X1X1X1X1X1X1X1X1X1X1X1X1X1X1X1X1X1X1X1X1X1X1X1X1X1X1X1X1X1X1X1X1X1X1X2X1X1X1X1X1X1X1X1X1X1X>XS 4 1 4 , 4 1 4 , 4 4 > 2 > 2 4 ; 4 2 > 4 ; : 4 ; 4 : , ; ; 4 ; 1 ; < ; 4 ; v.1X1X1X1X1X1X1X>Xt ; ; < ; A `..X5X5X5X5X5X5X5X5X",
"5X5X5X5X5X5X5X5X5XP.T.u # # @ # s 2X1X1X1X1X1X1X1Xh.# # % # # & # # # - - # $ - $ - = $ - - & - = - $ ; & ; $ ; $ ; & ; ; ; ; ; ; > ; ; 2 ; ; , : {.1X1X2X1X1X1X1X1X1X1X1X1X1X1X1X1X1X1X1X1X1X1X1X1X1X2X1X1X1X1X1X1X1X1X1X1X1X1X1X1X1X1X1X1X1X1X1X1X1X1X1X1X1X1X1X1X1X1X1X1X1X1X1X1X1X1X1X1X1X1X1X1X1X1X1X1X1X1X1X1X1X1X1X1X1X1X1X1X1X2X1X1X1X1X1X1X1X1X1X1X1X1X1X1X1X1X1X1X1X1X1X1X1X1X1X1X1X1X>Xd.4 4 < : 2 , 4 ; 4 , 4 ; 4 , 4 ; 4 ; ; 4 ; 1 : ; : ; ; 4 4 ; 4 ; > ; < ; u >X1X1X1X1X1X1X2XV.; ; : ; ; k.XX.X5X5X5X5X5X5X5X5X",
"5X5X5X5X5X5X5X5X5XT.P.o.# # # # # ~.1X2X1X1X1X1X1X3X6 # # # # # % # % # * $ # # # - # & # % - - $ ; & ; - $ ; = ; - ; ; - ; - ; ; ; ; ; ; ; ; ; u 1X1X1X1X1X1X1X1X1X1X1X1X1X1X1X1X1X1X1X1X1X1X1X1X1X1X1X1X1X1X1X1X1X1X1X1X1X1X1X1X1X1X1X1X1X1X1X1X1X1X1X1X1X1X1X1X1X1X1X1X1X1X1X1X1X1X1X1X1X1X1X1X1X1X1X1X1X1X1X1X1X1X1X1X1X1X1X1X1X1X1X1X1X1X1X1X1X1X1X1X1X1X1X1X1X1X1X1X1X1X1X1X1X1X1X1X1X1X1X1Xc.< 2 : 4 ; 4 4 ; 4 ; ; 4 ; 4 ; 4 ; < 4 ; ; < 4 ; ; 4 : ; ; , 4 ; ; ; 4 ; d.1X1X1X1X1X1X1X2XA : ; ; : w .X.X.X5X5X5X5X5X5X5X5X",
"5X5X5X5X5X5X5X5X5XT.P.J.; # # # # L 1X1X1X1X1X1X1X1Xt.$ # # # # # % $ - # = = $ - - - - - = - - $ - ; - ; ; - ; - & ; ; ; ; ; ; ; ; ; ; ; ; : : L 2X2X1X1X1X1X1X1X1X1X1X1X1X1X1X1X1X1X1X1X1X1X1X1X1X1X1X1X1X1X1X1X1X1X1X1X1X1X1X1X1X1X1X1X1X1X1X1X1X1X1X1X1X1X1X1X1X1X1X1X1X1X1X1X1X1X1X1X1X1X1X1X1X1X1X1X1X1X1X1X1X1X1X1X1X1X1X1X1X1X1X1X1X1X1X1X1X1X1X1X1X1X1X1X1X1X1X1X1X1X1X1X1X1X1X1X1X1X1X1Xd.; 4 4 < 4 4 2 4 2 4 4 > 4 ; 4 ; ; 4 ; 4 4 ; ; 4 ; 4 ; < ; ; ; ; 1 4 ; q *X1X1X1X1X1X1X1X}.: ; ; ; : T .X.X5X5X5X5X5X5X5X5X5X",
"5X5X5X5X5X5X5X5X5X5XT.P.Z # # # $ ; $X1X1X1X1X1X1X1X$X; % # # & & # # # # $ = # = # $ $ $ $ - - - - $ & = & ; = ; ; - ; ; ; ; ; ; ; ; ; > ; ; ; g.2X1X1X1X1X1X1X1X1X1X1X1X1X1X1X1X2X1X1X1X1X1X1X1X1X1X1X1X1X1X1X1X1X1X1X1X1X1X1X1X1X1X1X1X1X1X1X1X1X1X1X1X1X1X1X1X1X1X1X1X1X1X1X1X1X1X1X1X1X1X1X1X1X1X1X1X1X1X1X1X1X1X1X1X1X1X1X1X1X1X1X1X1X1X1X1X1X1X1X1X1X1X1X1X1X1X1X1X1X1X1X1X1X1X1X1X1X1X1X1XR 4 4 ; 4 2 ; 1 4 ; ; 4 ; ; 4 ; 4 4 ; 1 ; 4 ; , ; 1 ; < ; 4 ; ; < ; ; ; t.1X1X1X1X1X1X1X1XR : , ; ; 4 P..X.X5X5X5X5X5X5X5X5X5X",
"5X5X5X5X5X5X5X5X5X5XP.T.z.# # # # # t.1X1X1X1X1X1X1X1XE # # # % $ # & # - * & $ $ & # - % = = - ; - $ = ; ; = ; ; & - ; ; ; ; ; ; ; ; ; ; ; ; ; |.1X1X1X1X1X1X1X1X1X1X1X1X1X1X1X1X1X1X1X1X1X1X1X1X1X1X1X1X1X1X1X1X1X1X1X1X1X1X1X1X1X1X1X1X1X1X1X1X1X1X1X1X1X1X1X2X1X1X1X1X1X1X1X1X1X1X1X1X1X1X1X1X1X1X1X1X1X1X1X1X1X1X1X1X1X1X1X1X1X1X1X1X1X1X1X1X1X1X1X1X1X1X1X1X2X1X1X1X1X1X1X1X1X1X1X1X1X1X2X1XZ , 4 4 , 4 : : ; 4 ; 4 ; 4 ; ; 1 ; ; 4 ; > ; : ; 4 ; ; ; ; ; ; : ; ; 4 =X1X1X1X1X1X1X1X3Xq ; ; ; ; F .X`.5X5X5X5X5X5X5X5X5X5X",
"5X5X5X5X5X5X5X5X5X5X5XP.T.z # # # # 7 >X1X1X1X1X2X1X1X X; # # # # # # - & # # $ # - - - $ - $ - $ - - ; = - - & & ; ; = ; = ; ; ; ; : ; ; > ; 7 2X1X1X1X1X1X1X1X1X1X1X1X1X1X1X1X1X1X1X1X1X1X1X1X1X1X1X1X1X1X1X1X1X1X1X1X1X1X1X1X1X1X1X1X1X1X1X1X2X1X1X1X1X1X1X1X1X1X1X1X1X1X1X1X1X1X1X1X1X1X1X1X1X1X1X1X1X1X1X1X1X1X1X1X1X1X1X1X1X1X1X1X1X1X1X1X1X1X1X1X1X1X1X1X1X1X1X1X1X1X1X1X1X1X1X1X1X1X1X1X1Xy 4 ; ; , ; 4 < 4 ; 4 ; 4 ; 4 4 ; 4 ; ; , ; 4 ; > 2 ; 4 ; 4 ; ; ; , ; ! 1X1X1X1X1X2X1X1Xh.; ; > ; ; n..X.X5X5X5X5X5X5X5X5X5X5X",
"5X5X5X5X5X5X5X5X5X5X5XT.P.a.# # $ # # g.1X1X1X1X1X1X1X1XY % $ # # - = # * - $ - - # $ & $ & $ $ $ - & - - ; & ; ; & ; ; ; ; ; = ; ; ; ; ; ; ; A 2X2X1X1X1X1X1X1X1X1X1X1X1X1X1X1X1X1X1X1X1X1X1X1X1X1X1X1X1X1X1X1X1X1X1X1X1X1X1X1X1X1X1X1X1X1X1X1X1X1X1X1X1X1X1X1X1X1X1X1X1X1X1X1X1X1X1X1X1X1X1X1X1X1X1X1X1X1X1X1X1X1X1X1X1X1X1X1X1X1X1X1X1X1X1X1X1X1X1X1X1X1X1X1X1X1X1X1X1X1X1X1X1X1X1X1X1X1X1X1X*X4 > ; 4 , < 4 < ; 4 ; 4 ; : ; ; 4 ; : 4 4 ; ; ; 2 > ; ; 1 ; ; ; : : 5 $X1X1X1X1X1X1X1X>Xu ; < ; ; m .X.X5X5X5X5X5X5X5X5X5X5X5X",
"5X5X5X5X5X5X5X5X5X5X5XT.T.P.w # # # # t 2X1X1X1X1X1X1X1X X; % # # % # $ # = # - - $ $ $ $ $ $ ; ; - ; - = - ; - & ; = ; ; = ; ; ; ; ; ; ; ; ; y.1X1X1X1X1X1X1X1X1X1X1X1X1X1X1X1X1X1X1X1X1X1X1X1X1X1X1X1X1X1X1X1X1X1X1X1X2X1X1X1X1X1X1X1X1X1X1X1X1X1X1X1X1X1X1X1X1X1X1X1X1X1X1X1X1X1X1X1X1X1X1X1X1X1X1X1X1X1X1X1X1X1X1X1X1X1X1X1X1X1X1X1X1X1X1X1X1X1X1X1X1X1X1X1X1X1X1X1X1X1X1X1X1X1X1X1X1X1X1X1X!.2 < 4 ; 4 ; ; ; 4 ; 4 ; 4 ; 1 : ; 4 , ; ; ; , , ; 2 ; ; < ; 4 ; ; ; t.1X1X1X1X1X1X1X1Xv.; ; 1 ; ; f..X.X5X5X5X5X5X5X5X5X5X5X5X",
"5X5X5X5X5X5X5X5X5X5X5X5XP.T.X.* # # # # c.1X1X1X1X1X1X1X1X~ # # $ # # # # = $ * - $ $ # - - = - $ - ; & ; - ; ; ; - ; ; ; - ; - ; ; ; ; ; ; > F.1X1X1X1X1X1X1X1X1X1X1X1X1X1X1X1X1X1X1X1X1X1X1X1X1X1X1X1X1X1X1X1X1X1X1X1X1X1X1X1X1X1X1X1X1X1X1X1X1X1X1X1X1X1X1X1X1X1X1X1X1X1X1X1X1X1X1X1X1X1X1X1X1X1X1X1X1X1X1X1X1X1X1X1X1X1X1X1X1X1X1X1X1X1X1X1X1X1X1X1X1X1X1X1X1X1X1X1X1X1X1X1X1X1X1X1X1X1X1X1Xv.; : ; , , ; 2 4 ; > ; < < ; , ; 4 ; ; > ; ; < ; ; ; 2 ; > ; ; : ; q *X1X1X1X1X1X1X1X2Xn ; ; ; ; u )..X.X5X5X5X5X5X5X5X5X5X5X5X",
"5X5X5X5X5X5X5X5X5X5X5X5XT.T.K.8 # # $ # u 2X1X1X1X1X1X1X1X=X6 & # $ = * - # # - $ $ = = - - - - $ = ; & & = $ - ; = - ; ; & ; ; ; ; ; ; ; ; , 3X1X1X1X1X1X1X1X1X1X1X1X1X1X1X1X1X1X1X1X1X1X1X1X1X1X1X1X1X2X1X1X1X1X1X1X1X1X1X1X1X1X1X1X1X1X1X1X1X1X1X1X1X1X1X1X1X1X1X1X1X1X1X1X1X1X1X1X1X1X1X1X1X1X1X1X1X1X1X1X1X1X1X1X1X1X1X1X1X1X1X1X1X1X1X1X1X1X1X1X1X1X1X1X1X1X1X1X1X1X1X1X1X1X1X1X1X1X1X1X1X6.2 , , , ; 4 , ; 4 ; 4 ; 1 4 ; , ; ; 1 ; 4 ; ; ; 4 ; < ; ; , ; ; ; h.1X1X1X1X1X1X1X1XA.; ; ; ; ; p..X.X5X5X5X5X5X5X5X5X5X5X5X5X",
"5X5X5X5X5X5X5X5X5X5X5X5X5XT.T.T # # # # $ v.2X1X1X1X1X1X1X1Xd.# # - $ - - = # - # # - = - = & - $ ; & = = ; = ; - ; - ; ; ; ; ; ; ; - ; ; ; M 1X1X1X1X1X1X1X1X1X1X1X2X1X1X1X1X1X1X1X1X1X1X1X1X1X1X1X1X1X1X1X1X1X1X1X1X1X1X1X1X1X1X1X1X1X1X1X1X1X1X1X1X1X1X1X1X1X1X1X1X1X1X1X1X1X1X1X1X1X1X1X1X1X1X1X1X1X1X1X1X1X1X1X1X1X1X1X1X1X1X1X1X1X1X1X1X1X1X1X1X1X1X1X1X1X1X1X1X1X1X1X1X1X1X1X1X1X1X1X2X1XV ; , , 4 ; , ; > ; > ; , ; ; ; 4 ; ; ; ; , ; ; ; ; : ; ; ; ; ; ; y >X1X1X1X1X1X1X1X2Xn ; < < ; t /..X.X5X5X5X5X5X5X5X5X5X5X5X5X",
"5X5X5X5X5X5X5X5X5X5X5X5X5XT.T.J.4 # # # # t >X2X1X1X1X1X1X1X>Xt # & # # - # $ % - & - - & = - & $ - - - $ ; - & ; & ; ; ; - ; ; ; ; ; ; ; ; R 1X1X1X1X1X1X1X1X1X1X1X1X1X1X1X1X1X1X1X2X1X1X1X1X1X1X1X1X1X1X1X1X1X1X1X1X1X1X1X1X1X1X1X1X1X1X1X1X1X1X1X1X1X1X1X1X1X1X1X1X1X1X1X1X1X1X2X1X1X1X1X1X1X1X2X1X1X1X1X1X1X1X1X1X1X1X1X1X1X1X1X1X1X1X1X1X1X1X1X1X1X1X1X1X1X1X1X1X1X1X1X1X1X1X1X1X1X1X1X2X2Xi , : ; ; : ; 4 4 ; ; 4 ; , ; < ; ; < 4 ; ; 4 ; ; > ; ; : ; < ; ; V.1X1X1X1X1X1X1X2Xv.; ; ; ; ; i..X.X5X5X5X5X5X5X5X5X5X5X5X5X5X",
"5X5X5X5X5X5X5X5X5X5X5X5X5X5XT.T.T # # # # $ g.1X1X1X1X1X1X1X1XZ.& # $ # & & # - - # $ - - $ ; = - - = = - ; & - ; ; $ ; - ; ; - ; ; ; - ; ; V.2X1X1X1X1X1X1X1X1X1X1X1X1X1X1X1X1X1X1X1X1X1X1X1X1X1X1X1X1X1X1X1X1X1X1X1X1X1X1X1X1X1X1X1X1X1X1X1X1X1X1X1X1X1X1X1X1X1X1X1X1X1X1X1X1X1X1X1X1X1X1X1X1X1X1X1X1X1X1X1X1X1X1X1X1X1X1X1X1X1X1X1X1X1X1X1X1X1X1X1X1X1X1X1X1X1X1X1X1X1X1X1X1X1X1X1X1X1X1X1X X; 4 ; 4 ; 4 ; 2 ; > ; > ; ; 4 ; 4 ; ; ; ; : < ; ; ; ; ; ; ; : ; A 2X1X1X1X1X1X1X1X>Xy ; ; ; ; t ).`..X5X5X5X5X5X5X5X5X5X5X5X5X5X",
"5X5X5X5X5X5X5X5X5X5X5X5X5X5XT.T.P.q # # # & q 3X2X1X1X1X1X1X2X2XA # # & $ # $ = - $ $ - $ $ $ - $ ; $ ; - ; & ; - ; - ; $ ; ; & ; ; ; ; ; ; $X1X1X1X1X1X1X1X1X1X1X1X1X1X1X1X1X1X1X1X1X1X1X1X1X1X1X1X1X1X1X1X1X1X1X1X1X1X1X1X1X1X1X1X1X1X1X1X1X1X1X1X1X1X1X1X1X1X1X1X1X1X1X1X1X1X1X1X1X1X1X1X1X1X1X1X1X1X1X1X1X1X1X1X1X1X1X1X1X1X1X1X1X1X1X1X1X1X1X1X1X1X1X1X1X1X1X1X1X1X1X1X1X1X1X1X1X1X1X1X1XV.2 ; > ; , ; 2 ; < ; ; 4 ; 2 ; ; ; > ; : ; ; ; ; ; : ; > ; ; ; 4 ].1X1X1X1X1X1X1X1Xg.; , ; ; ; p..X.X5X5X5X5X5X5X5X5X5X5X5X5X5X5X",
"5X5X5X5X5X5X5X5X5X5X5X5X5X5X5XT.T.X.# # # # # t.1X1X1X1X1X1X1X1X}.: # $ % % # # = $ $ # = = = - = - ; & $ & - ; ; - - ; ; ; & ; - - ; ; ; u 1X1X1X1X1X1X1X1X1X1X1X1X1X1X1X1X1X1X1X1X1X1X1X1X1X1X1X1X1X1X1X1X1X1X1X1X1X1X1X1X1X1X2X1X1X1X1X1X1X1X1X1X1X1X1X1X1X1X1X1X1X1X1X1X1X1X1X1X1X1X1X1X1X1X1X1X1X1X1X1X1X1X1X1X1X1X1X1X1X1X1X1X1X1X1X1X1X1X1X1X1X1X1X1X1X1X1X1X1X1X1X1X1X1X1X1X1X1X1X1X2Xt.; 1 4 ; ; ; ; : ; ; ; ; ; < , ; ; ; ; 1 ; ; ; < > ; ; ; ; > ; t.1X1X1X1X1X1X1X1X-Xw < ; : ; y `..X`.5X5X5X5X5X5X5X5X5X5X5X5X5X5X",
"5X5X5X5X5X5X5X5X5X5X5X5X5X5X5XT.T.T.t # # & # :  X1X1X1X1X1X1X1X1Xy.$ $ # & & - # $ % $ - & = - = - $ - - $ ; - - = ; ; = ; ; ; ; ; ; ; - K 1X1X1X1X2X1X1X1X1X1X1X1X1X1X1X1X1X1X1X1X1X1X1X1X1X1X1X1X1X1X1X1X1X1X1X1X2X1X1X1X1X1X1X1X1X1X1X1X1X1X1X1X1X1X1X1X1X1X1X1X1X1X1X1X1X1X1X1X1X1X1X1X1X1X1X1X1X1X1X1X1X1X1X1X1X1X1X1X1X1X2X1X1X1X1X1X1X1X1X1X1X1X1X1X1X1X1X1X1X1X1X1X1X1X1X1X1X1X2X2X2XZ 4 ; ; ; ; 4 , ; ; , < ; ; ; > ; : ; ; ; ; : ; ; ; ; ; ; ; ; y >X1X1X1X1X1X1X1X1Xt.; ; ; ; ; k..X.X5X5X5X5X5X5X5X5X5X5X5X5X5X5X5X",
"5X5X5X5X5X5X5X5X5X5X5X5X5X5X5X5XT.R.i.# # & # # L 2X1X1X1X1X1X1X1X>Xy $ - - & # - # - - $ - = - - - $ ; ; = ; & ; $ ; - - ; & ; & ; & ; ; S.2X1X1X1X1X1X1X1X1X1X1X1X1X1X2X1X1X1X1X1X1X1X1X1X1X1X1X1X1X1X1X1X1X1X1X1X1X1X1X1X1X1X1X1X1X1X1X1X1X1X1X1X1X1X1X1X1X1X1X1X1X1X1X1X1X1X1X1X1X1X1X1X1X1X1X1X1X1X1X1X1X1X1X1X1X1X1X1X1X1X1X1X1X1X1X1X1X1X1X1X1X1X1X1X1X1X1X1X1X1X1X1X1X1X1X1X1X1X1X1X>Xq ; 4 ; ; ; ; , ; ; > ; : ; ; ; < : ; ; ; : ; ; ; ; ; ; ; & ; W.1X1X1X1X1X1X1X1X{.4 ; ; ; ; N .X`.`.5X5X5X5X5X5X5X5X5X5X5X5X5X5X5X",
"5X5X5X5X5X5X5X5X5X5X5X5X5X5X5X5XT.T.T.n # # # & $ W.1X1X1X1X1X1X1X1X!.- # # - = & & = = - - $ - - $ $ - $ $ - - - ; - ; ; & ; ; ; ; ; ; ; ].1X2X1X1X1X1X1X1X1X1X1X1X1X1X1X1X1X1X1X1X1X1X1X1X1X1X1X1X1X1X1X1X1X1X1X1X1X1X1X1X1X1X1X1X1X1X1X1X1X1X1X1X1X1X1X1X1X1X1X1X1X1X1X1X1X1X1X1X1X1X1X1X1X1X1X1X1X1X1X1X1X1X1X1X1X1X1X1X1X1X1X1X1X1X1X1X1X1X1X1X1X1X1X1X1X1X1X1X1X1X1X1X1X1X1X1X1X1X1X1X].: ; ; , ; > ; ; : ; ; ; ; 2 ; ; ; ; ; ; ; ; ; ; ; ; : ; ; ; R 1X1X1X1X1X1X1X1X1XH ; ; ; ; < M..X.X5X5X5X5X5X5X5X5X5X5X5X5X5X5X5X5X",
"5X5X5X5X5X5X5X5X5X5X5X5X5X5X5X5X5XT.T.z.& $ # # # y >X2X1X1X1X1X1X1X>Xt.$ % # & $ $ = # & # & & = ; = = - - - ; $ - = ; & ; - ; ; - ; ; q 2X1X1X1X1X1X1X1X1X1X1X1X1X1X1X1X1X1X1X1X1X1X1X1X1X1X1X1X1X1X1X1X1X1X1X1X1X1X1X1X1X1X1X1X1X1X1X1X1X1X1X1X1X2X1X1X1X1X1X1X1X1X1X1X1X1X1X1X1X1X1X1X1X1X1X1X1X1X1X1X1X1X1X1X1X1X1X1X1X2X1X1X1X1X1X1X1X1X1X1X1X1X1X1X1X2X1X1X1X1X1X1X1X1X1X1X1X1X1X1X1Xc.; > ; ; ; ; , : ; > ; : ; ; < ; ; ; ; ; ; ; ; ; ; ; ; ; ; y *X1X1X1X1X1X1X2X2XC.; ; ; ; ; J .X`..X5X5X5X5X5X5X5X5X5X5X5X5X5X5X5X5X",
"5X5X5X5X5X5X5X5X5X5X5X5X5X5X5X5X5X5XT.R.F # # $ # $ j.1X1X1X1X1X1X1X1X>Xn # - # $ - - - $ = & $ $ $ ; - - = $ ; ; $ ; & ; & & ; ; ; ; ; Z 1X1X1X1X1X1X1X1X1X1X1X1X1X1X1X1X1X1X1X1X1X1X1X1X1X1X1X1X1X1X1X1X1X1X1X1X1X1X1X1X1X1X1X1X1X1X1X1X1X1X1X1X1X1X1X1X1X1X1X1X1X1X1X1X1X1X2X1X1X1X1X1X1X1X1X1X1X1X1X1X1X1X1X1X1X1X1X1X1X1X1X1X1X1X1X1X1X1X1X1X1X1X1X1X1X1X1X1X1X1X2X1X1X1X1X1X1X1X1X1X1XE : ; < ; ; ; ; ; ; ; ; ; ; ; ; ; ; ; ; ; ; ; ; ; ; ; ; ; : ~.1X1X1X1X1X1X1X1X>Xu - ; ; ; 8 T..X.X5X5X5X5X5X5X5X5X5X5X5X5X5X5X5X5X5X",
"5X5X5X5X5X5X5X5X5X5X5X5X5X5X5X5X5X5XR.T.J.4 # % # # , }.1X1X1X1X1X1X1X1X|.; $ $ $ # - # - - $ - = - - - ; $ & & - ; $ ; = ; $ ; ; ; - ; j.2X1X1X1X1X1X1X1X1X1X1X1X1X1X1X1X1X1X1X1X1X1X1X1X1X1X1X1X1X1X1X1X1X1X1X1X1X2X1X1X1X1X1X1X1X1X1X1X1X1X1X1X1X1X1X1X1X1X1X1X1X1X1X1X1X1X1X1X1X1X1X1X1X1X1X1X1X1X1X1X1X1X1X1X1X1X1X1X1X1X1X1X1X1X1X1X1X2X1X1X1X1X1X1X1X1X1X1X1X1X1X1X1X1X1X1X1X1X1X1X2XN : ; ; 1 ; ; ; ; : ; ; ; ; ; ; ; : ; ; ; ; ; ; ; ; ; ; ; t.1X1X1X1X1X1X1X1X1Xt.- ; ; ; ; i.`..X5X5X5X5X5X5X5X5X5X5X5X5X5X5X5X5X5X5X",
"5X5X5X5X5X5X5X5X5X5X5X5X5X5X5X5X5X5X5XT.T.6.# # # = # V 2X1X1X1X1X1X1X1X1Xh.# $ * $ & $ - - = - - - - - - & ; & ; - ; - - ; $ ; ; & ; ; W.2X1X1X1X1X1X1X1X1X1X1X1X1X1X1X1X1X1X1X1X1X1X1X1X1X1X1X1X1X1X1X1X1X1X1X1X1X1X1X1X1X1X1X1X1X1X1X1X1X1X1X1X1X1X1X1X1X1X1X1X1X1X1X1X1X1X1X1X1X1X1X1X1X1X1X1X1X1X1X1X1X1X1X1X1X1X1X1X1X1X1X1X1X1X1X1X1X1X1X1X1X1X1X1X1X1X1X1X1X1X1X1X1X1X1X1X1X1X1X1X*X: ; ; ; ; ; ; ; ; ; ; ; : ; ; ; ; = ; ; & ; ; ; ; ; ; ; M 2X1X1X1X1X1X1X2X2X|.: ; ; ; - m )..X`.5X5X5X5X5X5X5X5X5X5X5X5X5X5X5X5X5X5X",
"5X5X5X5X5X5X5X5X5X5X5X5X5X5X5X5X5X5X5XT.T.T.m # # & $ # g.1X1X1X1X1X1X1X1X2XZ $ # - - - & $ = & - = - ; $ $ ; - & ; ; ; ; ; = ; ; ; ; , >X1X1X1X1X1X1X1X1X1X1X1X1X1X1X1X1X1X1X1X1X1X1X1X1X1X1X1X1X1X1X1X1X1X1X1X1X1X1X1X1X1X1X1X1X1X1X1X1X1X2X1X1X1X1X1X1X1X1X1X1X1X1X2X1X1X1X1X1X1X1X1X1X1X1X1X1X1X1X1X2X1X1X1X1X1X1X1X1X1X1X1X1X1X1X1X1X1X1X1X1X1X1X1X1X1X1X1X1X1X1X1X1X1X1X1X1X1X1X1X1XF.; ; ; ; ; ; ; ; ; ; ; ; ; ; ; = ; ; ; ; ; ; ; ; ; & ; q  X1X1X1X1X1X1X1X1X>XN ; ; ; ; < N..X).5X5X5X5X5X5X5X5X5X5X5X5X5X5X5X5X5X5X5X",
"5X5X5X5X5X5X5X5X5X5X5X5X5X5X5X5X5X5X5X5XR.T.n.; $ # # $ 4 {.1X1X1X1X1X1X1X1X=Xi $ $ = # & = $ = - = = $ ; - = = = - $ - = - $ ; - ; - M 2X2X1X1X1X1X1X1X1X1X1X1X1X2X1X1X1X1X1X1X1X1X1X1X2X1X1X1X1X1X1X1X1X1X1X1X1X1X1X1X1X1X1X1X1X1X1X1X1X1X1X1X1X1X1X1X1X1X1X1X1X1X1X1X1X1X1X1X1X1X1X1X1X1X1X1X1X1X1X1X1X1X1X1X1X1X1X1X1X1X1X1X1X1X1X1X1X1X1X1X1X1X1X1X1X1X1X1X1X1X1X1X1X1X1X1X1X1X1X1X1Xj.; ; ; ; ; ; ; ; ; ; ; ; ; ; ; ; ; ; ; ; ; - & ; ; ; : Z.1X1X1X1X1X1X1X1X1Xy.; ; - ; = T ).`..X5X5X5X5X5X5X5X5X5X5X5X5X5X5X5X5X5X5X5X",
"5X5X5X5X5X5X5X5X5X5X5X5X5X5X5X5X5X5X5X5X5XT.T.T # # - # * M >X1X1X1X1X1X1X1X1X~.; = # $ = $ & - - - $ $ - ; $ - $ ; = ; - ; $ ; ; & ; ~ 1X1X1X1X1X1X1X1X1X1X1X1X1X1X1X1X1X1X1X1X1X1X1X1X1X1X1X1X1X1X1X1X1X1X1X1X1X1X1X1X1X1X1X1X1X1X1X1X1X1X1X1X1X1X1X1X1X1X1X1X1X1X1X1X1X1X1X1X1X1X1X1X1X1X1X1X1X1X1X1X1X1X1X1X1X1X1X1X1X1X1X1X1X1X1X1X1X1X1X1X1X1X1X1X1X1X1X1X1X1X1X1X1X1X1X1X1X1X1X1X2XQ ; ; ; ; ; ; ; ; ; ; ; ; ; ; ; ; ; ; ; ; - ; ; ; - ; t.2X1X1X1X1X1X1X1X1X!.1 & ; & ; y (..X.X5X5X5X5X5X5X5X5X5X5X5X5X5X5X5X5X5X5X5X5X",
"5X5X5X5X5X5X5X5X5X5X5X5X5X5X5X5X5X5X5X5X5XT.R.T.y - # $ - # y.1X1X1X1X1X1X1X1X1Xg.$ = = & $ & - & & $ ; $ $ ; - - - & - ; = - = - ; & V.1X1X1X1X1X1X1X1X1X1X1X1X1X1X1X1X1X1X1X1X1X1X1X1X1X1X1X1X1X1X1X1X1X1X1X1X1X1X1X1X1X1X1X1X1X1X1X1X1X1X1X1X1X1X1X1X1X1X1X1X1X1X1X1X1X1X1X1X1X1X1X1X1X1X1X1X1X1X1X1X1X1X1X1X1X1X1X1X1X1X1X1X1X1X1X1X1X1X1X1X1X1X1X1X1X1X1X1X1X1X1X1X1X1X1X1X1X1X1X1X2Xi ; & ; ; ; ; ; ; - ; = ; ; ; ; = = ; = ; ; ; & ; ; Z 2X2X1X1X2X1X1X1X1X3Xy ; ; ; ; ; M.`.).5X5X5X5X5X5X5X5X5X5X5X5X5X5X5X5X5X5X5X5X5X",
"5X5X5X5X5X5X5X5X5X5X5X5X5X5X5X5X5X5X5X5X5X5XT.T.n.; = # $ # ; ~.1X1X1X1X1X1X1X1X1XW $ & $ % - - = - = - $ - - - - ; ; $ - $ ; - ; - ; $X1X1X1X1X1X1X1X1X1X1X1X1X1X1X1X1X1X1X1X1X1X1X1X1X1X1X1X1X1X1X1X1X1X1X1X1X1X1X1X1X1X1X1X1X1X1X1X1X1X1X1X1X1X1X1X1X1X1X1X1X1X1X1X1X1X1X1X1X1X1X1X1X1X1X1X1X1X1X1X1X1X1X1X1X1X1X1X1X1X1X2X1X1X1X1X1X1X1X1X1X1X1X1X1X1X1X1X1X1X1X1X1X1X1X1X1X1X1X1X1X].; ; ; ; - ; - ; ; - ; ; ; ; - ; = ; ; ; ; ; ; ; - y *X1X1X1X1X1X1X1X1X1XY ; ; ; - ; E )..X`.5X5X5X5X5X5X5X5X5X5X5X5X5X5X5X5X5X5X5X5X5X",
"5X5X5X5X5X5X5X5X5X5X5X5X5X5X5X5X5X5X5X5X5X5X5XR.R.E # * # % - t *X1X1X1X1X1X1X1X1X>XM - - # - # & = & - - - ; & ; = & & ; ; $ ; - ; y 1X1X1X1X1X1X1X1X1X1X1X1X1X1X1X1X1X1X1X1X1X1X1X1X1X1X1X1X1X1X1X1X1X1X1X1X1X1X1X1X1X1X1X1X1X1X1X1X1X1X1X1X1X1X1X1X1X1X1X1X1X1X1X1X1X1X1X1X1X1X1X1X1X1X1X1X1X1X1X1X1X1X1X1X1X1X1X1X1X1X1X1X1X1X1X1X1X1X1X1X1X1X1X1X1X1X1X1X1X1X1X1X1X1X1X1X1X1X1X1X1Xv.; $ ; ; ; ; ; - ; ; ; ; - ; ; - ; ; = - ; - - ; 7 ].1X1X1X1X1X1X1X1X1Xv.- ; - ; - n ).)..X5X5X5X5X5X5X5X5X5X5X5X5X5X5X5X5X5X5X5X5X5X5X",
"5X5X5X5X5X5X5X5X5X5X5X5X5X5X5X5X5X5X5X5X5X5X5XT.R.T.N # * # # * Z 2X2X1X1X1X1X1X1X1X$Xu # $ = - $ & = = - $ ; - $ - ; & = & ; & ; = K 1X1X1X1X1X1X1X1X1X1X1X1X1X1X1X1X1X1X1X1X1X1X1X1X1X1X1X1X1X1X1X1X1X1X1X1X1X1X1X1X1X1X1X1X1X1X1X1X1X1X1X1X1X1X1X1X1X1X1X1X1X1X1X1X1X1X1X1X1X1X1X1X1X1X1X1X1X1X1X1X1X1X1X1X1X1X1X1X1X1X1X1X1X1X1X1X1X1X1X1X1X1X1X2X1X1X1X1X1X1X1X1X1X1X1X1X1X1X1X1X1XR ; ; - ; = ; - ; - - ; ; - - ; - ; - ; & ; $ ; : D.1X1X1X1X1X1X1X1X1X].5 ; - ; - 6 I..X).5X5X5X5X5X5X5X5X5X5X5X5X5X5X5X5X5X5X5X5X5X5X5X",
"5X5X5X5X5X5X5X5X5X5X5X5X5X5X5X5X5X5X5X5X5X5X5X5XT.T.N.6 # % - % $ j.1X1X1X1X1X1X1X1X1X].6 $ = = = & - $ - $ $ - ; - - - - ; ; - - ; y.1X1X1X1X1X1X1X1X1X1X1X1X1X1X1X1X1X1X1X1X1X1X1X1X1X1X1X1X1X2X1X1X1X1X1X1X1X1X1X1X1X1X1X1X1X1X1X1X1X1X1X1X1X1X1X1X1X1X1X1X1X1X1X1X1X1X1X1X1X1X1X1X1X1X1X1X1X1X1X1X1X1X1X1X1X1X1X1X1X1X1X1X1X1X1X1X1X1X1X1X1X1X1X1X1X1X1X1X1X1X1X1X1X1X1X1X1X1X1X1X1XN ; ; $ - ; ; ; ; ; ; - ; ; = ; ; = ; = ; - ; = c.2X1X1X1X1X1X1X1X2X>Xn - ; ; = = a..X)..X5X5X5X5X5X5X5X5X5X5X5X5X5X5X5X5X5X5X5X5X5X5X5X",
"5X5X5X5X5X5X5X5X5X5X5X5X5X5X5X5X5X5X5X5X5X5X5X5X5XR._.f.- # % # & & C.1X1X1X1X1X1X1X1X1XW.; $ & $ # $ $ - - $ = $ - - & ; = = & ; $ g.1X1X1X1X1X1X1X1X1X1X1X1X1X1X1X1X1X1X1X1X1X1X1X1X1X1X1X1X1X1X1X1X1X1X1X1X1X1X1X1X1X1X1X1X1X1X1X1X2X1X1X1X1X1X1X1X1X1X1X1X1X1X1X1X1X1X1X1X1X1X1X1X1X1X1X2X1X1X1X1X1X1X1X1X1X1X1X1X1X1X1X1X1X1X1X1X1X1X1X1X1X1X1X1X1X1X1X1X1X1X1X1X1X1X1X1X1X1X1X1X].; ; ; ; ; & $ - & - ; & = ; - ; ; - $ ; & ; - j.1X1X1X1X1X1X1X1X1X1XK - = ; - ; G .X)..X5X5X5X5X5X5X5X5X5X5X5X5X5X5X5X5X5X5X5X5X5X5X5X5X",
"5X5X5X5X5X5X5X5X5X5X5X5X5X5X5X5X5X5X5X5X5X5X5X5X5XT.T.R.P - # % % & q {.1X1X1X1X1X1X1X1X1XA.; $ - - $ $ ; = $ $ = - ; = - & ; - - - R 2X1X1X1X1X1X1X1X1X1X1X1X1X1X1X1X1X1X1X1X1X1X1X1X1X1X1X1X1X1X1X1X1X1X1X1X1X1X1X1X1X1X1X1X1X1X1X1X2X1X1X1X1X1X1X1X1X1X1X1X1X1X1X1X1X1X1X1X1X1X1X1X1X1X1X1X1X1X1X1X1X1X1X1X1X1X1X1X1X1X1X1X1X1X1X1X1X1X1X1X1X1X1X1X1X1X1X1X1X1X1X1X1X1X1X1X2X1X2X$XN $ & $ - $ ; ; & ; & ; - - - - ; ; & & $ ; - R 1X1X1X1X1X1X1X1X2X2Xg.; ; - ; - y _..X).5X5X5X5X5X5X5X5X5X5X5X5X5X5X5X5X5X5X5X5X5X5X5X5X5X",
"5X5X5X5X5X5X5X5X5X5X5X5X5X5X5X5X5X5X5X5X5X5X5X5X5X5X_.T.T.m # % $ # = y *X1X1X1X1X1X1X1X1X1XS.& - = $ & - - = ; - - $ ; & ; = & = - i $X2X2X1X1X1X1X1X1X2X1X1X1X1X1X2X2X1X1X1X1X1X1X2X1X1X1X2X2X1X1X1X1X2X2X1X2X2X2X1X2X1X2X2X1X2X2X2X2X1X1X1X1X1X2X1X1X1X2X2X>X>X>X3X*X*X*X=X=X$X$X4X{.{.{.{.].].].].|.|.!.!.~.~.~.W.W.W.F.C.D.C.C.C.Z.Z.V.V.V.V.V.A.A.A.v.v.v.v.v.v.v.v.c.c.d.R V : - ; ; - ; - ; $ ; & - ; - $ ; ; - $ - - ; & K 2X1X1X1X1X1X1X1X1X1XC.; ; = ; = 4 I..X.X`.5X5X5X5X5X5X5X5X5X5X5X5X5X5X5X5X5X5X5X5X5X5X5X5X5X",
"5X5X5X5X5X5X5X5X5X5X5X5X5X5X5X5X5X5X5X5X5X5X5X5X5X5X5X_._.N.q % $ % # - Z 1X1X1X1X1X1X1X1X1X1Xd.$ $ $ = = = - - = & $ - - - $ ; $ ; & q Y j.y.y.y.t.t.t.t.t.! R R R Y E Y Y W K K K L H H H Q Q Z Z A A V V S M M N N n n s s y u u u t i i q q q 5 4 4 : ; ; ; ; ; ; ; ; ; ; ; ; - ; ; = ; ; ; - - & ; ; & - ; ; - & - & - ; - & & $ ; & ; ; - - ; $ & & ; & ; = & $ - & & - = $ ; $ $ $ - & - - - & $ $ ; $ - & & = - = & - = H 2X1X1X1X1X1X1X1X1X1X].q - - ; ; ; k..X.X(.5X5X5X5X5X5X5X5X5X5X5X5X5X5X5X5X5X5X5X5X5X5X5X5X5X5X",
"5X5X5X5X5X5X5X5X5X5X5X5X5X5X5X5X5X5X5X5X5X5X5X5X5X5X5X5XT._.z.; # # - # # Y 1X1X1X1X1X1X1X1X1X1Xy.# - & - $ = - ; $ - - ; = $ - ; = - - - ; ; = = ; ; ; = - - ; - ; ; ; & & ; ; ; ; ; ; & ; $ ; ; & ; ; & ; ; ; ; ; & ; ; & ; & ; ; ; ; ; ; - ; - ; - ; ; ; & ; ; - ; ; - ; ; $ ; ; ; - ; = ; - ; ; ; - & ; ; & ; - ; - ; & ; & - ; & = & & $ $ - - ; $ & - = - - - $ $ - $ - - - - $ ; $ - - - ; - & - - - $ $ - - = = ; - - H >X1X1X1X1X1X1X1X1X1X=Xy - ; - - = o.).).).5X5X5X5X5X5X5X5X5X5X5X5X5X5X5X5X5X5X5X5X5X5X5X5X5X5X5X",
"5X5X5X5X5X5X5X5X5X5X5X5X5X5X5X5X5X5X5X5X5X5X5X5X5X5X5X5X_.R.R.u.= % = $ - $ d.1X1X1X1X1X1X1X1X1X1Xy.* - = & & - $ $ $ $ $ $ $ ; - = ; = ; - & ; - = ; - ; $ ; $ - - & ; ; ; ; & & ; & ; ; ; ; - ; ; ; & ; ; & ; ; ; ; ; ; ; ; ; ; ; - & ; ; ; ; ; ; ; - ; $ ; ; ; ; = ; ; ; $ ; - ; ; ; - ; - & ; - - ; - & ; - ; - & ; & & = & & & ; - - ; - & & = $ $ ; - & ; - - ; - $ ; - - = $ $ - - - - - $ - = - = $ $ $ ; & $ $ $ & Q >X1X1X1X1X1X1X1X1X1X3XM & ; - - * F ).`.).5X5X5X5X5X5X5X5X5X5X5X5X5X5X5X5X5X5X5X5X5X5X5X5X5X5X5X5X",
"5X5X5X5X5X5X5X5X5X5X5X5X5X5X5X5X5X5X5X5X5X5X5X5X5X5X5X5X5XR.T._.P * # * # $ & b.1X1X1X1X1X1X1X1X1X1Xy.- & & & $ & = $ & - ; $ = - ; $ - ; - = $ = ; $ - & ; - ; = ; ; - $ ; ; - ; ; ; - ; - & ; & ; & ; ; ; ; & - ; ; ; ; $ ; = ; - ; & ; ; $ ; ; $ - ; = ; & ; $ - ; & ; ; $ $ ; $ ; - ; ; - ; - ; & ; $ & $ = - = = - - ; $ ; - - - - - - ; $ - - - - - = = - - & & = - & = = & = - = - - = & $ $ = = $ $ & - = = $ = $ L >X1X1X1X1X1X1X1X1X1X2XZ = $ & ; * m _..X).5X5X5X5X5X5X5X5X5X5X5X5X5X5X5X5X5X5X5X5X5X5X5X5X5X5X5X5X5X",
"5X5X5X5X5X5X5X5X5X5X5X5X5X5X5X5X5X5X5X5X5X5X5X5X5X5X5X5X5X5XR.Q.T.V - * $ $ & ; Z.1X1X1X1X1X1X1X1X1X1Xh.& & - & & = $ ; - - - $ & $ & - $ ; ; = - ; $ ; ; - ; $ ; - ; $ - $ ; ; $ & ; ; ; & ; ; ; & ; ; - ; ; - ; ; ; $ & ; ; = ; ; ; ; = ; ; & ; ; ; $ ; & ; $ - ; = ; - ; - ; ; - = $ $ $ & $ & $ & - ; = ; - - ; - - & - - - $ = $ ; - - $ $ & = = - = - $ ; - - $ & = - & $ & - - # & = $ % $ $ - - = $ & $ $ - - - Y 2X1X1X1X1X1X1X1X1X1X2XW - = ; $ $ t T..X).`.5X5X5X5X5X5X5X5X5X5X5X5X5X5X5X5X5X5X5X5X5X5X5X5X5X5X5X5X5X",
"5X5X5X5X5X5X5X5X5X5X5X5X5X5X5X5X5X5X5X5X5X5X5X5X5X5X5X5X5X5X5XR.R.P.s * # - * * , F.2X1X1X1X1X1X1X1X1X1Xc.; & $ $ - - - ; & - - - ; $ $ & - ; ; = ; ; $ - ; - & = ; - ; ; & ; - - ; ; - - ; $ - ; ; - ; & ; - ; ; - $ ; - ; = ; $ ; $ - ; $ $ - ; $ - ; & = - ; ; - & ; - - ; - - $ & ; & $ $ - - ; - - $ $ $ - & = - & $ - - - - # $ $ # - = - $ = $ - = = = $ - - # = $ $ # = $ - - - - $ % & $ $ $ & = - $ $ $ $ $ t.2X1X1X1X1X1X1X1X1X1X1XR ; $ - - & 8 I.).(.).5X5X5X5X5X5X5X5X5X5X5X5X5X5X5X5X5X5X5X5X5X5X5X5X5X5X5X5X5X5X",
"5X5X5X5X5X5X5X5X5X5X5X5X5X5X5X5X5X5X5X5X5X5X5X5X5X5X5X5X5X5X5X5XR.R.I.t $ $ # * & 4 ~.1X1X1X1X1X1X1X1X1X2XZ.4 & # - = - $ = = = - - & ; & - $ = ; - - = & & ; $ ; $ ; - $ ; - & ; $ - $ ; $ ; ; & & ; - ; & ; - - $ ; ; ; - ; $ ; $ ; $ $ ; - ; = ; $ & = ; - ; - - $ & $ ; - - $ ; - - - $ ; - - - & - $ $ & = & $ $ $ = - = - & $ $ $ = $ = - $ $ $ # = # $ $ # - = = $ $ - - $ - # $ - - # & # = # - # - # $ $ - h.1X1X2X1X1X1X1X1X1X1X1Xt.- - - - & 4 n.).).).5X5X5X5X5X5X5X5X5X5X5X5X5X5X5X5X5X5X5X5X5X5X5X5X5X5X5X5X5X5X5X",
"5X5X5X5X5X5X5X5X5X5X5X5X5X5X5X5X5X5X5X5X5X5X5X5X5X5X5X5X5X5X5X5X5X_.R.N.q * * * $ & 4 ~.2X1X1X1X1X1X1X1X1X1X!.q & $ & - $ & & - - - - - $ ; & = $ $ & - ; & $ ; $ & $ ; $ - ; ; $ = - ; $ = - = - ; ; - & ; & ; ; - = - - ; ; - & $ = ; - = - - $ $ - $ - - - - - ; - ; - - - - - - - - $ - - $ - - - $ - - = - $ $ = # - - $ # $ $ * $ # - = # $ - % - $ # - = $ # = & # & = = # & & # - - * # - # - # = # - = , V.2X1X1X1X1X1X1X1X1X1X1Xy.$ & = & - : k.).).).5X5X5X5X5X5X5X5X5X5X5X5X5X5X5X5X5X5X5X5X5X5X5X5X5X5X5X5X5X5X5X5X",
"5X5X5X5X5X5X5X5X5X5X5X5X5X5X5X5X5X5X5X5X5X5X5X5X5X5X5X5X5X5X5X5X5X5XQ.T.n.4 * * # & & 4 ~.2X1X1X1X1X1X1X1X1X1X{.y = = - $ & - & & - - - $ - - $ - & $ ; ; = ; - $ ; = $ ; - $ $ = ; & - ; = ; - & - $ ; - - & & - = ; $ ; - - = - ; - - ; $ = ; ; - - ; ; - - - $ $ - - ; - & # = $ & = = $ = $ # & - $ = # $ # $ $ = = $ & & $ * # $ - $ = = # # = # # # * - # $ - $ # = $ # # # $ & # % # = # # $ $ % = * - q !.1X1X1X1X1X1X1X1X1X1X1Xy.; $ $ = * - l.).).).5X5X5X5X5X5X5X5X5X5X5X5X5X5X5X5X5X5X5X5X5X5X5X5X5X5X5X5X5X5X5X5X5X",
"5X5X5X5X5X5X5X5X5X5X5X5X5X5X5X5X5X5X5X5X5X5X5X5X5X5X5X5X5X5X5X5X5X5XR.Q.R.b.4 # $ & & % 4 F.1X1X1X1X1X1X1X1X1X1X*XA $ # # - & & $ = $ $ & - - ; - $ $ - = - - = ; = - - ; $ & ; $ ; ; $ $ $ $ ; ; & = = = ; ; & - ; ; - = ; - ; ; $ = - $ ; - & - - - - $ $ & = $ $ & - $ $ $ $ $ $ & $ = - # - - - * = $ # & = $ & = # $ & * - # $ # # # # & * % # # $ # = # & # # # $ # * # = % % # % # = # $ - # # % $ # N $X1X1X1X1X1X1X1X1X1X1X1Xt.- - $ $ * - a.).).).5X5X5X5X5X5X5X5X5X5X5X5X5X5X5X5X5X5X5X5X5X5X5X5X5X5X5X5X5X5X5X5X5X5X",
"5X5X5X5X5X5X5X5X5X5X5X5X5X5X5X5X5X5X5X5X5X5X5X5X5X5X5X5X5X5X5X5X5X5X5XR.R._.k.4 # & - # # > C.2X1X1X1X1X1X1X1X1X1X>Xt.- - & - = $ $ $ ; - - - - - ; & - $ = - ; $ $ ; - - - $ - $ - - = ; - $ = - = ; - = - - $ $ & $ $ $ $ - - = = $ $ $ - - - - = = $ $ $ - = $ $ $ # $ $ $ $ - # - # $ # $ $ # = # - # = = # # # # $ # # # # # - # - # & # % # - $ # % # = # % # - # & # = # # # & # & # * # # * $ # # K >X1X1X1X1X1X1X1X1X1X1X1XR & - # $ $ * i.).).).5X5X5X5X5X5X5X5X5X5X5X5X5X5X5X5X5X5X5X5X5X5X5X5X5X5X5X5X5X5X5X5X5X5X5X",
"5X5X5X5X5X5X5X5X5X5X5X5X5X5X5X5X5X5X5X5X5X5X5X5X5X5X5X5X5X5X5X5X5X5X5X5XR._.R.k.4 # * - = $ ; b.1X1X1X1X1X1X1X1X1X1X1Xv.4 & & & - = - - & - - - - & & - - $ $ ; $ & - - ; $ - - = - ; $ - - $ = - & ; $ - - - - ; - - - - - - = - - - - % % = # - = = $ - - - $ # % # $ $ & - # = * * # % - & $ % # # - # % * # # # % # # & & # # $ # # # % # # # $ # * # # % # # % # # * # * # # # # # & # # # % - # ; g.1X1X1X1X1X1X1X1X1X1X1X>XL $ $ - - = - i.).).).5X5X5X5X5X5X5X5X5X5X5X5X5X5X5X5X5X5X5X5X5X5X5X5X5X5X5X5X5X5X5X5X5X5X5X5X",
"5X5X5X5X5X5X5X5X5X5X5X5X5X5X5X5X5X5X5X5X5X5X5X5X5X5X5X5X5X5X5X5X5X5X5X5X5XR.Q._.k.4 # - - # & - d.1X1X1X1X1X1X1X1X1X1X1X].z = $ - & $ - - & = - & - = - - $ $ - = - - - $ $ ; - $ ; $ $ ; - ; - ; $ $ $ & = - - = = $ ; - - & & - = & = & $ - * - - & $ # $ $ $ - % - = # - # * $ # % - # # $ # % # - # % # # * * % # - * # # # # # * # # # # # # # # % # % # # # # # * # # # # # $ # $ # # $ $ # # t !.1X1X1X1X1X1X1X1X1X1X1X3XZ $ # $ - # - p.).).).5X5X5X5X5X5X5X5X5X5X5X5X5X5X5X5X5X5X5X5X5X5X5X5X5X5X5X5X5X5X5X5X5X5X5X5X5X",
"5X5X5X5X5X5X5X5X5X5X5X5X5X5X5X5X5X5X5X5X5X5X5X5X5X5X5X5X5X5X5X5X5X5X5X5X5X5XR.R.R.z.6 # & - - $ $ Y >X1X1X1X1X1X1X1X1X1X1X>XY # $ # $ $ - - = & & ; & - - $ - - - - & & = $ $ $ - - - = $ = - - = - & & - - = - - # $ $ - - & & $ = $ $ - & - - - # # - & $ $ * $ $ - & & * * $ # & # # # & # $ # % % # # $ # = # # # # # # # # # $ # % # # # # # # # # # # # # # # # # # # # * $ # # # # # # # # L *X1X1X1X1X1X1X1X1X1X1X1X$XN - - = & - ; s.(.).).5X5X5X5X5X5X5X5X5X5X5X5X5X5X5X5X5X5X5X5X5X5X5X5X5X5X5X5X5X5X5X5X5X5X5X5X5X5X",
"5X5X5X5X5X5X5X5X5X5X5X5X5X5X5X5X5X5X5X5X5X5X5X5X5X5X5X5X5X5X5X5X5X5X5X5X5X5X5XR._.R.x.q & # = $ & - Z *X1X1X1X1X1X1X1X1X1X1X1Xv.6 $ & $ - $ & = $ $ = $ - & = $ = & - & - = = $ - = - = $ $ - $ - $ & - $ $ $ - - $ $ $ # % $ $ * - # $ # & & # - - - # # & # = # # # & # # # - % # $ # % # # # # # # # # # # # # # $ # # # # # # # # # # # # # # * # # # # # # # # # o # * # # # # # & # # # 4 v.1X1X1X1X1X1X1X1X1X1X1X1X].t & # # & # ; k.(.).(.5X5X5X5X5X5X5X5X5X5X5X5X5X5X5X5X5X5X5X5X5X5X5X5X5X5X5X5X5X5X5X5X5X5X5X5X5X5X5X",
"5X5X5X5X5X5X5X5X5X5X5X5X5X5X5X5X5X5X5X5X5X5X5X5X5X5X5X5X5X5X5X5X5X5X5X5X5X5X5X5X_.R.R.m.i = - # & - - s {.1X1X1X1X1X1X1X1X1X1X1X$XC & $ $ - & - $ $ $ & - - - ; = = # % = - & = - - - - $ $ - - = - - - - & - - = $ $ $ $ # - - # - $ # # - $ # - $ # - = * $ # - # % # # % # # # $ # # # # * # # # # % # # # # $ # # # # # # # # # # # # # # # # # # # $ # # # # # # # # # # # # # # # # # S {.2X1X1X1X1X1X1X1X1X1X1X1XZ.4 % # & # # 4 n.(.).).5X5X5X5X5X5X5X5X5X5X5X5X5X5X5X5X5X5X5X5X5X5X5X5X5X5X5X5X5X5X5X5X5X5X5X5X5X5X5X5X",
"5X5X5X5X5X5X5X5X5X5X5X5X5X5X5X5X5X5X5X5X5X5X5X5X5X5X5X5X5X5X5X5X5X5X5X5X5X5X5X5X5XR._.R.I.y - $ & # $ & q C.1X1X1X1X1X1X1X1X1X1X1X2XS.4 $ $ & - $ $ & % # $ - - = - - $ $ & $ - # $ = - $ - - - = $ # * $ & # $ # $ - - - - # % - - $ - # & & # # # # & * # # # # $ # $ & # * # # # % # # # # # # # # # # # # # # # # # # # # o # # # # # # # # # # # # # # # # # # # # # # # # # # # # 4 g.2X1X1X1X1X1X1X1X1X1X1X1X2Xj.- # # & # - w G.).(.(.5X5X5X5X5X5X5X5X5X5X5X5X5X5X5X5X5X5X5X5X5X5X5X5X5X5X5X5X5X5X5X5X5X5X5X5X5X5X5X5X5X",
"5X5X5X5X5X5X5X5X5X5X5X5X5X5X5X5X5X5X5X5X5X5X5X5X5X5X5X5X5X5X5X5X5X5X5X5X5X5X5X5X5X5X5X_.R.P.B # $ & $ = - ; j.2X1X1X1X1X1X1X1X1X1X1X2X@XZ # & # = $ * # - & & $ $ # $ $ * & # - $ * # $ # - # - $ = $ = $ - * $ - & % - $ # = & # $ % # - # - $ & - # # # # # * # = # # - # # # # # # # # # # # # # # # # # # # # # # # # # # o # # # # # # # # # + + # # # # # # # # + # # # # # # # Z 4X1X1X1X1X1X1X1X1X1X1X1X1X*XH # $ & $ # # s K.(.(.).5X5X5X5X5X5X5X5X5X5X5X5X5X5X5X5X5X5X5X5X5X5X5X5X5X5X5X5X5X5X5X5X5X5X5X5X5X5X5X5X5X5X",
"5X5X5X5X5X5X5X5X5X5X5X5X5X5X5X5X5X5X5X5X5X5X5X5X5X5X5X5X5X5X5X5X5X5X5X5X5X5X5X5X5X5X5X5XR.R.R.G $ - - # # $ $ Z *X1X1X2X1X1X1X1X1X1X2X1X1XA.i - # $ - - & # $ - - - - - # $ $ - & = - $ - - & - $ # # * # = # - $ # # # # $ $ # $ # # $ $ # $ # # # # $ # * * # # # # $ # # # * # # # # # # # # # # # # # # # # # # # # # # # # # # # # X # # # # # # # # # # # # # # # # # # # # q A.1X1X1X1X1X1X1X1X1X1X1X1X1X].u # # # # # # C R.).(.(.5X5X5X5X5X5X5X5X5X5X5X5X5X5X5X5X5X5X5X5X5X5X5X5X5X5X5X5X5X5X5X5X5X5X5X5X5X5X5X5X5X5X5X",
"5X5X5X5X5X5X5X5X5X5X5X5X5X5X5X5X5X5X5X5X5X5X5X5X5X5X5X5X5X5X5X5X5X5X5X5X5X5X5X5X5X5X5X5X5X_.R._.X.; % # - $ = - t ~.1X1X1X1X1X1X1X1X1X1X1X1X*XR ; $ # $ - - = - & & & - % - $ # $ # - # # - # & $ = & = - - % & & # % # % # % # - # - # # * # # # # % # # # # # # # # # # # # # # # # # # # # # # # # # # # # # # # # # o # # #   # # # # # + # # # # #   # # o # # # # o # # # 5.*X1X1X1X1X1X1X1X1X1X1X1X2X1Xk.2 # # # # # * U (.(.(.).5X5X5X5X5X5X5X5X5X5X5X5X5X5X5X5X5X5X5X5X5X5X5X5X5X5X5X5X5X5X5X5X5X5X5X5X5X5X5X5X5X5X5X5X",
"5X5X5X5X5X5X5X5X5X5X5X5X5X5X5X5X5X5X5X5X5X5X5X5X5X5X5X5X5X5X5X5X5X5X5X5X5X5X5X5X5X5X5X5X5X5XR._.R.k.6 & - - # - $ ; y.>X1X1X1X1X1X1X1X1X1X1X1X1X}.Z # $ # $ $ # - # # $ # - & - * - % $ & & % - # - # # # # # # # = # $ # % # % # = # # # * # # # # # % # # # # # # # # # # # # # # # # # X # # # . o # # o O # # O # + # # # o # # # O # + # # # @ #   # # # # o # # # # # Z }.1X1X1X1X1X1X1X1X1X1X1X1X1X*XH # # # # # # < a.).(.).(.5X5X5X5X5X5X5X5X5X5X5X5X5X5X5X5X5X5X5X5X5X5X5X5X5X5X5X5X5X5X5X5X5X5X5X5X5X5X5X5X5X5X5X5X5X",
"5X5X5X5X5X5X5X5X5X5X5X5X5X5X5X5X5X5X5X5X5X5X5X5X5X5X5X5X5X5X5X5X5X5X5X5X5X5X5X5X5X5X5X5X5X5X5XR._.R.N.s # # # - $ - - M {.1X1X1X1X1X1X1X1X1X1X1X1X1XD.n & $ # $ $ # $ & = - # $ & # # $ # # & - % % $ $ $ # # * - # & # % # % # # * % # # # # # % # # # # # @ # * # # # # # # # # # # # # # # o # # # # # # #   # # + # # # + # + # # O # # O + # # # O . # # # # # # # N W.1X1X1X1X1X1X1X1X1X1X1X1X2X1XD.i # # # # # * t M.(.(.(.(.5X5X5X5X5X5X5X5X5X5X5X5X5X5X5X5X5X5X5X5X5X5X5X5X5X5X5X5X5X5X5X5X5X5X5X5X5X5X5X5X5X5X5X5X5X5X",
"5X5X5X5X5X5X5X5X5X5X5X5X5X5X5X5X5X5X5X5X5X5X5X5X5X5X5X5X5X5X5X5X5X5X5X5X5X5X5X5X5X5X5X5X5X5X5X5XR.R.R.P.G - - - $ # $ $ 4 g.1X1X1X1X1X1X1X1X1X1X1X1X1X2Xv.u * $ % $ $ # $ # # & # $ & - & % # # # # # - # * - # # $ # # # # # % # # # # # % # # # # # # # # # # # # # # # # # # o # # # # o # # . # . # # o # # + # # #   # o # # # X # O # # #   o # # # #   . # @ u V.2X1X1X1X1X1X1X1X1X1X1X1X1X1X3XE $ # # # # # * B R.).(.(.5X5X5X5X5X5X5X5X5X5X5X5X5X5X5X5X5X5X5X5X5X5X5X5X5X5X5X5X5X5X5X5X5X5X5X5X5X5X5X5X5X5X5X5X5X5X5X5X",
"5X5X5X5X5X5X5X5X5X5X5X5X5X5X5X5X5X5X5X5X5X5X5X5X5X5X5X5X5X5X5X5X5X5X5X5X5X5X5X5X5X5X5X5X5X5X5X5X5X5X_.R._.i.2 - # - # % % - V }.1X1X1X1X1X1X1X1X1X1X1X1X1X>Xc.y # $ & # # = # - $ # - # & # & # - # - # & # % = $ # $ # # # % # # # # # # # # # # # # # # # # # # # # @ # @ # # # #   # # # # # # # # o # X # # # . . # # X # o X # X # o # # o # + # X # @ # # z A.2X1X1X1X1X1X1X1X1X1X1X1X1X1X1XY.t # # # @ # # ; 6.(.(.(.(.5X5X5X5X5X5X5X5X5X5X5X5X5X5X5X5X5X5X5X5X5X5X5X5X5X5X5X5X5X5X5X5X5X5X5X5X5X5X5X5X5X5X5X5X5X5X5X5X5X",
"5X5X5X5X5X5X5X5X5X5X5X5X5X5X5X5X5X5X5X5X5X5X5X5X5X5X5X5X5X5X5X5X5X5X5X5X5X5X5X5X5X5X5X5X5X5X5X5X5X5X5XR.R.R.M.s - - - - $ # & , d.>X1X1X1X1X1X1X1X1X1X1X1X1X1X2Xv.n # # % # # $ # & $ # # $ # % # - # % # # # # # # % # # % # # $ # * # # # # # # # # # # # # # # # # # # # # # # # # @ O # O o # + # . # #   # O # # #   # # # # # # X # o # # + # # # # # M Z.2X1X1X1X1X1X1X1X1X1X1X1X1X1X1X&XW $ # # # # # # u M.(.(.(.(.5X5X5X5X5X5X5X5X5X5X5X5X5X5X5X5X5X5X5X5X5X5X5X5X5X5X5X5X5X5X5X5X5X5X5X5X5X5X5X5X5X5X5X5X5X5X5X5X5X5X",
"5X5X5X5X5X5X5X5X5X5X5X5X5X5X5X5X5X5X5X5X5X5X5X5X5X5X5X5X5X5X5X5X5X5X5X5X5X5X5X5X5X5X5X5X5X5X5X5X5X5X5X5XR.R._.T.P = # - % # $ $ = y W.2X1X1X1X1X1X1X1X1X1X1X1X1X1X1XC.Z = # # = - # # & & # & # * # # $ $ # # $ # % # # # # # # # # # # # # # # # # # # @ # # X # . # # # # @ # # o @ # # + . # + . # # . #   # # # # + # .   @ # . o # . # # o # #   # Z ~.1X1X2X1X1X1X1X1X1X1X1X1X1X1X1X1Xc.8 # # # # # # * G E.(.(.(.5X5X5X5X5X5X5X5X5X5X5X5X5X5X5X5X5X5X5X5X5X5X5X5X5X5X5X5X5X5X5X5X5X5X5X5X5X5X5X5X5X5X5X5X5X5X5X5X5X5X5X5X",
"5X5X5X5X5X5X5X5X5X5X5X5X5X5X5X5X5X5X5X5X5X5X5X5X5X5X5X5X5X5X5X5X5X5X5X5X5X5X5X5X5X5X5X5X5X5X5X5X5X5X5X5X5X5XR.E.R.k.i % $ & # $ # $ # L $X1X1X1X1X1X1X1X1X1X1X1X1X1X1X2X}.R 6 # # & # # - # # # # $ # # # $ # # # # # # # # # # # # # # # # # # # # # # # # # # # # #   # # # @ # + # # @ # # # # # . # + # #   #     # o #   # o # o . # . # o O q t. X1X1X1X1X1X1X1X1X1X1X1X1X1X1X1X1X!.M # O # # # # # w k.(.(._.(.5X5X5X5X5X5X5X5X5X5X5X5X5X5X5X5X5X5X5X5X5X5X5X5X5X5X5X5X5X5X5X5X5X5X5X5X5X5X5X5X5X5X5X5X5X5X5X5X5X5X5X5X5X",
"5X5X5X5X5X5X5X5X5X5X5X5X5X5X5X5X5X5X5X5X5X5X5X5X5X5X5X5X5X5X5X5X5X5X5X5X5X5X5X5X5X5X5X5X5X5X5X5X5X5X5X5X5X5X5XR.R._.U.H ; * * * - $ # $ 4 t.>X1X1X1X1X1X1X1X1X1X1X1X1X1X1X1X>Xc.M & $ # # $ # # # # # = # # = # # # # # # # # # # # # # # # # # # o # o # # # # # # o # o # # + # # #   # #   @ # + # @ # O # o   #   #   O + # # o #   o # # A V.>X1X1X1X1X1X1X1X1X1X1X1X1X2X1X1X1X$XW # # @ # . # # * F R.E._.(.(.5X5X5X5X5X5X5X5X5X5X5X5X5X5X5X5X5X5X5X5X5X5X5X5X5X5X5X5X5X5X5X5X5X5X5X5X5X5X5X5X5X5X5X5X5X5X5X5X5X5X5X5X5X5X",
"5X5X5X5X5X5X5X5X5X5X5X5X5X5X5X5X5X5X5X5X5X5X5X5X5X5X5X5X5X5X5X5X5X5X5X5X5X5X5X5X5X5X5X5X5X5X5X5X5X5X5X5X5X5X5X5X5XR.R._.k.r * * - - & = * % q g.>X1X1X1X1X1X1X1X1X1X1X1X1X1X1X1X1X}.t.u $ & $ # * # # # # # # # # # # # # # # # # # # # @ # # @ # # # # o # . # o # # O # #   # #     # @ # + # X # +     # X X # O # O @ # #   o o X # s d.$X1X2X1X1X1X1X1X1X1X1X2X1X1X1X1X1X1X*Xt.; # # # # # # # r k.(.(.(.(.5X5X5X5X5X5X5X5X5X5X5X5X5X5X5X5X5X5X5X5X5X5X5X5X5X5X5X5X5X5X5X5X5X5X5X5X5X5X5X5X5X5X5X5X5X5X5X5X5X5X5X5X5X5X5X5X",
"5X5X5X5X5X5X5X5X5X5X5X5X5X5X5X5X5X5X5X5X5X5X5X5X5X5X5X5X5X5X5X5X5X5X5X5X5X5X5X5X5X5X5X5X5X5X5X5X5X5X5X5X5X5X5X5X5X5XR.R._.U.U ; # # # * # # = & u v.2X1X1X1X1X1X1X1X1X1X1X1X1X1X1X1X1X1X!.~ u & # # # # # # # # # # # # # # # # # # # # @ # # # # X # # # # # # # # # + # + # # #   # O #   X # #   # # + #   #     # # o #   o # n y.}.2X1X1X1X1X1X1X1X1X1X1X1X1X1X1X1X2X1X*Xd.6 # # # # + # # # U R.E.(.(.E.5X5X5X5X5X5X5X5X5X5X5X5X5X5X5X5X5X5X5X5X5X5X5X5X5X5X5X5X5X5X5X5X5X5X5X5X5X5X5X5X5X5X5X5X5X5X5X5X5X5X5X5X5X5X5X5X5X",
"5X5X5X5X5X5X5X5X5X5X5X5X5X5X5X5X5X5X5X5X5X5X5X5X5X5X5X5X5X5X5X5X5X5X5X5X5X5X5X5X5X5X5X5X5X5X5X5X5X5X5X5X5X5X5X5X5X5X5X5XR.E.E.M.B - # * - $ # % # $ y v.>X1X1X2X1X1X1X1X1X1X1X1X1X1X1X1X2X2X2X].d.M - # # # # # # # # # # # # # # # # # # # # @ # #   # # + o #   # O # o #   . @ #   #   # X   # + O   #   # o O #     o ; A h. X1X2X1X1X1X1X1X1X1X1X1X1X1X1X1X1X1X1X1X>Xd.q # o . # # # # @ N N.E._.(.E.5X5X5X5X5X5X5X5X5X5X5X5X5X5X5X5X5X5X5X5X5X5X5X5X5X5X5X5X5X5X5X5X5X5X5X5X5X5X5X5X5X5X5X5X5X5X5X5X5X5X5X5X5X5X5X5X5X5X5X",
"5X5X5X5X5X5X5X5X5X5X5X5X5X5X5X5X5X5X5X5X5X5X5X5X5X5X5X5X5X5X5X5X5X5X5X5X5X5X5X5X5X5X5X5X5X5X5X5X5X5X5X5X5X5X5X5X5X5X5X5X5XR.R.R.R.s.t # * # # * # $ # $ u c.>X2X1X1X1X2X1X1X1X1X1X1X1X1X1X1X1X1X1X1X*XV.R y = # # # # # # # o # # o # o # # # # # # O X # + # # #   . # + # # . #   #   + #   #     #   # o o # # & N t.D.>X1X1X1X1X1X1X1X1X1X1X1X1X1X1X1X1X1X1X1X1X*Xj.5 #   # # + # # @ w l.(.E.E.(.(.5X5X5X5X5X5X5X5X5X5X5X5X5X5X5X5X5X5X5X5X5X5X5X5X5X5X5X5X5X5X5X5X5X5X5X5X5X5X5X5X5X5X5X5X5X5X5X5X5X5X5X5X5X5X5X5X5X5X5X5X",
"5X5X5X5X5X5X5X5X5X5X5X5X5X5X5X5X5X5X5X5X5X5X5X5X5X5X5X5X5X5X5X5X5X5X5X5X5X5X5X5X5X5X5X5X5X5X5X5X5X5X5X5X5X5X5X5X5X5X5X5X5X5X5X_.R.E.R.o.4 # * * $ # # $ # = q y.=X1X1X1X1X1X1X1X1X1X1X1X1X1X1X1X1X1X1X1X1X1X*XZ.t.V 7 # o # # # # # # # # @ # @   # # # + # . # X # # . o X o # # +   # #   # # + # o   o i Z j.W.3X2X1X1X1X1X1X1X1X1X1X1X1X1X1X1X1X1X1X1X1X1X1X XR ; o # o # X . # @ 4 X._.(.E._.(.5X5X5X5X5X5X5X5X5X5X5X5X5X5X5X5X5X5X5X5X5X5X5X5X5X5X5X5X5X5X5X5X5X5X5X5X5X5X5X5X5X5X5X5X5X5X5X5X5X5X5X5X5X5X5X5X5X5X5X5X5X5X",
"5X5X5X5X5X5X5X5X5X5X5X5X5X5X5X5X5X5X5X5X5X5X5X5X5X5X5X5X5X5X5X5X5X5X5X5X5X5X5X5X5X5X5X5X5X5X5X5X5X5X5X5X5X5X5X5X5X5X5X5X5X5X5X5X5XR.R.R.L.I ; * # $ # - $ # $ # ; K !.1X1X1X1X1X1X1X1X1X1X1X1X1X1X1X1X1X1X1X1X1X1X1X2X XZ.j.L N 4 # # # X # # X # # # # # + # + # # # # # #   #     #       # q M W d.W.=X1X1X1X2X2X1X1X1X1X1X1X1X1X1X1X1X1X1X1X1X1X1X1X1X2XC.Z # + # # . o # # # - P R.E.E.(.(.5X5X5X5X5X5X5X5X5X5X5X5X5X5X5X5X5X5X5X5X5X5X5X5X5X5X5X5X5X5X5X5X5X5X5X5X5X5X5X5X5X5X5X5X5X5X5X5X5X5X5X5X5X5X5X5X5X5X5X5X5X5X5X5X",
"5X5X5X5X5X5X5X5X5X5X5X5X5X5X5X5X5X5X5X5X5X5X5X5X5X5X5X5X5X5X5X5X5X5X5X5X5X5X5X5X5X5X5X5X5X5X5X5X5X5X5X5X5X5X5X5X5X5X5X5X5X5X5X5X5X5X_.R.R.R.H.H ; # - # # * # $ % # & N g.*X1X1X1X1X1X1X1X1X1X1X1X1X1X1X1X1X1X2X1X1X1X1X1X1X1X2X2X*X!.V.g.t.Y Z M y t 5 4 - $ $ # # - 4 q t n M H Y t.c.C.].*X1X1X1X1X1X1X1X1X1X1X1X1X1X1X1X1X1X1X1X1X1X1X1X1X1X1X1X1X$Xj.t # # o # o o #   # = J L.E.E.(.E.E.5X5X5X5X5X5X5X5X5X5X5X5X5X5X5X5X5X5X5X5X5X5X5X5X5X5X5X5X5X5X5X5X5X5X5X5X5X5X5X5X5X5X5X5X5X5X5X5X5X5X5X5X5X5X5X5X5X5X5X5X5X5X5X5X5X",
"5X5X5X5X5X5X5X5X5X5X5X5X5X5X5X5X5X5X5X5X5X5X5X5X5X5X5X5X5X5X5X5X5X5X5X5X5X5X5X5X5X5X5X5X5X5X5X5X5X5X5X5X5X5X5X5X5X5X5X5X5X5X5X5X5X5X5X5XR.E.R.E.G.G ; * # # # # # - # & * ; L J.2X1X1X1X1X1X1X1X1X1X1X1X1X1X1X1X1X1X1X2X1X1X1X1X1X1X1X1X1X1X1X1X1X1X1X1X1X1X1X1X1X1X1X1X1X1X1X1X1X1X1X1X1X1X1X1X1X1X1X1X1X1X1X1X1X1X1X1X1X1X1X1X1X1X1X1X1X1X2X1X>Xv.Z $ O # O O O # # @ # ; I H.E.(.E.(.(.5X5X5X5X5X5X5X5X5X5X5X5X5X5X5X5X5X5X5X5X5X5X5X5X5X5X5X5X5X5X5X5X5X5X5X5X5X5X5X5X5X5X5X5X5X5X5X5X5X5X5X5X5X5X5X5X5X5X5X5X5X5X5X5X5X5X5X",
"5X5X5X5X5X5X5X5X5X5X5X5X5X5X5X5X5X5X5X5X5X5X5X5X5X5X5X5X5X5X5X5X5X5X5X5X5X5X5X5X5X5X5X5X5X5X5X5X5X5X5X5X5X5X5X5X5X5X5X5X5X5X5X5X5X5X5X5X5X5XR.R.R.R.H.I 1 # = # = # # - # # # * q Y ~.1X1X1X1X1X1X1X1X1X1X1X1X1X1X1X1X1X1X1X1X1X1X1X1X1X1X1X1X1X1X1X1X1X1X1X1X1X1X1X1X1X1X1X1X1X1X1X1X1X1X1X1X1X1X1X1X1X1X1X1X1X1X1X1X1X1X1X1X1X1X1X1X1X1X>XC.K 1 # . # # @ O # @ @ O 2 U L.E.(.E.E.E.5X5X5X5X5X5X5X5X5X5X5X5X5X5X5X5X5X5X5X5X5X5X5X5X5X5X5X5X5X5X5X5X5X5X5X5X5X5X5X5X5X5X5X5X5X5X5X5X5X5X5X5X5X5X5X5X5X5X5X5X5X5X5X5X5X5X5X5X5X",
"5X5X5X5X5X5X5X5X5X5X5X5X5X5X5X5X5X5X5X5X5X5X5X5X5X5X5X5X5X5X5X5X5X5X5X5X5X5X5X5X5X5X5X5X5X5X5X5X5X5X5X5X5X5X5X5X5X5X5X5X5X5X5X5X5X5X5X5X5X5X5X5XR.R.R.R.L.o.w # # # # # # # # # # # # q Y Z.:X1X1X1X1X1X1X1X1X1X1X1X1X1X1X1X1X1X1X1X1X1X1X1X1X1X1X2X1X1X1X1X1X1X1X1X1X1X1X1X1X1X1X1X1X1X1X1X1X1X1X1X1X1X1X1X1X1X2X1X1X1X1X1X1X1X2X2X3Xm.L 4 o   # o o o O O O + # r X.R.E.E._.E.E.5X5X5X5X5X5X5X5X5X5X5X5X5X5X5X5X5X5X5X5X5X5X5X5X5X5X5X5X5X5X5X5X5X5X5X5X5X5X5X5X5X5X5X5X5X5X5X5X5X5X5X5X5X5X5X5X5X5X5X5X5X5X5X5X5X5X5X5X5X5X5X",
"5X5X5X5X5X5X5X5X5X5X5X5X5X5X5X5X5X5X5X5X5X5X5X5X5X5X5X5X5X5X5X5X5X5X5X5X5X5X5X5X5X5X5X5X5X5X5X5X5X5X5X5X5X5X5X5X5X5X5X5X5X5X5X5X5X5X5X5X5X5X5X5X5X5XR.R.R.R.R.a.N - # # $ # # # # # # # # # < A h.].2X1X1X1X1X2X1X1X1X1X1X1X1X1X1X1X1X1X1X1X1X1X1X1X1X1X1X1X1X1X1X1X1X1X1X1X1X1X1X1X1X1X1X1X1X1X1X1X1X1X1X1X1X1X1X1X1X1X1X1X2X|.d.S $ @ #   o #       # # + # B k.E.E.E.E.E.R.5X5X5X5X5X5X5X5X5X5X5X5X5X5X5X5X5X5X5X5X5X5X5X5X5X5X5X5X5X5X5X5X5X5X5X5X5X5X5X5X5X5X5X5X5X5X5X5X5X5X5X5X5X5X5X5X5X5X5X5X5X5X5X5X5X5X5X5X5X5X5X5X5X",
"5X5X5X5X5X5X5X5X5X5X5X5X5X5X5X5X5X5X5X5X5X5X5X5X5X5X5X5X5X5X5X5X5X5X5X5X5X5X5X5X5X5X5X5X5X5X5X5X5X5X5X5X5X5X5X5X5X5X5X5X5X5X5X5X5X5X5X5X5X5X5X5X5X5X5X5XR.R.R.E.R.M.I 8 # * # # % # # # * # # # $ # i H g.].2X2X2X2X2X2X1X1X1X1X1X1X1X1X1X1X1X<X1X1X1X1X1X1X1X1X1X1X1X1X1X1X1X1X1X1X1X1X1X1X1X1X1X1X1X1X1X1X2X2X1X1X>X!.h.Q 4 o O O O O @ @ O O   + O O e P G.E.E.E.E.E.(.5X5X5X5X5X5X5X5X5X5X5X5X5X5X5X5X5X5X5X5X5X5X5X5X5X5X5X5X5X5X5X5X5X5X5X5X5X5X5X5X5X5X5X5X5X5X5X5X5X5X5X5X5X5X5X5X5X5X5X5X5X5X5X5X5X5X5X5X5X5X5X5X5X5X5X",
"5X5X5X5X5X5X5X5X5X5X5X5X5X5X5X5X5X5X5X5X5X5X5X5X5X5X5X5X5X5X5X5X5X5X5X5X5X5X5X5X5X5X5X5X5X5X5X5X5X5X5X5X5X5X5X5X5X5X5X5X5X5X5X5X5X5X5X5X5X5X5X5X5X5X5X5X5X5X5XR.R.R.R.U.a.B ; # # # # # # # # # # # # # # # 4 V t.A.}.2X1X1X1X1X1X1X1X1X1X1X1X<X1X1X1X1X1X1X1X1X1X1X1X1X1X2X1X1X1X1X1X1X1X1X1X1X1X1X1X1X2X2X].v.R M ;   . o # o # @ @ # # @ O O @ ; C k.R.E.E.E.E.E.5X5X5X5X5X5X5X5X5X5X5X5X5X5X5X5X5X5X5X5X5X5X5X5X5X5X5X5X5X5X5X5X5X5X5X5X5X5X5X5X5X5X5X5X5X5X5X5X5X5X5X5X5X5X5X5X5X5X5X5X5X5X5X5X5X5X5X5X5X5X5X5X5X5X5X5X5X5X",
"5X5X5X5X5X5X5X5X5X5X5X5X5X5X5X5X5X5X5X5X5X5X5X5X5X5X5X5X5X5X5X5X5X5X5X5X5X5X5X5X5X5X5X5X5X5X5X5X5X5X5X5X5X5X5X5X5X5X5X5X5X5X5X5X5X5X5X5X5X5X5X5X5X5X5X5X5X5X5X5X5XR.R.R.U.E.H.6.m * # # + # # # # # # # # # # # # # # : n L y.v.!.=X2X1X1X1X<X<X1X2X2X1X1X2X1X1X1X2X1X1X2X2X1X1X2X2X1X1X1X1X2X%X!.b.t.H s ; o . #   #     # o o O O O O O O * B i.U.E.R.E.E.E.E.5X5X5X5X5X5X5X5X5X5X5X5X5X5X5X5X5X5X5X5X5X5X5X5X5X5X5X5X5X5X5X5X5X5X5X5X5X5X5X5X5X5X5X5X5X5X5X5X5X5X5X5X5X5X5X5X5X5X5X5X5X5X5X5X5X5X5X5X5X5X5X5X5X5X5X5X5X5X5X5X",
"5X5X5X5X5X5X5X5X5X5X5X5X5X5X5X5X5X5X5X5X5X5X5X5X5X5X5X5X5X5X5X5X5X5X5X5X5X5X5X5X5X5X5X5X5X5X5X5X5X5X5X5X5X5X5X5X5X5X5X5X5X5X5X5X5X5X5X5X5X5X5X5X5X5X5X5X5X5X5X5X5X5X5X5XR.E.E.R.R.L.6.B < # # * # # # o o $ # o # # o $ o # # # # # 1 u S L R i.g.v.V.Y.~.|.].].].].].|.~.D.Z.c.g.y.E H M t ; O + # o o o o o # o   . .   o o o O O O < C i.U.E.E.E.R.E.E.5X5X5X5X5X5X5X5X5X5X5X5X5X5X5X5X5X5X5X5X5X5X5X5X5X5X5X5X5X5X5X5X5X5X5X5X5X5X5X5X5X5X5X5X5X5X5X5X5X5X5X5X5X5X5X5X5X5X5X5X5X5X5X5X5X5X5X5X5X5X5X5X5X5X5X5X5X5X5X5X5X5X5X",
"5X5X5X5X5X5X5X5X5X5X5X5X5X5X5X5X5X5X5X5X5X5X5X5X5X5X5X5X5X5X5X5X5X5X5X5X5X5X5X5X5X5X5X5X5X5X5X5X5X5X5X5X5X5X5X5X5X5X5X5X5X5X5X5X5X5X5X5X5X5X5X5X5X5X5X5X5X5X5X5X5X5X5X5X5X5X5XR.E.E.E.R.U.l.F r # # # * # # @ # # o * @ # @ # @ O # # O # # # @ @ # + # @ O # # # . #   + #   o # O @ O O @ @ # @ O @ @ + + O O #   O O @ @ @ # r I k.R.R.R.E.E.E.R.5X5X5X5X5X5X5X5X5X5X5X5X5X5X5X5X5X5X5X5X5X5X5X5X5X5X5X5X5X5X5X5X5X5X5X5X5X5X5X5X5X5X5X5X5X5X5X5X5X5X5X5X5X5X5X5X5X5X5X5X5X5X5X5X5X5X5X5X5X5X5X5X5X5X5X5X5X5X5X5X5X5X5X5X5X5X",
"5X5X5X5X5X5X5X5X5X5X5X5X5X5X5X5X5X5X5X5X5X5X5X5X5X5X5X5X5X5X5X5X5X5X5X5X5X5X5X5X5X5X5X5X5X5X5X5X5X5X5X5X5X5X5X5X5X5X5X5X5X5X5X5X5X5X5X5X5X5X5X5X5X5X5X5X5X5X5X5X5X5X5X5X5X5X5X5X5X5XU.E.E.U.U.E.G.X.F e # # # * # # @ # # # # # # O O # # O # @ # O # + @ # O @ . # + . #   o o @ @ @ # @ @ O O O O # O + O O O     O @ t F a.H.R.R.E.R.R.R.E.5X5X5X5X5X5X5X5X5X5X5X5X5X5X5X5X5X5X5X5X5X5X5X5X5X5X5X5X5X5X5X5X5X5X5X5X5X5X5X5X5X5X5X5X5X5X5X5X5X5X5X5X5X5X5X5X5X5X5X5X5X5X5X5X5X5X5X5X5X5X5X5X5X5X5X5X5X5X5X5X5X5X5X5X5X5X5X5X5X",
"5X5X5X5X5X5X5X5X5X5X5X5X5X5X5X5X5X5X5X5X5X5X5X5X5X5X5X5X5X5X5X5X5X5X5X5X5X5X5X5X5X5X5X5X5X5X5X5X5X5X5X5X5X5X5X5X5X5X5X5X5X5X5X5X5X5X5X5X5X5X5X5X5X5X5X5X5X5X5X5X5X5X5X5X5X5X5X5X5X5X5X5X5XE.E.E.U.E.E.U.H.a.I z 2 # # # @ @ @ # # # # O O # O # O # # O # # @ @ . # . # O   #   O O O O # O @ O # O O O + O O 3 N I l.H.R.E.R.R.E.R.E.R.5X5X5X5X5X5X5X5X5X5X5X5X5X5X5X5X5X5X5X5X5X5X5X5X5X5X5X5X5X5X5X5X5X5X5X5X5X5X5X5X5X5X5X5X5X5X5X5X5X5X5X5X5X5X5X5X5X5X5X5X5X5X5X5X5X5X5X5X5X5X5X5X5X5X5X5X5X5X5X5X5X5X5X5X5X5X5X5X5X5X5X5X",
"5X5X5X5X5X5X5X5X5X5X5X5X5X5X5X5X5X5X5X5X5X5X5X5X5X5X5X5X5X5X5X5X5X5X5X5X5X5X5X5X5X5X5X5X5X5X5X5X5X5X5X5X5X5X5X5X5X5X5X5X5X5X5X5X5X5X5X5X5X5X5X5X5X5X5X5X5X5X5X5X5X5X5X5X5X5X5X5X5X5X5X5X5X5X5X5X5XE.U.E.U.U.U.R.R.M.s.U F s 2 # O # O O # @ @ @ # O O # O O O O # . . . . # @ X O # O O O O # O O 4 s F o.l.H.R.R.R.E.E.R.R.U.R.5X5X5X5X5X5X5X5X5X5X5X5X5X5X5X5X5X5X5X5X5X5X5X5X5X5X5X5X5X5X5X5X5X5X5X5X5X5X5X5X5X5X5X5X5X5X5X5X5X5X5X5X5X5X5X5X5X5X5X5X5X5X5X5X5X5X5X5X5X5X5X5X5X5X5X5X5X5X5X5X5X5X5X5X5X5X5X5X5X5X5X5X5X5X5X5X",
"5X5X5X5X5X5X5X5X5X5X5X5X5X5X5X5X5X5X5X5X5X5X5X5X5X5X5X5X5X5X5X5X5X5X5X5X5X5X5X5X5X5X5X5X5X5X5X5X5X5X5X5X5X5X5X5X5X5X5X5X5X5X5X5X5X5X5X5X5X5X5X5X5X5X5X5X5X5X5X5X5X5X5X5X5X5X5X5X5X5X5X5X5X5X5X5X5X5X5X5X5XE.E.E.E.R.R.R.U.R.R.H.x.a.o.I F m s e < * O O O O O O O O @ O # O * 4 e s m F o.o.l.M.U.R.U.R.E.R.U.E.E.E.E.E.5X5X5X5X5X5X5X5X5X5X5X5X5X5X5X5X5X5X5X5X5X5X5X5X5X5X5X5X5X5X5X5X5X5X5X5X5X5X5X5X5X5X5X5X5X5X5X5X5X5X5X5X5X5X5X5X5X5X5X5X5X5X5X5X5X5X5X5X5X5X5X5X5X5X5X5X5X5X5X5X5X5X5X5X5X5X5X5X5X5X5X5X5X5X5X5X5X5X5X5X",
"5X5X5X5X5X5X5X5X5X5X5X5X5X5X5X5X5X5X5X5X5X5X5X5X5X5X5X5X5X5X5X5X5X5X5X5X5X5X5X5X5X5X5X5X5X5X5X5X5X5X5X5X5X5X5X5X5X5X5X5X5X5X5X5X5X5X5X5X5X5X5X5X5X5X5X5X5X5X5X5X5X5X5X5X5X5X5X5X5X5X5X5X5X5X5X5X5X5X5X5X5X5X5X5X5X5XR.E.R.U.U.R.E.U.R.R.U.U.U.E.R.R.U.L.G.G.G.M.M.G.G.G.H.R.R.R.E.U.R.U.U.U.U.U.R.R.R.U.R.E.R.5X5X5X5X5X5X5X5X5X5X5X5X5X5X5X5X5X5X5X5X5X5X5X5X5X5X5X5X5X5X5X5X5X5X5X5X5X5X5X5X5X5X5X5X5X5X5X5X5X5X5X5X5X5X5X5X5X5X5X5X5X5X5X5X5X5X5X5X5X5X5X5X5X5X5X5X5X5X5X5X5X5X5X5X5X5X5X5X5X5X5X5X5X5X5X5X5X5X5X5X5X5X5X5X5X",
"5X5X5X5X5X5X5X5X5X5X5X5X5X5X5X5X5X5X5X5X5X5X5X5X5X5X5X5X5X5X5X5X5X5X5X5X5X5X5X5X5X5X5X5X5X5X5X5X5X5X5X5X5X5X5X5X5X5X5X5X5X5X5X5X5X5X5X5X5X5X5X5X5X5X5X5X5X5X5X5X5X5X5X5X5X5X5X5X5X5X5X5X5X5X5X5X5X5X5X5X5X5X5X5X5X5X5X5X5X5X5X5XE.R.R.E.U.U.E.U.R.E.R.R.E.R.R.R.U.R.E.R.R.E.U.R.E.R.R.E.U.U.E.E.E.5X5X5X5X5X5X5X5X5X5X5X5X5X5X5X5X5X5X5X5X5X5X5X5X5X5X5X5X5X5X5X5X5X5X5X5X5X5X5X5X5X5X5X5X5X5X5X5X5X5X5X5X5X5X5X5X5X5X5X5X5X5X5X5X5X5X5X5X5X5X5X5X5X5X5X5X5X5X5X5X5X5X5X5X5X5X5X5X5X5X5X5X5X5X5X5X5X5X5X5X5X5X5X5X5X5X5X5X5X5X5X",
"5X5X5X5X5X5X5X5X5X5X5X5X5X5X5X5X5X5X5X5X5X5X5X5X5X5X5X5X5X5X5X5X5X5X5X5X5X5X5X5X5X5X5X5X5X5X5X5X5X5X5X5X5X5X5X5X5X5X5X5X5X5X5X5X5X5X5X5X5X5X5X5X5X5X5X5X5X5X5X5X5X5X5X5X5X5X5X5X5X5X5X5X5X5X5X5X5X5X5X5X5X5X5X5X5X5X5X5X5X5X5X5X5X5X5X5X5X5X5X5X5X5X5X5X5X5X5X5XR.5X5X5X5X5X5X5X5X5X5X5X5X5X5X5X5X5X5X5X5X5X5X5X5X5X5X5X5X5X5X5X5X5X5X5X5X5X5X5X5X5X5X5X5X5X5X5X5X5X5X5X5X5X5X5X5X5X5X5X5X5X5X5X5X5X5X5X5X5X5X5X5X5X5X5X5X5X5X5X5X5X5X5X5X5X5X5X5X5X5X5X5X5X5X5X5X5X5X5X5X5X5X5X5X5X5X5X5X5X5X5X5X5X5X5X5X5X5X5X5X5X5X5X5X5X5X5X"
};
